; generated by Slic3r 1.35.5-prusa3d-linux64 on 2017-07-14 at 11:54:37

; first layer acceleration from 600 to 1000 / speer 40 to 25
; tested speed to 80 and print disconnected
; 

; external perimeters extrusion width = 0.60mm
; perimeters extrusion width = 0.60mm
; infill extrusion width = 0.60mm
; solid infill extrusion width = 0.60mm
; top infill extrusion width = 0.30mm
; first layer extrusion width = 0.60mm

M190 S75 ; set bed temperature and wait for it to be reached
M104 S210 ; set temperature
;G28 ; home all axes
;G1 Z0.1  ; lift nozzle 0.25mm
;G92  ; reset axles

M220 S100 ;print speed to 100%
G28 X ;home X axis
G28 Z ;home Z axis
G1 Z5 F5000 ; lift nozzle 5mm
G28 Y ;home Y axis
G1 Y100 F5000 ; move y axis and head out of screw location

; Filament gcode

M109 S210 ; set temperature and wait for it to be reached
G21 ; set units to millimeters
G90 ; use absolute coordinates
M82 ; use absolute distances for extrusion
G92 E0
G1 E-1.80000 F1800.00000
G92 E0
G1 Z0.600 F9000.000
G1 X92.325 Y86.171 F9000.000
G1 E1.78000 F1800.00000
M204 S1200
G1 F2100
G1 X93.176 Y85.416 E1.86738
G1 X93.991 Y84.817 E1.94508
G1 X95.169 Y84.118 E2.05028
G1 X96.293 Y83.614 E2.14494
G1 X97.316 Y83.275 E2.22775
G1 X98.476 Y83.012 E2.31914
G1 X100.066 Y82.838 E2.44201
G1 X111.656 Y82.833 E3.33245
G1 X113.497 Y83.007 E3.47453
G1 X114.886 Y83.337 E3.58417
G1 X116.485 Y83.949 E3.71574
G1 X118.200 Y84.945 E3.86803
G1 X119.577 Y86.075 E4.00495
G1 X120.802 Y87.451 E4.14643
G1 X121.805 Y89.022 E4.28962
G1 X122.483 Y90.565 E4.41910
G1 X122.990 Y92.481 E4.57135
G1 X123.162 Y94.099 E4.69638
G1 X123.165 Y105.848 E5.59904
G1 X123.088 Y106.842 E5.67560
G1 X122.849 Y108.225 E5.78345
G1 X122.440 Y109.554 E5.89031
G1 X122.046 Y110.494 E5.96859
G1 X121.434 Y111.624 E6.06733
G1 X120.575 Y112.839 E6.18162
G1 X119.643 Y113.861 E6.28786
G1 X118.687 Y114.694 E6.38528
G1 X117.521 Y115.498 E6.49411
G1 X116.377 Y116.102 E6.59348
G1 X115.403 Y116.491 E6.67404
G1 X113.960 Y116.908 E6.78948
G1 X112.832 Y117.095 E6.87729
G1 X111.663 Y117.170 E6.96729
G1 X99.929 Y117.157 E7.86880
G1 X97.688 Y116.827 E8.04278
G1 X96.418 Y116.430 E8.14508
G1 X95.506 Y116.046 E8.22107
G1 X94.376 Y115.434 E8.31982
G1 X93.161 Y114.575 E8.43411
G1 X92.134 Y113.638 E8.54092
G1 X91.292 Y112.670 E8.63948
G1 X90.491 Y111.502 E8.74831
G1 X89.883 Y110.346 E8.84858
G1 X89.352 Y108.932 E8.96467
G1 X89.079 Y107.896 E9.04694
G1 X88.902 Y106.803 E9.13206
G1 X88.830 Y105.648 E9.22092
G1 X88.846 Y93.862 E10.12643
G1 X89.008 Y92.495 E10.23218
G1 X89.209 Y91.549 E10.30646
G1 X89.577 Y90.388 E10.40007
G1 X90.091 Y89.232 E10.49723
G1 X90.632 Y88.273 E10.58178
G1 X91.453 Y87.126 E10.69018
G1 X92.295 Y86.204 E10.78612
M204 S2500
G1 X92.690 Y86.570 F9000.000
M204 S1200
G1 F2100
G1 X93.603 Y85.759 E10.87993
G1 X94.353 Y85.221 E10.95088
G1 X95.490 Y84.555 E11.05214
G1 X96.558 Y84.086 E11.14170
G1 X97.573 Y83.758 E11.22369
G1 X98.616 Y83.532 E11.30571
G1 X100.113 Y83.372 E11.42133
G1 X111.656 Y83.369 E12.30815
G1 X113.425 Y83.538 E12.44464
G1 X114.743 Y83.854 E12.54878
G1 X116.277 Y84.443 E12.67501
G1 X117.939 Y85.417 E12.82300
G1 X119.240 Y86.494 E12.95277
G1 X120.423 Y87.838 E13.09029
G1 X121.375 Y89.353 E13.22781
G1 X122.035 Y90.900 E13.35701
G1 X122.480 Y92.671 E13.49726
G1 X122.629 Y94.162 E13.61243
G1 X122.626 Y105.943 E14.51752
G1 X122.472 Y107.358 E14.62686
G1 X122.274 Y108.312 E14.70168
G1 X121.845 Y109.618 E14.80729
G1 X121.353 Y110.684 E14.89752
G1 X120.824 Y111.578 E14.97732
G1 X119.980 Y112.717 E15.08625
G1 X119.114 Y113.625 E15.18264
G1 X118.137 Y114.442 E15.28046
G1 X117.085 Y115.134 E15.37718
G1 X115.966 Y115.701 E15.47358
G1 X114.624 Y116.184 E15.58314
G1 X113.608 Y116.431 E15.66350
G1 X111.614 Y116.635 E15.81748
G1 X99.848 Y116.616 E16.72144
G1 X98.528 Y116.454 E16.82361
G1 X97.605 Y116.251 E16.89621
G1 X96.355 Y115.834 E16.99740
G1 X95.316 Y115.352 E17.08541
G1 X94.428 Y114.828 E17.16466
G1 X93.283 Y113.980 E17.27414
G1 X92.379 Y113.120 E17.36998
G1 X91.563 Y112.143 E17.46780
G1 X90.866 Y111.085 E17.56507
G1 X90.300 Y109.969 E17.66124
G1 X89.817 Y108.626 E17.77086
G1 X89.569 Y107.610 E17.85121
G1 X89.365 Y105.614 E18.00537
G1 X89.384 Y93.848 E18.90933
G1 X89.545 Y92.532 E19.01113
G1 X89.748 Y91.610 E19.08374
G1 X90.111 Y90.493 E19.17397
G1 X90.645 Y89.320 E19.27295
G1 X91.145 Y88.467 E19.34888
G1 X91.941 Y87.377 E19.45263
G1 X92.659 Y86.603 E19.53370
M204 S2500
G1 E17.73370 F1800.00000
G92 E0
G1 X113.562 Y106.514 F9000.000
G1 E1.78000 F1800.00000
M204 S1200
G1 F2100
G1 X113.356 Y106.849 E1.81001
G1 X113.183 Y107.064 E1.83104
G1 X112.957 Y107.276 E1.85471
G1 X112.672 Y107.477 E1.88131
G1 X112.261 Y107.665 E1.91578
G1 X111.925 Y107.758 E1.94237
G1 X111.616 Y107.795 E1.96604
G1 X100.371 Y107.794 E2.82380
G1 X99.970 Y107.737 E2.85471
G1 X99.588 Y107.609 E2.88544
G1 X99.355 Y107.492 E2.90532
G1 X99.018 Y107.259 E2.93654
G1 X98.830 Y107.076 E2.95659
G1 X98.658 Y106.871 E2.97696
G1 X98.508 Y106.650 E2.99735
G1 X98.393 Y106.414 E3.01740
G1 X98.242 Y105.925 E3.05644
G1 X98.202 Y105.491 E3.08963
G1 X98.206 Y94.371 E3.93785
G1 X98.263 Y93.967 E3.96892
G1 X98.338 Y93.718 E3.98882
G1 X98.509 Y93.350 E4.01972
G1 X98.741 Y93.018 E4.05062
G1 X99.043 Y92.723 E4.08283
G1 X99.473 Y92.446 E4.12187
G1 X99.713 Y92.339 E4.14192
G1 X99.964 Y92.267 E4.16180
G1 X100.500 Y92.202 E4.20298
G1 X111.627 Y92.204 E5.05171
G1 X112.030 Y92.264 E5.08277
G1 X112.409 Y92.392 E5.11330
G1 X112.762 Y92.582 E5.14383
G1 X113.078 Y92.827 E5.17438
G1 X113.342 Y93.129 E5.20493
G1 X113.552 Y93.470 E5.23546
G1 X113.700 Y93.841 E5.26599
G1 X113.764 Y94.118 E5.28767
G1 X113.795 Y94.384 E5.30804
G1 X113.798 Y105.517 E6.15726
G1 X113.737 Y106.030 E6.19666
G1 X113.581 Y106.473 E6.23250
M204 S2500
G1 X113.732 Y106.761 F9000.000
M106 S204
G1 E4.43250 F1800.00000
G92 E0
G1 Z0.900 F9000.000
M104 S190 ; set temperature
G1 X113.794 Y105.629 F9000.000
G1 E1.78000 F1800.00000
M204 S900
G1 F2700
G1 X113.737 Y106.030 E1.81091
G1 X113.611 Y106.408 E1.84131
G1 X113.491 Y106.644 E1.86152
G1 X113.331 Y106.885 E1.88351
G1 X113.183 Y107.064 E1.90125
G1 X112.957 Y107.276 E1.92493
G1 X112.627 Y107.504 E1.95549
G1 X112.261 Y107.665 E1.98600
G1 X112.025 Y107.736 E2.00476
G1 X111.767 Y107.783 E2.02478
G1 X111.491 Y107.798 E2.04583
G1 X100.371 Y107.794 E2.89404
G1 X99.970 Y107.737 E2.92495
G1 X99.592 Y107.611 E2.95536
G1 X99.355 Y107.492 E2.97558
G1 X99.018 Y107.259 E3.00678
G1 X98.830 Y107.076 E3.02684
G1 X98.658 Y106.871 E3.04721
G1 X98.508 Y106.650 E3.06759
G1 X98.393 Y106.414 E3.08764
G1 X98.242 Y105.925 E3.12668
G1 X98.202 Y105.491 E3.15987
G1 X98.206 Y94.366 E4.00842
G1 X98.236 Y94.105 E4.02847
G1 X98.339 Y93.714 E4.05937
G1 X98.509 Y93.350 E4.08994
G1 X98.741 Y93.018 E4.12085
G1 X99.043 Y92.723 E4.15305
G1 X99.474 Y92.446 E4.19212
G1 X99.713 Y92.339 E4.21214
G1 X99.966 Y92.267 E4.23219
G1 X100.500 Y92.202 E4.27321
G1 X111.623 Y92.204 E5.12160
G1 X112.030 Y92.264 E5.15301
G1 X112.409 Y92.392 E5.18353
G1 X112.762 Y92.582 E5.21406
G1 X113.065 Y92.816 E5.24328
G1 X113.342 Y93.129 E5.27515
G1 X113.552 Y93.470 E5.30568
G1 X113.700 Y93.841 E5.33620
G1 X113.764 Y94.118 E5.35788
G1 X113.795 Y94.384 E5.37825
G1 X113.796 Y105.584 E6.23258
M204 S2500
G1 X114.039 Y105.803 F9000.000
G1 E4.43258 F1800.00000
G92 E0
G1 Z1.200 F9000.000
G1 X113.794 Y105.629 F9000.000
G1 E1.78000 F1800.00000
M204 S900
G1 F2700
G1 X113.737 Y106.031 E1.81092
G1 X113.612 Y106.404 E1.84099
G1 X113.490 Y106.645 E1.86154
G1 X113.331 Y106.885 E1.88351
G1 X113.183 Y107.064 E1.90125
G1 X112.957 Y107.276 E1.92493
G1 X112.627 Y107.504 E1.95549
G1 X112.261 Y107.665 E1.98597
G1 X112.025 Y107.736 E2.00477
G1 X111.767 Y107.782 E2.02478
G1 X111.491 Y107.798 E2.04583
G1 X100.371 Y107.794 E2.89404
G1 X99.969 Y107.737 E2.92496
G1 X99.596 Y107.612 E2.95503
G1 X99.354 Y107.492 E2.97559
G1 X99.018 Y107.259 E3.00678
G1 X98.830 Y107.076 E3.02683
G1 X98.658 Y106.871 E3.04720
G1 X98.508 Y106.650 E3.06759
G1 X98.393 Y106.414 E3.08764
G1 X98.242 Y105.925 E3.12668
G1 X98.202 Y105.491 E3.15987
G1 X98.206 Y94.371 E4.00810
G1 X98.264 Y93.977 E4.03849
G1 X98.341 Y93.718 E4.05903
G1 X98.512 Y93.352 E4.08986
G1 X98.743 Y93.020 E4.12073
G1 X99.036 Y92.730 E4.15220
G1 X99.473 Y92.446 E4.19196
G1 X99.713 Y92.339 E4.21201
G1 X99.966 Y92.267 E4.23206
G1 X100.500 Y92.202 E4.27308
G1 X111.618 Y92.204 E5.12113
G1 X112.030 Y92.264 E5.15289
G1 X112.409 Y92.392 E5.18339
G1 X112.762 Y92.582 E5.21392
G1 X113.065 Y92.816 E5.24315
G1 X113.342 Y93.129 E5.27501
G1 X113.552 Y93.470 E5.30554
G1 X113.700 Y93.841 E5.33607
G1 X113.762 Y94.109 E5.35701
G1 X113.795 Y94.384 E5.37811
G1 X113.796 Y105.584 E6.23244
M204 S2500
G1 X114.039 Y105.803 F9000.000
G1 E4.43244 F1800.00000
G92 E0
G1 Z1.500 F9000.000
G1 X113.794 Y105.629 F9000.000
G1 E1.78000 F1800.00000
M204 S900
G1 F2700
G1 X113.737 Y106.031 E1.81093
G1 X113.614 Y106.400 E1.84066
G1 X113.490 Y106.645 E1.86155
G1 X113.331 Y106.885 E1.88351
G1 X113.183 Y107.064 E1.90125
G1 X112.957 Y107.276 E1.92493
G1 X112.627 Y107.504 E1.95549
G1 X112.260 Y107.665 E1.98600
G1 X112.025 Y107.736 E2.00478
G1 X111.767 Y107.783 E2.02477
G1 X111.491 Y107.798 E2.04582
G1 X100.371 Y107.794 E2.89404
G1 X99.969 Y107.737 E2.92496
G1 X99.600 Y107.614 E2.95470
G1 X99.354 Y107.492 E2.97560
G1 X99.018 Y107.259 E3.00678
G1 X98.830 Y107.076 E3.02683
G1 X98.658 Y106.871 E3.04720
G1 X98.508 Y106.650 E3.06759
G1 X98.393 Y106.414 E3.08763
G1 X98.242 Y105.925 E3.12668
G1 X98.202 Y105.491 E3.15987
G1 X98.206 Y94.366 E4.00842
G1 X98.236 Y94.105 E4.02847
G1 X98.339 Y93.714 E4.05937
G1 X98.509 Y93.350 E4.08994
G1 X98.741 Y93.018 E4.12084
G1 X99.043 Y92.723 E4.15305
G1 X99.474 Y92.446 E4.19214
G1 X99.714 Y92.339 E4.21216
G1 X99.952 Y92.271 E4.23104
G1 X100.500 Y92.202 E4.27320
G1 X111.614 Y92.204 E5.12092
G1 X112.030 Y92.264 E5.15302
G1 X112.409 Y92.392 E5.18351
G1 X112.762 Y92.582 E5.21404
G1 X113.065 Y92.816 E5.24326
G1 X113.342 Y93.129 E5.27513
G1 X113.552 Y93.470 E5.30566
G1 X113.700 Y93.841 E5.33618
G1 X113.764 Y94.118 E5.35786
G1 X113.795 Y94.384 E5.37823
G1 X113.796 Y105.584 E6.23256
M204 S2500
G1 X114.039 Y105.803 F9000.000
G1 E4.43256 F1800.00000
G92 E0
G1 Z1.800 F9000.000
G1 X113.794 Y105.629 F9000.000
G1 E1.78000 F1800.00000
M204 S900
G1 F2700
G1 X113.737 Y106.031 E1.81093
G1 X113.616 Y106.397 E1.84034
G1 X113.490 Y106.645 E1.86156
G1 X113.331 Y106.885 E1.88351
G1 X113.183 Y107.064 E1.90125
G1 X112.957 Y107.276 E1.92493
G1 X112.627 Y107.504 E1.95549
G1 X112.261 Y107.665 E1.98600
G1 X112.025 Y107.735 E2.00474
G1 X111.767 Y107.783 E2.02478
G1 X111.491 Y107.798 E2.04583
G1 X100.371 Y107.794 E2.89404
G1 X99.969 Y107.737 E2.92497
G1 X99.604 Y107.616 E2.95438
G1 X99.354 Y107.492 E2.97562
G1 X99.018 Y107.259 E3.00678
G1 X98.830 Y107.076 E3.02684
G1 X98.658 Y106.871 E3.04720
G1 X98.508 Y106.650 E3.06759
G1 X98.393 Y106.414 E3.08764
G1 X98.242 Y105.925 E3.12668
G1 X98.202 Y105.491 E3.15987
G1 X98.206 Y94.370 E4.00812
G1 X98.259 Y93.984 E4.03786
G1 X98.338 Y93.717 E4.05911
G1 X98.509 Y93.350 E4.08995
G1 X98.741 Y93.018 E4.12086
G1 X99.043 Y92.723 E4.15307
G1 X99.474 Y92.446 E4.19217
G1 X99.713 Y92.339 E4.21216
G1 X99.966 Y92.267 E4.23221
G1 X100.500 Y92.202 E4.27323
G1 X111.619 Y92.204 E5.12130
G1 X112.026 Y92.263 E5.15267
G1 X112.409 Y92.392 E5.18355
G1 X112.762 Y92.582 E5.21408
G1 X113.065 Y92.816 E5.24330
G1 X113.342 Y93.129 E5.27516
G1 X113.552 Y93.470 E5.30569
G1 X113.700 Y93.841 E5.33622
G1 X113.764 Y94.118 E5.35789
G1 X113.795 Y94.384 E5.37827
G1 X113.796 Y105.584 E6.23259
M204 S2500
G1 X114.039 Y105.803 F9000.000
G1 E4.43259 F1800.00000
G92 E0
G1 Z2.100 F9000.000
G1 X113.794 Y105.629 F9000.000
G1 E1.78000 F1800.00000
M204 S900
G1 F2700
G1 X113.737 Y106.031 E1.81094
G1 X113.617 Y106.393 E1.84002
G1 X113.490 Y106.645 E1.86158
G1 X113.331 Y106.885 E1.88351
G1 X113.183 Y107.064 E1.90125
G1 X112.957 Y107.276 E1.92493
G1 X112.627 Y107.504 E1.95549
G1 X112.261 Y107.665 E1.98600
G1 X112.025 Y107.735 E2.00474
G1 X111.767 Y107.783 E2.02478
G1 X111.491 Y107.798 E2.04583
G1 X100.371 Y107.794 E2.89404
G1 X99.969 Y107.737 E2.92498
G1 X99.607 Y107.617 E2.95406
G1 X99.354 Y107.492 E2.97563
G1 X99.018 Y107.259 E3.00678
G1 X98.830 Y107.076 E3.02683
G1 X98.658 Y106.871 E3.04720
G1 X98.508 Y106.650 E3.06759
G1 X98.393 Y106.414 E3.08764
G1 X98.242 Y105.925 E3.12668
G1 X98.202 Y105.491 E3.15987
G1 X98.206 Y94.366 E4.00842
G1 X98.236 Y94.105 E4.02847
G1 X98.339 Y93.714 E4.05937
G1 X98.509 Y93.350 E4.08994
G1 X98.741 Y93.018 E4.12085
G1 X99.043 Y92.723 E4.15305
G1 X99.474 Y92.446 E4.19217
G1 X99.713 Y92.339 E4.21214
G1 X99.966 Y92.267 E4.23219
G1 X100.500 Y92.202 E4.27321
G1 X111.616 Y92.204 E5.12111
G1 X112.026 Y92.263 E5.15266
G1 X112.409 Y92.392 E5.18353
G1 X112.762 Y92.582 E5.21406
G1 X113.065 Y92.816 E5.24328
G1 X113.342 Y93.129 E5.27515
G1 X113.552 Y93.470 E5.30568
G1 X113.700 Y93.841 E5.33620
G1 X113.764 Y94.118 E5.35788
G1 X113.795 Y94.384 E5.37825
G1 X113.796 Y105.584 E6.23258
M204 S2500
G1 X114.039 Y105.803 F9000.000
G1 E4.43258 F1800.00000
G92 E0
G1 Z2.400 F9000.000
G1 X113.794 Y105.629 F9000.000
G1 E1.78000 F1800.00000
M204 S900
G1 F2700
G1 X113.737 Y106.031 E1.81095
G1 X113.578 Y106.478 E1.84715
G1 X113.357 Y106.848 E1.88000
G1 X113.183 Y107.064 E1.90118
G1 X112.957 Y107.276 E1.92485
G1 X112.627 Y107.504 E1.95541
G1 X112.261 Y107.665 E1.98593
G1 X112.025 Y107.735 E2.00466
G1 X111.767 Y107.783 E2.02470
G1 X111.491 Y107.798 E2.04575
G1 X100.371 Y107.794 E2.89397
G1 X99.969 Y107.737 E2.92492
G1 X99.611 Y107.619 E2.95366
G1 X99.354 Y107.492 E2.97557
G1 X99.018 Y107.259 E3.00671
G1 X98.830 Y107.076 E3.02676
G1 X98.658 Y106.871 E3.04713
G1 X98.508 Y106.650 E3.06752
G1 X98.393 Y106.414 E3.08756
G1 X98.242 Y105.925 E3.12661
G1 X98.202 Y105.491 E3.15980
G1 X98.206 Y94.370 E4.00806
G1 X98.258 Y93.993 E4.03713
G1 X98.338 Y93.717 E4.05906
G1 X98.509 Y93.350 E4.08988
G1 X98.741 Y93.018 E4.12078
G1 X99.043 Y92.723 E4.15299
G1 X99.474 Y92.446 E4.19212
G1 X99.714 Y92.339 E4.21212
G1 X99.939 Y92.274 E4.23000
G1 X100.127 Y92.237 E4.24461
G1 X100.500 Y92.202 E4.27318
G1 X111.616 Y92.204 E5.12108
G1 X112.026 Y92.263 E5.15263
G1 X112.409 Y92.392 E5.18350
G1 X112.762 Y92.582 E5.21403
G1 X113.065 Y92.816 E5.24325
G1 X113.342 Y93.129 E5.27512
G1 X113.552 Y93.470 E5.30565
G1 X113.700 Y93.841 E5.33617
G1 X113.764 Y94.118 E5.35785
G1 X113.795 Y94.384 E5.37822
G1 X113.796 Y105.584 E6.23255
M204 S2500
G1 X114.039 Y105.803 F9000.000
G1 E4.43255 F1800.00000
G92 E0
G1 Z2.700 F9000.000
G1 X113.794 Y105.629 F9000.000
G1 E1.78000 F1800.00000
M204 S900
G1 F2700
G1 X113.737 Y106.031 E1.81096
G1 X113.579 Y106.474 E1.84687
G1 X113.357 Y106.848 E1.87998
G1 X113.183 Y107.064 E1.90118
G1 X112.957 Y107.276 E1.92485
G1 X112.627 Y107.504 E1.95541
G1 X112.262 Y107.665 E1.98582
G1 X112.025 Y107.736 E2.00467
G1 X111.767 Y107.782 E2.02471
G1 X111.491 Y107.798 E2.04575
G1 X100.371 Y107.794 E2.89397
G1 X99.969 Y107.737 E2.92492
G1 X99.615 Y107.621 E2.95333
G1 X99.354 Y107.492 E2.97558
G1 X99.018 Y107.259 E3.00671
G1 X98.830 Y107.076 E3.02676
G1 X98.658 Y106.871 E3.04713
G1 X98.508 Y106.650 E3.06752
G1 X98.393 Y106.414 E3.08756
G1 X98.242 Y105.925 E3.12661
G1 X98.202 Y105.491 E3.15980
G1 X98.206 Y94.366 E4.00835
G1 X98.236 Y94.105 E4.02840
G1 X98.339 Y93.714 E4.05929
G1 X98.509 Y93.350 E4.08987
G1 X98.741 Y93.018 E4.12077
G1 X99.043 Y92.723 E4.15298
G1 X99.475 Y92.446 E4.19212
G1 X99.714 Y92.339 E4.21211
G1 X99.935 Y92.275 E4.22966
G1 X100.127 Y92.237 E4.24459
G1 X100.500 Y92.202 E4.27317
G1 X111.616 Y92.204 E5.12107
G1 X112.026 Y92.263 E5.15261
G1 X112.409 Y92.392 E5.18349
G1 X112.762 Y92.582 E5.21401
G1 X113.065 Y92.816 E5.24324
G1 X113.342 Y93.129 E5.27510
G1 X113.552 Y93.470 E5.30563
G1 X113.700 Y93.841 E5.33616
G1 X113.764 Y94.118 E5.35783
G1 X113.795 Y94.384 E5.37821
G1 X113.796 Y105.584 E6.23253
M204 S2500
G1 X114.039 Y105.803 F9000.000
G1 E4.43253 F1800.00000
G92 E0
G1 Z3.000 F9000.000
G1 X113.794 Y105.629 F9000.000
G1 E1.78000 F1800.00000
M204 S900
G1 F2700
G1 X113.737 Y106.031 E1.81096
G1 X113.581 Y106.471 E1.84658
G1 X113.357 Y106.847 E1.87996
G1 X113.183 Y107.064 E1.90117
G1 X112.957 Y107.276 E1.92485
G1 X112.627 Y107.504 E1.95541
