; generated by Slic3r 1.35.1-prusa3d-win64 on 2017-06-10 at 15:16:18

; 

; external perimeters extrusion width = 0.60mm
; perimeters extrusion width = 0.60mm
; infill extrusion width = 0.60mm
; solid infill extrusion width = 0.40mm
; top infill extrusion width = 0.40mm
; first layer extrusion width = 0.60mm

M104 S220 ; set temperature
M220 S100 ; set print speed to 100%
G28 ; home all axes
;G1 Z0.1  ; lift nozzle 0.25mm
;G92  ; reset axles
G1 Z5 F5000 ; lift nozzle
M109 S220 ; set temperature and wait for it to be reached
G21 ; set units to millimeters
G90 ; use absolute coordinates
M82 ; use absolute distances for extrusion
G92 E0
G1 E-0.80000 F1800.00000
G92 E0
G1 Z1.550 F24000.000
G1 X75.978 Y77.201 F24000.000
G1 E0.79200 F1800.00000
M204 S500
G1 F1800
G1 X77.363 Y75.844 E0.91312
G1 X78.162 Y75.270 E0.97457
G1 X79.047 Y74.764 E1.03827
G1 X79.945 Y74.367 E1.09954
G1 X80.896 Y74.059 E1.16200
G1 X81.870 Y73.851 E1.22422
G1 X82.858 Y73.744 E1.28627
G1 X136.607 Y73.729 E4.64360
G1 X138.434 Y73.905 E4.75824
G1 X140.064 Y74.370 E4.86416
G1 X141.708 Y75.189 E4.97887
G1 X143.069 Y76.211 E5.08517
G1 X144.225 Y77.451 E5.19109
G1 X145.213 Y79.001 E5.30586
G1 X145.849 Y80.577 E5.41204
G1 X146.216 Y82.372 E5.52648
G1 X146.271 Y83.390 E5.59018
G1 X146.263 Y136.992 E8.93835
G1 X146.068 Y138.571 E9.03769
G1 X145.625 Y140.077 E9.13577
G1 X144.947 Y141.485 E9.23336
G1 X144.021 Y142.801 E9.33389
G1 X143.356 Y143.520 E9.39507
G1 X142.554 Y144.221 E9.46157
G1 X141.713 Y144.808 E9.52563
G1 X140.697 Y145.360 E9.59789
G1 X139.692 Y145.763 E9.66549
G1 X138.724 Y146.035 E9.72831
G1 X137.700 Y146.208 E9.79317
G1 X136.728 Y146.270 E9.85401
G1 X83.001 Y146.263 E13.20997
G1 X81.423 Y146.067 E13.30932
G1 X79.919 Y145.623 E13.40725
G1 X78.511 Y144.945 E13.50485
G1 X77.199 Y144.021 E13.60511
G1 X76.480 Y143.356 E13.66629
G1 X75.775 Y142.549 E13.73319
G1 X75.120 Y141.597 E13.80539
G1 X74.640 Y140.697 E13.86911
G1 X74.236 Y139.692 E13.93676
G1 X73.965 Y138.724 E13.99953
G1 X73.792 Y137.700 E14.06440
G1 X73.730 Y136.733 E14.12490
G1 X73.737 Y83.000 E17.48124
G1 X73.933 Y81.425 E17.58035
G1 X74.377 Y79.920 E17.67841
G1 X75.055 Y78.511 E17.77607
G1 X75.943 Y77.250 E17.87243
M204 S1300
G1 E17.07243 F1800.00000
G92 E0
G1 X79.352 Y75.211 F24000.000
G1 E0.79200 F1800.00000
M204 S500
G1 F1800
G1 X81.072 Y74.566 E0.90671
G1 X82.919 Y74.277 E1.02353
G1 X136.606 Y74.264 E4.37698
G1 X138.336 Y74.431 E4.48552
G1 X139.879 Y74.873 E4.58575
G1 X141.434 Y75.649 E4.69431
G1 X142.720 Y76.618 E4.79492
G1 X143.891 Y77.896 E4.90321
G1 X144.745 Y79.262 E5.00377
G1 X145.381 Y80.881 E5.11246
G1 X145.688 Y82.473 E5.21373
G1 X145.728 Y136.976 E8.61814
G1 X145.539 Y138.486 E8.71324
G1 X145.101 Y139.944 E8.80830
G1 X144.442 Y141.286 E8.90170
G1 X143.499 Y142.588 E9.00208
G1 X142.785 Y143.323 E9.06613
G1 X142.048 Y143.933 E9.12587
G1 X141.231 Y144.475 E9.18712
G1 X140.403 Y144.906 E9.24540
G1 X139.480 Y145.270 E9.30736
G1 X138.565 Y145.522 E9.36670
G1 X136.691 Y145.735 E9.48448
G1 X83.018 Y145.727 E12.83706
G1 X81.507 Y145.537 E12.93216
G1 X80.052 Y145.100 E13.02709
G1 X78.710 Y144.439 E13.12050
G1 X77.413 Y143.499 E13.22060
G1 X76.677 Y142.785 E13.28467
G1 X76.064 Y142.044 E13.34474
G1 X75.094 Y140.403 E13.46376
G1 X74.730 Y139.480 E13.52578
G1 X74.478 Y138.564 E13.58507
G1 X74.265 Y136.690 E13.70292
G1 X74.273 Y83.017 E17.05548
G1 X74.462 Y81.510 E17.15035
G1 X74.900 Y80.053 E17.24540
G1 X75.561 Y78.710 E17.33887
G1 X76.501 Y77.412 E17.43897
G1 X77.769 Y76.207 E17.54823
G1 X79.301 Y75.242 E17.66135
M204 S1300
G1 E16.86135 F1800.00000
G92 E0
G1 X138.849 Y137.078 F24000.000
G1 E0.79200 F1800.00000
M204 S500
G1 F1800
G1 X138.743 Y137.423 E0.81450
G1 X138.585 Y137.751 E0.83723
G1 X138.461 Y137.952 E0.85199
G1 X138.139 Y138.309 E0.88200
G1 X137.750 Y138.592 E0.91201
G1 X137.445 Y138.737 E0.93306
G1 X137.078 Y138.850 E0.95704
G1 X136.600 Y138.900 E0.98705
G1 X115.569 Y138.897 E2.29972
G1 X115.122 Y138.849 E2.32777
G1 X114.777 Y138.743 E2.35027
G1 X114.449 Y138.585 E2.37300
G1 X114.275 Y138.478 E2.38580
G1 X114.065 Y138.305 E2.40276
G1 X113.891 Y138.139 E2.41777
G1 X113.742 Y137.950 E2.43278
G1 X113.503 Y137.534 E2.46275
G1 X113.350 Y137.078 E2.49273
G1 X113.300 Y136.592 E2.52323
G1 X113.303 Y115.480 E3.84097
G1 X113.377 Y115.009 E3.87069
G1 X113.503 Y114.666 E3.89349
G1 X113.674 Y114.349 E3.91598
G1 X113.895 Y114.065 E3.93846
G1 X114.087 Y113.873 E3.95539
G1 X114.350 Y113.675 E3.97594
G1 X114.754 Y113.462 E4.00446
G1 X115.240 Y113.329 E4.03592
G1 X115.600 Y113.302 E4.05844
G1 X136.716 Y113.303 E5.37638
G1 X137.164 Y113.373 E5.40472
G1 X137.532 Y113.498 E5.42894
G1 X137.925 Y113.723 E5.45723
G1 X138.220 Y113.974 E5.48142
G1 X138.458 Y114.255 E5.50440
G1 X138.575 Y114.424 E5.51720
G1 X138.737 Y114.755 E5.54020
G1 X138.863 Y115.210 E5.56969
G1 X138.898 Y115.577 E5.59267
G1 X138.898 Y136.600 E6.90485
G1 X138.857 Y137.019 E6.93111
M204 S1300
G1 X139.120 Y137.317 F24000.000
G1 E6.13111 F1800.00000
G92 E0
G1 X138.849 Y104.878 F24000.000
G1 E0.79200 F1800.00000
M204 S500
G1 F1800
G1 X138.743 Y105.223 E0.81450
G1 X138.585 Y105.551 E0.83723
G1 X138.461 Y105.752 E0.85199
G1 X138.139 Y106.109 E0.88200
G1 X137.750 Y106.392 E0.91201
G1 X137.445 Y106.537 E0.93306
G1 X137.078 Y106.650 E0.95704
G1 X136.600 Y106.700 E0.98705
G1 X115.569 Y106.697 E2.29972
G1 X115.122 Y106.649 E2.32777
G1 X114.777 Y106.543 E2.35027
G1 X114.449 Y106.385 E2.37300
G1 X114.275 Y106.278 E2.38580
G1 X114.065 Y106.105 E2.40276
G1 X113.891 Y105.939 E2.41777
G1 X113.742 Y105.750 E2.43278
G1 X113.503 Y105.334 E2.46275
G1 X113.350 Y104.878 E2.49273
G1 X113.300 Y104.392 E2.52323
G1 X113.303 Y83.280 E3.84097
G1 X113.377 Y82.809 E3.87069
G1 X113.503 Y82.466 E3.89349
G1 X113.674 Y82.149 E3.91598
G1 X113.895 Y81.865 E3.93846
G1 X114.087 Y81.673 E3.95539
G1 X114.350 Y81.475 E3.97594
G1 X114.754 Y81.262 E4.00446
G1 X115.240 Y81.129 E4.03592
G1 X115.600 Y81.102 E4.05844
G1 X136.716 Y81.103 E5.37638
G1 X137.164 Y81.173 E5.40472
G1 X137.532 Y81.298 E5.42894
G1 X137.925 Y81.523 E5.45723
G1 X138.220 Y81.774 E5.48142
G1 X138.458 Y82.055 E5.50440
G1 X138.575 Y82.224 E5.51720
G1 X138.737 Y82.555 E5.54020
G1 X138.863 Y83.010 E5.56969
G1 X138.898 Y83.377 E5.59267
G1 X138.898 Y104.400 E6.90485
G1 X138.857 Y104.819 E6.93111
M204 S1300
G1 X139.120 Y105.117 F24000.000
G1 E6.13111 F1800.00000
G92 E0
G1 X106.649 Y104.878 F24000.000
G1 E0.79200 F1800.00000
M204 S500
G1 F1800
G1 X106.543 Y105.223 E0.81450
G1 X106.385 Y105.551 E0.83723
G1 X106.261 Y105.752 E0.85199
G1 X105.939 Y106.109 E0.88200
G1 X105.550 Y106.392 E0.91201
G1 X105.245 Y106.537 E0.93306
G1 X104.878 Y106.650 E0.95704
G1 X104.400 Y106.700 E0.98705
G1 X83.369 Y106.697 E2.29972
G1 X82.922 Y106.649 E2.32777
G1 X82.577 Y106.543 E2.35027
G1 X82.249 Y106.385 E2.37300
G1 X82.075 Y106.278 E2.38580
G1 X81.865 Y106.105 E2.40276
G1 X81.691 Y105.939 E2.41777
G1 X81.542 Y105.750 E2.43278
G1 X81.303 Y105.334 E2.46275
G1 X81.150 Y104.878 E2.49273
G1 X81.100 Y104.392 E2.52323
G1 X81.103 Y83.280 E3.84097
G1 X81.177 Y82.809 E3.87069
G1 X81.303 Y82.466 E3.89349
G1 X81.474 Y82.149 E3.91598
G1 X81.695 Y81.865 E3.93846
G1 X81.887 Y81.673 E3.95539
G1 X82.150 Y81.475 E3.97594
G1 X82.554 Y81.262 E4.00446
G1 X83.040 Y81.129 E4.03592
G1 X83.400 Y81.102 E4.05844
G1 X104.516 Y81.103 E5.37638
G1 X104.964 Y81.173 E5.40472
G1 X105.332 Y81.298 E5.42894
G1 X105.725 Y81.523 E5.45723
G1 X106.020 Y81.774 E5.48142
G1 X106.258 Y82.055 E5.50440
G1 X106.375 Y82.224 E5.51720
G1 X106.537 Y82.555 E5.54020
G1 X106.663 Y83.010 E5.56969
G1 X106.698 Y83.377 E5.59267
G1 X106.698 Y104.400 E6.90485
G1 X106.657 Y104.819 E6.93111
M204 S1300
G1 X106.920 Y105.117 F24000.000
G1 E6.13111 F1800.00000
G92 E0
G1 X106.649 Y137.078 F24000.000
G1 E0.79200 F1800.00000
M204 S500
G1 F1800
G1 X106.543 Y137.423 E0.81450
G1 X106.385 Y137.751 E0.83723
G1 X106.261 Y137.952 E0.85199
G1 X105.939 Y138.309 E0.88200
G1 X105.550 Y138.592 E0.91201
G1 X105.245 Y138.737 E0.93306
G1 X104.878 Y138.850 E0.95704
G1 X104.400 Y138.900 E0.98705
G1 X83.369 Y138.897 E2.29972
G1 X82.922 Y138.849 E2.32777
G1 X82.577 Y138.743 E2.35027
G1 X82.249 Y138.585 E2.37300
G1 X82.075 Y138.478 E2.38580
G1 X81.865 Y138.305 E2.40276
G1 X81.691 Y138.139 E2.41777
G1 X81.542 Y137.950 E2.43278
G1 X81.303 Y137.534 E2.46275
G1 X81.150 Y137.078 E2.49273
G1 X81.100 Y136.592 E2.52323
G1 X81.103 Y115.480 E3.84097
G1 X81.177 Y115.009 E3.87069
G1 X81.303 Y114.666 E3.89349
G1 X81.474 Y114.349 E3.91598
G1 X81.695 Y114.065 E3.93846
G1 X81.887 Y113.873 E3.95539
G1 X82.150 Y113.675 E3.97594
G1 X82.554 Y113.462 E4.00446
G1 X83.040 Y113.329 E4.03592
G1 X83.400 Y113.302 E4.05844
G1 X104.516 Y113.303 E5.37638
G1 X104.964 Y113.373 E5.40472
G1 X105.332 Y113.498 E5.42894
G1 X105.725 Y113.723 E5.45723
G1 X106.020 Y113.974 E5.48142
G1 X106.258 Y114.255 E5.50440
G1 X106.375 Y114.424 E5.51720
G1 X106.537 Y114.755 E5.54020
G1 X106.663 Y115.210 E5.56969
G1 X106.698 Y115.577 E5.59267
G1 X106.698 Y136.600 E6.90485
G1 X106.657 Y137.019 E6.93111
M204 S1300
G1 X106.920 Y137.317 F24000.000
M106 S204
G1 E6.13111 F1800.00000
G92 E0
G1 Z1.800 F24000.000
M140 S55 ; set bed temperature
G1 X138.849 Y137.078 F24000.000
G1 E0.79200 F1800.00000
M204 S600
G1 F3000
G1 X138.743 Y137.423 E0.81113
G1 X138.585 Y137.751 E0.83045
G1 X138.461 Y137.952 E0.84299
G1 X138.139 Y138.309 E0.86850
G1 X137.750 Y138.592 E0.89401
G1 X137.445 Y138.737 E0.91191
G1 X137.078 Y138.850 E0.93229
G1 X136.600 Y138.900 E0.95780
G1 X115.569 Y138.897 E2.07362
G1 X115.122 Y138.849 E2.09747
G1 X114.777 Y138.743 E2.11659
G1 X114.449 Y138.585 E2.13591
G1 X114.275 Y138.478 E2.14680
G1 X114.065 Y138.305 E2.16121
G1 X113.891 Y138.139 E2.17397
G1 X113.742 Y137.950 E2.18673
G1 X113.503 Y137.534 E2.21220
G1 X113.416 Y137.309 E2.22495
G1 X113.354 Y137.077 E2.23770
G1 X113.300 Y136.592 E2.26361
G1 X113.303 Y115.480 E3.38374
G1 X113.377 Y115.011 E3.40893
G1 X113.499 Y114.665 E3.42840
G1 X113.675 Y114.350 E3.44752
G1 X113.898 Y114.062 E3.46684
G1 X114.061 Y113.891 E3.47939
G1 X114.247 Y113.748 E3.49182
G1 X114.472 Y113.600 E3.50613
G1 X114.754 Y113.462 E3.52278
G1 X115.240 Y113.329 E3.54952
G1 X115.600 Y113.302 E3.56867
G1 X136.714 Y113.303 E4.68889
G1 X137.164 Y113.373 E4.71306
G1 X137.532 Y113.498 E4.73364
G1 X137.925 Y113.723 E4.75770
G1 X138.220 Y113.974 E4.77826
G1 X138.458 Y114.255 E4.79779
G1 X138.575 Y114.424 E4.80867
G1 X138.737 Y114.755 E4.82822
G1 X138.848 Y115.116 E4.84827
G1 X138.897 Y115.569 E4.87244
G1 X138.898 Y136.600 E5.98827
G1 X138.857 Y137.019 E6.01058
M204 S1300
G1 X139.120 Y137.317 F24000.000
G1 E5.21058 F1800.00000
G92 E0
G1 X138.849 Y104.878 F24000.000
G1 E0.79200 F1800.00000
M204 S600
G1 F3000
G1 X138.743 Y105.223 E0.81113
G1 X138.585 Y105.551 E0.83045
G1 X138.461 Y105.752 E0.84299
G1 X138.139 Y106.109 E0.86850
G1 X137.750 Y106.392 E0.89401
G1 X137.445 Y106.537 E0.91191
G1 X137.078 Y106.650 E0.93229
G1 X136.600 Y106.700 E0.95780
G1 X115.569 Y106.697 E2.07362
G1 X115.122 Y106.649 E2.09747
G1 X114.777 Y106.543 E2.11659
G1 X114.449 Y106.385 E2.13591
G1 X114.275 Y106.278 E2.14680
G1 X114.065 Y106.105 E2.16121
G1 X113.891 Y105.939 E2.17397
G1 X113.742 Y105.750 E2.18673
G1 X113.503 Y105.334 E2.21220
G1 X113.416 Y105.109 E2.22495
G1 X113.354 Y104.877 E2.23770
G1 X113.300 Y104.392 E2.26361
G1 X113.303 Y83.280 E3.38374
G1 X113.377 Y82.811 E3.40893
G1 X113.499 Y82.465 E3.42840
G1 X113.675 Y82.150 E3.44752
G1 X113.898 Y81.862 E3.46684
G1 X114.061 Y81.691 E3.47939
G1 X114.247 Y81.548 E3.49182
G1 X114.472 Y81.400 E3.50613
G1 X114.754 Y81.262 E3.52278
G1 X115.240 Y81.129 E3.54952
G1 X115.600 Y81.102 E3.56867
G1 X136.714 Y81.103 E4.68889
G1 X137.164 Y81.173 E4.71306
G1 X137.532 Y81.298 E4.73364
G1 X137.925 Y81.523 E4.75770
G1 X138.220 Y81.774 E4.77826
G1 X138.458 Y82.055 E4.79779
G1 X138.575 Y82.224 E4.80867
G1 X138.737 Y82.555 E4.82822
G1 X138.848 Y82.916 E4.84827
G1 X138.897 Y83.369 E4.87244
G1 X138.898 Y104.400 E5.98827
G1 X138.857 Y104.819 E6.01058
M204 S1300
G1 X139.120 Y105.117 F24000.000
G1 E5.21058 F1800.00000
G92 E0
G1 X106.649 Y104.878 F24000.000
G1 E0.79200 F1800.00000
M204 S600
G1 F3000
G1 X106.543 Y105.223 E0.81113
G1 X106.385 Y105.551 E0.83045
G1 X106.261 Y105.752 E0.84299
G1 X105.939 Y106.109 E0.86850
G1 X105.550 Y106.392 E0.89401
G1 X105.245 Y106.537 E0.91191
G1 X104.878 Y106.650 E0.93229
G1 X104.400 Y106.700 E0.95780
G1 X83.369 Y106.697 E2.07362
G1 X82.922 Y106.649 E2.09747
G1 X82.577 Y106.543 E2.11659
G1 X82.249 Y106.385 E2.13591
G1 X82.075 Y106.278 E2.14680
G1 X81.865 Y106.105 E2.16121
G1 X81.691 Y105.939 E2.17397
G1 X81.542 Y105.750 E2.18673
G1 X81.303 Y105.334 E2.21220
G1 X81.216 Y105.109 E2.22495
G1 X81.154 Y104.877 E2.23770
G1 X81.100 Y104.392 E2.26361
G1 X81.103 Y83.280 E3.38374
G1 X81.177 Y82.811 E3.40893
G1 X81.299 Y82.465 E3.42840
G1 X81.475 Y82.150 E3.44752
G1 X81.698 Y81.862 E3.46684
G1 X81.861 Y81.691 E3.47939
G1 X82.047 Y81.548 E3.49182
G1 X82.272 Y81.400 E3.50613
G1 X82.554 Y81.262 E3.52278
G1 X83.040 Y81.129 E3.54952
G1 X83.400 Y81.102 E3.56867
G1 X104.514 Y81.103 E4.68889
G1 X104.964 Y81.173 E4.71306
G1 X105.332 Y81.298 E4.73364
G1 X105.725 Y81.523 E4.75770
G1 X106.020 Y81.774 E4.77826
G1 X106.258 Y82.055 E4.79779
G1 X106.375 Y82.224 E4.80867
G1 X106.537 Y82.555 E4.82822
G1 X106.648 Y82.916 E4.84827
G1 X106.697 Y83.369 E4.87244
G1 X106.698 Y104.400 E5.98827
G1 X106.657 Y104.819 E6.01058
M204 S1300
G1 X106.920 Y105.117 F24000.000
G1 E5.21058 F1800.00000
G92 E0
G1 X106.649 Y137.078 F24000.000
G1 E0.79200 F1800.00000
M204 S600
G1 F3000
G1 X106.543 Y137.423 E0.81113
G1 X106.385 Y137.751 E0.83045
G1 X106.261 Y137.952 E0.84299
G1 X105.939 Y138.309 E0.86850
G1 X105.550 Y138.592 E0.89401
G1 X105.245 Y138.737 E0.91191
G1 X104.878 Y138.850 E0.93229
G1 X104.400 Y138.900 E0.95780
G1 X83.369 Y138.897 E2.07362
G1 X82.922 Y138.849 E2.09747
G1 X82.577 Y138.743 E2.11659
G1 X82.249 Y138.585 E2.13591
G1 X82.075 Y138.478 E2.14680
G1 X81.865 Y138.305 E2.16121
G1 X81.691 Y138.139 E2.17397
G1 X81.542 Y137.950 E2.18673
G1 X81.303 Y137.534 E2.21220
G1 X81.216 Y137.309 E2.22495
G1 X81.154 Y137.077 E2.23770
G1 X81.100 Y136.592 E2.26361
G1 X81.103 Y115.480 E3.38374
G1 X81.177 Y115.011 E3.40893
G1 X81.299 Y114.665 E3.42840
G1 X81.475 Y114.350 E3.44752
G1 X81.698 Y114.062 E3.46684
G1 X81.861 Y113.891 E3.47939
G1 X82.047 Y113.748 E3.49182
G1 X82.272 Y113.600 E3.50613
G1 X82.554 Y113.462 E3.52278
G1 X83.040 Y113.329 E3.54952
G1 X83.400 Y113.302 E3.56867
G1 X104.514 Y113.303 E4.68889
G1 X104.964 Y113.373 E4.71306
G1 X105.332 Y113.498 E4.73364
G1 X105.725 Y113.723 E4.75770
G1 X106.020 Y113.974 E4.77826
G1 X106.258 Y114.255 E4.79779
G1 X106.375 Y114.424 E4.80867
G1 X106.537 Y114.755 E4.82822
G1 X106.648 Y115.116 E4.84827
G1 X106.697 Y115.569 E4.87244
G1 X106.698 Y136.600 E5.98827
G1 X106.657 Y137.019 E6.01058
M204 S1300
G1 X106.920 Y137.317 F24000.000
G1 E5.21058 F1800.00000
G92 E0
G1 Z2.050 F24000.000
G1 X138.849 Y137.078 F24000.000
G1 E0.79200 F1800.00000
M204 S600
G1 F3000
G1 X138.743 Y137.423 E0.81113
G1 X138.585 Y137.751 E0.83045
G1 X138.461 Y137.952 E0.84299
G1 X138.120 Y138.324 E0.86975
G1 X137.823 Y138.545 E0.88944
G1 X137.401 Y138.754 E0.91437
G1 X137.078 Y138.849 E0.93225
G1 X136.600 Y138.900 E0.95776
G1 X115.569 Y138.897 E2.07359
G1 X115.122 Y138.849 E2.09743
G1 X114.777 Y138.743 E2.11656
G1 X114.449 Y138.585 E2.13588
G1 X114.275 Y138.478 E2.14676
G1 X114.065 Y138.305 E2.16117
G1 X113.891 Y138.139 E2.17393
G1 X113.742 Y137.950 E2.18670
G1 X113.503 Y137.534 E2.21217
G1 X113.416 Y137.309 E2.22492
G1 X113.354 Y137.077 E2.23767
G1 X113.300 Y136.592 E2.26357
G1 X113.303 Y115.480 E3.38370
G1 X113.377 Y115.012 E3.40882
G1 X113.499 Y114.665 E3.42837
G1 X113.675 Y114.350 E3.44749
G1 X113.895 Y114.065 E3.46659
G1 X114.087 Y113.873 E3.48099
G1 X114.350 Y113.675 E3.49846
G1 X114.754 Y113.462 E3.52270
G1 X115.240 Y113.329 E3.54944
G1 X115.600 Y113.302 E3.56858
G1 X136.713 Y113.303 E4.68874
G1 X137.164 Y113.373 E4.71298
G1 X137.535 Y113.499 E4.73377
G1 X137.946 Y113.735 E4.75888
G1 X138.223 Y113.977 E4.77841
G1 X138.458 Y114.255 E4.79772
G1 X138.575 Y114.424 E4.80861
G1 X138.737 Y114.755 E4.82816
G1 X138.848 Y115.115 E4.84814
