;FLAVOR:Marlin
;TIME:1311
;Filament used: 2.90974m
;Layer height: 0.2
;Generated with Cura_SteamEngine 3.3.1
M190 S60
M104 S220
M109 S220
M82 ;absolute extrusion mode
G28 ;Home
G1 Z5.0 F600 ;Move the platform down 15mm
;Prime the extruder
G1 Y0 F5000
G92 E0
G1 F200 E3
G92 E0
G92 E0
G1 F1500 E-6.5
;LAYER_COUNT:101
;LAYER:0
M107
G0 F3300 X122.889 Y112.865 Z0.2
;TYPE:SKIRT
G1 F1500 E0
G1 F2400 X123.324 Y112.504 E0.02162
G1 X123.687 Y112.272 E0.0381
G1 X124 Y112.095 E0.05185
G1 X124.511 Y111.852 E0.0735
G1 X125.05 Y111.684 E0.09509
G1 X125.608 Y111.593 E0.11672
G1 X125.969 Y111.577 E0.13054
G1 X144.042 Y111.579 E0.82181
G1 X144.606 Y111.619 E0.84344
G1 X145.159 Y111.738 E0.86508
G1 X145.826 Y111.999 E0.89247
G1 X146.095 Y112.133 E0.90397
G1 X146.581 Y112.42 E0.92556
G1 X147.023 Y112.773 E0.94719
G1 X147.41 Y113.185 E0.96881
G1 X147.804 Y113.764 E0.9956
G1 X147.905 Y113.945 E1.00353
G1 X148.145 Y114.457 E1.02516
G1 X148.31 Y114.997 E1.04675
G1 X148.398 Y115.556 E1.0684
G1 X148.412 Y115.891 E1.08122
G1 X148.424 Y133.989 E1.77346
G1 X148.384 Y134.553 E1.79508
G1 X148.266 Y135.106 E1.81671
G1 X148.07 Y135.637 E1.83836
G1 X147.913 Y135.948 E1.85169
G1 X147.705 Y136.319 E1.86795
G1 X147.394 Y136.791 E1.88957
G1 X147.02 Y137.215 E1.9112
G1 X146.59 Y137.582 E1.93282
G1 X146.113 Y137.885 E1.95444
G1 X145.45 Y138.168 E1.98201
G1 X145.265 Y138.228 E1.98945
G1 X144.716 Y138.364 E2.01108
G1 X144.023 Y138.423 E2.03769
G1 X125.823 Y138.387 E2.73382
G1 X125.259 Y138.346 E2.75545
G1 X124.707 Y138.226 E2.77706
G1 X124.177 Y138.029 E2.79868
G1 X123.68 Y137.759 E2.82032
G1 X123.217 Y137.414 E2.8424
G1 X123.019 Y137.243 E2.85241
G1 X122.618 Y136.844 E2.87405
G1 X122.277 Y136.393 E2.89567
G1 X122.004 Y135.898 E2.9173
G1 X121.803 Y135.37 E2.9389
G1 X121.679 Y134.818 E2.96054
G1 X121.633 Y134.231 E2.98307
G1 X121.567 Y116.658 E3.65522
G1 X121.587 Y116.245 E3.67104
G1 X121.676 Y115.356 E3.70521
G1 X121.772 Y114.798 E3.72687
G1 X121.945 Y114.26 E3.74848
G1 X122.193 Y113.752 E3.77011
G1 X122.51 Y113.284 E3.79173
G1 X122.889 Y112.865 E3.81334
G0 F3300 X123.267 Y113.061
G1 F2400 X123.884 Y112.62 E3.84235
G1 X124.197 Y112.443 E3.8561
G1 X124.682 Y112.215 E3.8766
G1 X125.196 Y112.061 E3.89712
G1 X125.969 Y111.977 E3.92686
G1 X144.042 Y111.979 E4.61814
G1 X144.577 Y112.019 E4.63866
G1 X145.1 Y112.138 E4.65917
G1 X145.647 Y112.357 E4.68171
G1 X145.916 Y112.491 E4.69321
G1 X146.377 Y112.765 E4.71372
G1 X146.792 Y113.105 E4.73424
G1 X147.152 Y113.502 E4.75474
G1 X147.455 Y113.959 E4.77571
G1 X147.556 Y114.14 E4.78364
G1 X147.781 Y114.626 E4.80412
G1 X147.932 Y115.141 E4.82465
G1 X148.012 Y115.892 E4.85354
G1 X148.024 Y133.99 E5.54577
G1 X147.984 Y134.524 E5.56625
G1 X147.866 Y135.047 E5.58676
G1 X147.564 Y135.753 E5.61613
G1 X147.356 Y136.124 E5.6324
G1 X147.06 Y136.57 E5.65287
G1 X146.7 Y136.968 E5.6734
G1 X146.286 Y137.309 E5.69392
G1 X145.825 Y137.583 E5.71443
G1 X145.327 Y137.787 E5.73501
G1 X145.142 Y137.847 E5.74245
G1 X144.621 Y137.974 E5.76296
G1 X144.024 Y138.023 E5.78587
G1 X125.824 Y137.987 E6.48201
G1 X125.289 Y137.946 E6.50253
G1 X124.766 Y137.826 E6.52306
G1 X124.267 Y137.63 E6.54356
G1 X123.803 Y137.361 E6.56408
G1 X123.478 Y137.112 E6.57974
G1 X123.28 Y136.941 E6.58975
G1 X122.901 Y136.561 E6.61027
G1 X122.583 Y136.129 E6.63079
G1 X122.333 Y135.655 E6.65129
G1 X122.156 Y135.149 E6.67179
G1 X122.056 Y134.622 E6.69231
G1 X122.033 Y134.23 E6.70733
G1 X121.967 Y116.657 E7.37949
G1 X121.985 Y116.284 E7.39377
G1 X122.074 Y115.395 E7.42794
G1 X122.167 Y114.867 E7.44845
G1 X122.337 Y114.359 E7.46894
G1 X122.581 Y113.881 E7.48947
G1 X122.894 Y113.445 E7.51
G1 X123.267 Y113.061 E7.53047
G0 F3300 X123.277 Y113.614
G1 F2400 X123.643 Y113.266 E7.54979
G1 X124.081 Y112.969 E7.57003
G1 X124.394 Y112.792 E7.58378
G1 X124.852 Y112.578 E7.60312
G1 X125.338 Y112.44 E7.62244
G1 X125.969 Y112.377 E7.6467
G1 X144.042 Y112.379 E8.33798
G1 X144.546 Y112.419 E8.35731
G1 X145.038 Y112.538 E8.37668
G1 X145.469 Y112.715 E8.3945
G1 X145.738 Y112.849 E8.40599
G1 X146.171 Y113.109 E8.42531
G1 X146.558 Y113.435 E8.44466
G1 X146.889 Y113.817 E8.464
G1 X147.105 Y114.154 E8.47931
G1 X147.206 Y114.335 E8.48724
G1 X147.417 Y114.794 E8.50656
G1 X147.553 Y115.281 E8.5259
G1 X147.612 Y115.892 E8.54938
G1 X147.624 Y133.99 E9.24161
G1 X147.584 Y134.494 E9.26095
G1 X147.466 Y134.985 E9.28026
G1 X147.215 Y135.557 E9.30416
G1 X147.007 Y135.928 E9.32042
G1 X146.726 Y136.348 E9.33975
G1 X146.382 Y136.719 E9.35911
G1 X145.984 Y137.03 E9.37842
G1 X145.542 Y137.275 E9.39775
G1 X145.203 Y137.407 E9.41167
G1 X145.018 Y137.467 E9.41911
G1 X144.526 Y137.584 E9.43845
G1 X144.025 Y137.623 E9.45767
G1 X125.825 Y137.587 E10.15381
G1 X125.321 Y137.546 E10.17315
G1 X124.83 Y137.426 E10.19248
G1 X124.363 Y137.231 E10.21184
G1 X123.739 Y136.809 E10.24065
G1 X123.541 Y136.638 E10.25066
G1 X123.186 Y136.278 E10.27
G1 X122.892 Y135.867 E10.28933
G1 X122.666 Y135.415 E10.30866
G1 X122.514 Y134.932 E10.32802
G1 X122.433 Y134.228 E10.35513
G1 X122.367 Y116.655 E11.02729
G1 X122.383 Y116.324 E11.03996
G1 X122.472 Y115.435 E11.07413
G1 X122.562 Y114.938 E11.09345
G1 X122.729 Y114.461 E11.11278
G1 X122.969 Y114.016 E11.13212
G1 X123.277 Y113.614 E11.15149
G1 F1500 E4.65149
G0 F3300 X125.123 Y115.344
G0 X126.181 Y116.184
G0 X142.632 Y117.565
;TYPE:WALL-INNER
G1 F1500 E11.15149
G1 F2400 X142.633 Y132.63 E11.72772
G1 X127.568 Y132.635 E12.30394
G1 X127.368 Y132.635 E12.31159
G1 X127.368 Y132.435 E12.31654
G1 X127.367 Y117.37 E12.89277
G1 X142.432 Y117.365 E13.46899
G1 X142.632 Y117.365 E13.47664
G1 X142.632 Y117.565 E13.48159
G0 F3300 X143.032 Y117.165
G1 F2400 X143.033 Y133.03 E14.08842
G1 X127.168 Y133.035 E14.69524
G1 X126.968 Y133.035 E14.70289
G1 X126.968 Y132.835 E14.70784
G1 X126.967 Y116.97 E15.31466
G1 X142.832 Y116.965 E15.92149
G1 X143.032 Y116.965 E15.92914
G1 X143.032 Y117.165 E15.93409
G0 F3300 X143.432 Y116.765
G1 F2400 X143.433 Y133.43 E16.57151
G1 X126.768 Y133.435 E17.20894
G1 X126.568 Y133.435 E17.21658
G1 X126.568 Y133.235 E17.22154
G1 X126.567 Y116.57 E17.85896
G1 X143.232 Y116.565 E18.49638
G1 X143.432 Y116.565 E18.50403
G1 X143.432 Y116.765 E18.50899
G0 F3300 X143.832 Y116.365
G1 F2400 X143.833 Y133.83 E19.17701
G1 X126.368 Y133.835 E19.84503
G1 X126.168 Y133.835 E19.85268
G1 X126.168 Y133.635 E19.85763
G1 X126.167 Y116.17 E20.52565
G1 X143.632 Y116.165 E21.19367
G1 X143.832 Y116.165 E21.20132
G1 X143.832 Y116.365 E21.20628
G0 F3300 X144.232 Y116.011
;TYPE:WALL-OUTER
G1 F2400 X144.233 Y134.02 E21.89511
G1 X144.207 Y134.11 E21.89869
G1 X144.161 Y134.168 E21.90152
G1 X144.106 Y134.208 E21.90412
G1 X144.04 Y134.23 E21.90678
G1 X126.048 Y134.235 E22.59496
G1 X126.003 Y134.235 E22.59668
G1 X125.93 Y134.223 E22.59951
G1 X125.869 Y134.193 E22.60211
G1 X125.803 Y134.128 E22.60566
G1 X125.768 Y134.033 E22.60953
G1 X125.768 Y133.988 E22.61125
G1 X125.767 Y115.98 E23.30004
G1 X125.794 Y115.888 E23.30371
G1 X125.839 Y115.832 E23.30646
G1 X125.894 Y115.792 E23.30906
G1 X125.96 Y115.77 E23.31172
G1 X143.952 Y115.765 E23.9999
G1 X143.997 Y115.765 E24.00162
G1 X144.07 Y115.777 E24.00445
G1 X144.131 Y115.807 E24.00705
G1 X144.197 Y115.872 E24.01059
G1 X144.232 Y115.966 E24.01443
G1 X144.232 Y116.011 E24.01615
G0 F3300 X144.232 Y116.211
G0 X143.732 Y116.211
G0 X142.252 Y117.745
;TYPE:SKIN
G1 F2400 X142.253 Y132.25 E24.54321
G1 X127.748 Y132.255 E25.07028
G1 X127.747 Y117.75 E25.59734
G1 X142.252 Y117.745 E26.1244
G0 F3300 X141.562 Y117.916
G1 F2400 X142.081 Y118.435 E26.15107
G0 F3300 X142.081 Y118.972
G1 F2400 X141.024 Y117.916 E26.20537
G1 X140.954 Y117.846
G0 F3300 X140.487 Y117.916
G1 F2400 X142.081 Y119.51 E26.28728
G1 X142.151 Y119.58
G0 F3300 X142.081 Y120.047
G1 F2400 X139.95 Y117.917 E26.39676
G1 X139.88 Y117.847
G0 F3300 X139.413 Y117.917
G1 F2400 X142.081 Y120.585 E26.53386
G1 X142.151 Y120.655
G0 F3300 X142.081 Y121.122
G1 F2400 X138.875 Y117.917 E26.69859
G1 X138.805 Y117.847
G0 F3300 X138.339 Y117.917
G1 F2400 X142.081 Y121.659 E26.89088
G1 X142.151 Y121.729
G0 F3300 X142.081 Y122.197
G1 F2400 X137.801 Y117.917 E27.11082
G1 X137.731 Y117.847
G0 F3300 X137.264 Y117.917
G1 F2400 X142.081 Y122.734 E27.35836
G1 X142.151 Y122.804
G0 F3300 X142.081 Y123.272
G1 F2400 X136.727 Y117.918 E27.63349
G1 X136.657 Y117.848
G0 F3300 X136.19 Y117.918
G1 F2400 X142.081 Y123.809 E27.93621
G1 X142.151 Y123.879
G0 F3300 X142.081 Y124.346
G1 F2400 X135.652 Y117.918 E28.26656
G1 X135.582 Y117.848
G0 F3300 X135.115 Y117.918
G1 F2400 X142.081 Y124.884 E28.62453
G1 X142.151 Y124.954
G0 F3300 X142.081 Y125.422
G1 F2400 X134.578 Y117.919 E29.01009
G1 X134.508 Y117.849
G0 F3300 X134.041 Y117.919
G1 F2400 X142.081 Y125.959 E29.42325
G1 X142.151 Y126.029
G0 F3300 X142.081 Y126.497
G1 F2400 X133.503 Y117.919 E29.86405
G1 X133.433 Y117.849
G0 F3300 X132.967 Y117.919
G1 F2400 X142.081 Y127.034 E30.33243
G1 X142.151 Y127.104
G0 F3300 X142.081 Y127.571
G1 F2400 X132.429 Y117.919 E30.82842
G1 X132.359 Y117.849
G0 F3300 X131.892 Y117.919
G1 F2400 X142.081 Y128.109 E31.35204
G1 X142.151 Y128.179
G0 F3300 X142.081 Y128.646
G1 F2400 X131.355 Y117.92 E31.90323
G1 X131.285 Y117.85
G0 F3300 X130.818 Y117.92
G1 F2400 X142.081 Y129.184 E32.48203
G1 X142.151 Y129.254
G0 F3300 X142.081 Y129.721
G1 F2400 X130.28 Y117.92 E33.08846
G1 X130.21 Y117.85
G0 F3300 X129.743 Y117.92
G1 F2400 X142.081 Y130.258 E33.72248
G1 X142.151 Y130.328
G0 F3300 X142.081 Y130.796
G1 F2400 X129.206 Y117.921 E34.3841
G1 X129.136 Y117.851
G0 F3300 X128.669 Y117.921
G1 F2400 X142.081 Y131.333 E35.07332
G1 X142.151 Y131.403
G0 F3300 X142.081 Y131.871
G1 F2400 X128.131 Y117.921 E35.79018
G1 X128.061 Y117.851
G0 F3300 X127.917 Y118.243
G1 F2400 X141.752 Y132.079 E36.50115
G1 X141.822 Y132.149
G0 F3300 X141.214 Y132.079
G1 F2400 X127.917 Y118.781 E37.18448
G1 X127.847 Y118.711
G0 F3300 X127.917 Y119.318
G1 F2400 X140.677 Y132.079 E37.84022
G1 X140.747 Y132.149
G0 F3300 X140.14 Y132.079
G1 F2400 X127.917 Y119.856 E38.46833
G1 X127.847 Y119.786
G0 F3300 X127.917 Y120.393
G1 F2400 X139.603 Y132.079 E39.06885
G1 X139.673 Y132.149
G0 F3300 X139.065 Y132.079
G1 F2400 X127.917 Y120.93 E39.64175
G1 X127.847 Y120.86
G0 F3300 X127.917 Y121.468
G1 F2400 X138.528 Y132.079 E40.18702
G1 X138.598 Y132.149
G0 F3300 X137.991 Y132.079
G1 F2400 X127.917 Y122.005 E40.70471
G1 X127.847 Y121.935
G0 F3300 X127.917 Y122.543
G1 F2400 X137.453 Y132.079 E41.19474
G1 X137.523 Y132.149
G0 F3300 X136.917 Y132.08
G1 F2400 X127.917 Y123.08 E41.65723
G1 X127.847 Y123.01
G0 F3300 X127.917 Y123.617
G1 F2400 X136.379 Y132.08 E42.0921
G1 X136.449 Y132.15
G0 F3300 X135.842 Y132.08
G1 F2400 X127.917 Y124.155 E42.49935
G1 X127.847 Y124.085
G0 F3300 X127.917 Y124.692
G1 F2400 X135.304 Y132.08 E42.87898
G1 X135.374 Y132.15
G0 F3300 X134.768 Y132.081
G1 F2400 X127.917 Y125.23 E43.23103
G1 X127.847 Y125.16
G0 F3300 X127.917 Y125.768
G1 F2400 X134.23 Y132.081 E43.55545
G1 X134.3 Y132.151
G0 F3300 X133.693 Y132.081
G1 F2400 X127.917 Y126.305 E43.85226
G1 X127.847 Y126.235
G0 F3300 X127.917 Y126.842
G1 F2400 X133.155 Y132.081 E44.12146
G1 X133.225 Y132.151
G0 F3300 X132.619 Y132.081
G1 F2400 X127.917 Y127.38 E44.36306
G1 X127.847 Y127.31
G0 F3300 X127.917 Y127.917
G1 F2400 X132.081 Y132.081 E44.57704
G1 X132.151 Y132.151
G0 F3300 X131.544 Y132.081
G1 F2400 X127.917 Y128.455 E44.76339
G1 X127.847 Y128.385
G0 F3300 X127.917 Y128.992
G1 F2400 X131.007 Y132.081 E44.92216
G1 X131.077 Y132.151
G0 F3300 X130.469 Y132.081
G1 F2400 X127.917 Y129.529 E45.0533
G1 X127.847 Y129.459
G0 F3300 X127.917 Y130.067
G1 F2400 X129.932 Y132.082 E45.15685
G1 X130.002 Y132.152
G0 F3300 X129.395 Y132.082
G1 F2400 X127.917 Y130.604 E45.2328
G1 X127.847 Y130.534
G0 F3300 X127.917 Y131.142
G1 F2400 X128.858 Y132.082 E45.28113
G1 X128.928 Y132.152
G0 F3300 X128.32 Y132.082
G1 F2400 X127.917 Y131.679 E45.30184
G0 F3300 X127.287 Y117.088
;TIME_ELAPSED:41.456830
;LAYER:1
M140 S60
M106 S255
G0 F4950 X127.287 Y117.088 Z0.4
;TYPE:WALL-INNER
G1 F3600 X142.912 Y117.09 E45.89948
G1 X142.913 Y132.712 E46.49701
G1 X142.913 Y132.912 E46.50466
G1 X142.713 Y132.912 E46.50961
G1 X127.088 Y132.91 E47.10725
G1 X127.087 Y117.288 E47.70478
G1 X127.087 Y117.088 E47.71243
G1 X127.287 Y117.088 E47.71739
G0 F4950 X126.887 Y116.688
G1 F3600 X143.312 Y116.69 E48.34563
G1 X143.313 Y133.112 E48.97376
G1 X143.313 Y133.312 E48.98141
G1 X143.113 Y133.312 E48.98636
G1 X126.688 Y133.31 E49.6146
G1 X126.687 Y116.888 E50.24273
G1 X126.687 Y116.688 E50.25038
G1 X126.887 Y116.688 E50.25533
G0 F4950 X126.487 Y116.288
G1 F3600 X143.712 Y116.29 E50.91417
G1 X143.713 Y133.512 E51.5729
G1 X143.713 Y133.712 E51.58055
G1 X143.513 Y133.712 E51.5855
G1 X126.288 Y133.71 E52.24435
G1 X126.287 Y116.488 E52.90307
G1 X126.287 Y116.288 E52.91072
G1 X126.487 Y116.288 E52.91568
G0 F4950 X126.117 Y115.888
G1 F3600 X144.018 Y115.89 E53.60037
G1 X144.067 Y115.911 E53.60241
G1 X144.104 Y115.961 E53.60479
G1 X144.112 Y116.009 E53.60665
G1 X144.113 Y133.866 E54.28967
G1 X144.113 Y133.974 E54.2938
G1 X144.102 Y134.041 E54.2964
G1 X144.072 Y134.086 E54.29846
G1 X144.039 Y134.104 E54.2999
G1 X143.991 Y134.112 E54.30176
G1 X143.883 Y134.112 E54.30589
G1 X125.982 Y134.11 E54.99059
G1 X125.924 Y134.082 E54.99306
G1 X125.895 Y134.035 E54.99517
G1 X125.888 Y133.994 E54.99676
G1 X125.887 Y116.134 E55.67989
G1 X125.887 Y116.026 E55.68402
G1 X125.898 Y115.96 E55.68658
G1 X125.922 Y115.924 E55.68823
G1 X125.961 Y115.896 E55.69007
G1 X126.009 Y115.888 E55.69193
G1 X126.117 Y115.888 E55.69606
G0 F4950 X126.117 Y115.988
G0 X143.998 Y115.987
G0 X144.075 Y115.493
;TYPE:WALL-OUTER
G1 F2400 X144.15 Y115.51 E55.699
G1 X144.22 Y115.537 E55.70187
G1 X144.277 Y115.569 E55.70437
G1 X144.346 Y115.621 E55.70768
G1 X144.434 Y115.726 E55.71292
G1 X144.467 Y115.788 E55.71561
G1 X144.492 Y115.86 E55.71852
G1 X144.512 Y115.974 E55.72295
G1 X144.513 Y134.007 E56.41269
G1 X144.49 Y134.15 E56.41823
G1 X144.463 Y134.22 E56.4211
G1 X144.38 Y134.345 E56.42684
G1 X144.335 Y134.389 E56.42925
G1 X144.274 Y134.434 E56.43215
G1 X144.212 Y134.467 E56.43484
G1 X144.14 Y134.492 E56.43775
G1 X144.026 Y134.512 E56.44218
G1 X125.996 Y134.513 E57.13181
G1 X125.925 Y134.507 E57.13454
G1 X125.85 Y134.49 E57.13748
G1 X125.78 Y134.463 E57.14035
G1 X125.723 Y134.431 E57.14285
G1 X125.654 Y134.379 E57.14615
G1 X125.611 Y134.335 E57.14851
G1 X125.533 Y134.212 E57.15408
G1 X125.507 Y134.137 E57.15711
G1 X125.488 Y134.026 E57.16142
G1 X125.487 Y115.993 E57.85117
G1 X125.51 Y115.85 E57.85671
G1 X125.538 Y115.777 E57.8597
G1 X125.621 Y115.654 E57.86537
G1 X125.726 Y115.566 E57.87061
G1 X125.788 Y115.533 E57.8733
G1 X125.86 Y115.508 E57.87622
G1 X125.974 Y115.488 E57.88064
G1 X144.004 Y115.487 E58.57027
G1 X144.075 Y115.493 E58.573
G0 F4950 X144.15 Y115.51
G0 X144.22 Y115.537
G0 X144.262 Y115.561
G0 X144.005 Y115.989
G0 X142.532 Y117.47
;TYPE:SKIN
G1 F2400 X142.533 Y132.532 E59.1203
G1 X127.468 Y132.53 E59.66772
G1 X127.467 Y117.468 E60.21502
G1 X142.532 Y117.47 E60.76243
G0 F4950 X142.36 Y132.251
G0 X142.305 Y132.306
G1 F2400 X142.036 Y132.037 E60.78189
G1 X142.43 Y131.644
G0 F4950 X142.36 Y131.176
G1 F2400 X141.175 Y132.361 E60.84279
G1 X141.105 Y132.431
G0 F4950 X140.638 Y132.361
G1 F2400 X142.36 Y130.639 E60.93128
G1 X142.43 Y130.569
G0 F4950 X142.36 Y130.101
G1 F2400 X140.101 Y132.361 E61.04739
G1 X140.031 Y132.431
G0 F4950 X139.563 Y132.361
G1 F2400 X142.36 Y129.564 E61.19112
G1 X142.43 Y129.494
G0 F4950 X142.36 Y129.027
G1 F2400 X139.026 Y132.361 E61.36245
G1 X138.956 Y132.431
G0 F4950 X138.489 Y132.36
G1 F2400 X142.36 Y128.489 E61.56137
G1 X142.43 Y128.419
G0 F4950 X142.36 Y127.952
G1 F2400 X137.952 Y132.36 E61.78789
G1 X137.882 Y132.43
G0 F4950 X137.414 Y132.36
G1 F2400 X142.36 Y127.414 E62.04205
G1 X142.43 Y127.344
G0 F4950 X142.36 Y126.877
G1 F2400 X136.877 Y132.36 E62.32381
G1 X136.807 Y132.43
G0 F4950 X136.34 Y132.36
G1 F2400 X142.36 Y126.34 E62.63317
G1 X142.43 Y126.27
G0 F4950 X142.36 Y125.802
G1 F2400 X135.802 Y132.36 E62.97017
G1 X135.732 Y132.43
G0 F4950 X135.265 Y132.36
G1 F2400 X142.36 Y125.265 E63.33476
G1 X142.43 Y125.195
G0 F4950 X142.36 Y124.727
G1 F2400 X134.728 Y132.359 E63.72696
G1 X134.658 Y132.429
