;FLAVOR:Marlin
;TIME:262
;Filament used: 0.0649639m
;Layer height: 0.2
;Generated with Cura_SteamEngine 3.3.1
M190 S60
M104 S220
M109 S220
M82 ;absolute extrusion mode
G28 ;Home
G1 Z5.0 F600 ;Move the platform down 15mm
;Prime the extruder
G1 Y0 F5000
G92 E0
G1 F200 E3
G92 E0
G92 E0
G1 F1500 E-6.5
;LAYER_COUNT:51
;LAYER:0
M107
G0 F3300 X123.515 Y114.611 Z0.2
;TYPE:SKIRT
G1 F1500 E0
G1 F2400 X123.953 Y114.253 E0.02164
G1 X124.569 Y113.895 E0.04889
G1 X128.074 Y112.256 E0.19689
G1 X128.601 Y112.053 E0.21849
G1 X129.152 Y111.927 E0.24011
G1 X129.716 Y111.879 E0.26176
G1 X130.038 Y111.888 E0.27408
G1 X131.906 Y112.014 E0.34569
G1 X137.388 Y112.192 E0.55548
G1 X141.014 Y112.14 E0.69419
G1 X141.578 Y112.172 E0.71579
G1 X142.133 Y112.283 E0.73744
G1 X142.666 Y112.472 E0.75907
G1 X143.167 Y112.733 E0.78068
G1 X143.45 Y112.924 E0.79374
G1 X145.003 Y114.073 E0.86763
G1 X145.433 Y114.441 E0.88928
G1 X145.698 Y114.729 E0.90425
G1 X146.909 Y116.183 E0.97663
G1 X147.239 Y116.642 E0.99825
G1 X147.501 Y117.143 E1.01987
G1 X147.69 Y117.676 E1.0415
G1 X147.802 Y118.23 E1.06312
G1 X147.826 Y119.014 E1.09312
G1 X147.635 Y121.828 E1.20101
G1 X147.496 Y127.309 E1.41072
G1 X147.581 Y131.079 E1.55495
G1 X147.554 Y131.644 E1.57659
G1 X147.447 Y132.199 E1.59821
G1 X147.263 Y132.734 E1.61985
G1 X147.006 Y133.237 E1.64145
G1 X146.809 Y133.532 E1.65502
G1 X146.347 Y134.163 E1.68493
G1 X146.108 Y134.459 E1.69948
G1 X144.993 Y135.712 E1.76364
G1 X144.588 Y136.107 E1.78528
G1 X144.132 Y136.441 E1.8069
G1 X143.633 Y136.707 E1.82853
G1 X143.351 Y136.82 E1.84015
G1 X141.488 Y137.486 E1.91582
G1 X140.944 Y137.638 E1.93743
G1 X140.384 Y137.712 E1.95903
G1 X139.96 Y137.715 E1.97525
G1 X138.074 Y137.629 E2.04746
G1 X132.575 Y137.578 E2.2578
G1 X129.012 Y137.711 E2.39418
G1 X128.447 Y137.692 E2.4158
G1 X127.891 Y137.594 E2.4374
G1 X127.353 Y137.418 E2.45905
G1 X126.846 Y137.168 E2.48067
G1 X126.47 Y136.919 E2.49792
G1 X125.06 Y135.866 E2.56523
G1 X124.595 Y135.459 E2.58887
G1 X124.032 Y134.884 E2.61965
G1 X123.666 Y134.454 E2.64125
G1 X123.364 Y133.975 E2.6629
G1 X123.132 Y133.457 E2.68461
G1 X122.386 Y131.412 E2.76787
G1 X122.23 Y130.868 E2.78952
G1 X122.153 Y130.308 E2.81114
G1 X122.15 Y129.829 E2.82946
G1 X122.332 Y126.41 E2.96042
G1 X122.377 Y120.919 E3.17046
G1 X122.315 Y119.077 E3.24095
G1 X122.265 Y117.658 E3.29526
G1 X122.286 Y117.093 E3.31689
G1 X122.385 Y116.537 E3.33849
G1 X122.562 Y116 E3.36011
G1 X122.813 Y115.493 E3.38175
G1 X123.133 Y115.027 E3.40337
G1 X123.515 Y114.611 E3.42498
G0 F3300 X123.913 Y114.791
G1 F2400 X124.344 Y114.472 E3.44549
G1 X124.738 Y114.257 E3.46265
G1 X128.243 Y112.618 E3.61065
G1 X128.744 Y112.428 E3.63115
G1 X129.269 Y112.314 E3.65169
G1 X130.011 Y112.287 E3.68009
G1 X131.894 Y112.414 E3.75228
G1 X137.381 Y112.592 E3.96226
G1 X141.02 Y112.54 E4.10147
G1 X141.555 Y112.573 E4.12197
G1 X142.079 Y112.684 E4.14246
G1 X142.582 Y112.872 E4.163
G1 X143.212 Y113.246 E4.19102
G1 X144.765 Y114.395 E4.26491
G1 X145.171 Y114.745 E4.28541
G1 X145.39 Y114.985 E4.29784
G1 X146.601 Y116.439 E4.37022
G1 X146.913 Y116.876 E4.39076
G1 X147.156 Y117.354 E4.41127
G1 X147.326 Y117.862 E4.43176
G1 X147.418 Y118.391 E4.45229
G1 X147.427 Y118.987 E4.47509
G1 X147.235 Y121.815 E4.58351
G1 X147.096 Y127.298 E4.7933
G1 X147.181 Y131.088 E4.9383
G1 X147.153 Y131.624 E4.95883
G1 X147.046 Y132.149 E4.97932
G1 X146.862 Y132.653 E4.99984
G1 X146.487 Y133.296 E5.02831
G1 X146.025 Y133.927 E5.05823
G1 X145.809 Y134.193 E5.07133
G1 X144.694 Y135.446 E5.13549
G1 X144.309 Y135.819 E5.15599
G1 X143.873 Y136.131 E5.1765
G1 X143.217 Y136.443 E5.20428
G1 X141.354 Y137.109 E5.27996
G1 X140.837 Y137.251 E5.30046
G1 X140.304 Y137.315 E5.321
G1 X139.979 Y137.315 E5.33343
G1 X138.097 Y137.23 E5.40549
G1 X132.564 Y137.178 E5.61713
G1 X128.998 Y137.311 E5.75362
G1 X128.462 Y137.292 E5.77413
G1 X127.935 Y137.192 E5.79465
G1 X127.428 Y137.016 E5.81518
G1 X126.954 Y136.766 E5.83568
G1 X126.709 Y136.598 E5.84704
G1 X125.299 Y135.545 E5.91435
G1 X124.881 Y135.18 E5.93558
G1 X124.318 Y134.605 E5.96636
G1 X123.972 Y134.195 E5.98688
G1 X123.691 Y133.738 E6.0074
G1 X123.508 Y133.32 E6.02485
G1 X122.762 Y131.275 E6.10811
G1 X122.616 Y130.759 E6.12862
G1 X122.549 Y130.227 E6.14913
G1 X122.549 Y129.85 E6.16355
G1 X122.732 Y126.412 E6.29524
G1 X122.777 Y120.91 E6.50569
G1 X122.715 Y119.064 E6.57634
G1 X122.665 Y117.644 E6.63069
G1 X122.686 Y117.108 E6.6512
G1 X122.787 Y116.582 E6.67169
G1 X122.965 Y116.076 E6.69221
G1 X123.215 Y115.602 E6.7127
G1 X123.534 Y115.17 E6.73325
G1 X123.913 Y114.791 E6.75375
G0 F3300 X123.934 Y115.323
G1 F2400 X124.309 Y114.984 E6.77308
G1 X124.908 Y114.619 E6.79991
G1 X128.413 Y112.98 E6.94791
G1 X128.886 Y112.803 E6.96723
G1 X129.381 Y112.702 E6.98655
G1 X129.984 Y112.686 E7.00962
G1 X131.882 Y112.814 E7.08238
G1 X137.374 Y112.992 E7.29256
G1 X141.025 Y112.94 E7.43222
G1 X141.53 Y112.973 E7.45158
G1 X142.023 Y113.085 E7.47091
G1 X142.492 Y113.273 E7.49024
G1 X142.974 Y113.568 E7.51186
G1 X144.527 Y114.717 E7.58575
G1 X144.909 Y115.048 E7.60508
G1 X145.083 Y115.241 E7.61502
G1 X146.294 Y116.695 E7.6874
G1 X146.586 Y117.108 E7.70674
G1 X146.809 Y117.562 E7.72609
G1 X146.958 Y118.045 E7.74542
G1 X147.029 Y118.545 E7.76474
G1 X147.028 Y118.96 E7.78061
G1 X146.835 Y121.801 E7.88953
G1 X146.696 Y127.298 E8.09985
G1 X146.781 Y131.097 E8.2452
G1 X146.753 Y131.602 E8.26454
G1 X146.645 Y132.096 E8.28388
G1 X146.461 Y132.567 E8.30323
G1 X146.164 Y133.059 E8.32521
G1 X145.702 Y133.69 E8.35512
G1 X145.511 Y133.927 E8.36676
G1 X144.396 Y135.18 E8.43092
G1 X144.031 Y135.53 E8.45026
G1 X143.615 Y135.818 E8.46961
G1 X143.082 Y136.066 E8.4921
G1 X141.219 Y136.732 E8.56777
G1 X140.731 Y136.864 E8.58711
G1 X139.997 Y136.916 E8.61525
G1 X138.091 Y136.829 E8.68823
G1 X132.574 Y136.778 E8.89926
G1 X128.983 Y136.912 E9.03671
G1 X128.477 Y136.891 E9.05608
G1 X127.982 Y136.79 E9.0754
G1 X127.508 Y136.613 E9.09476
G1 X126.948 Y136.278 E9.11972
G1 X125.538 Y135.225 E9.18703
G1 X125.167 Y134.9 E9.20589
G1 X124.604 Y134.325 E9.23667
G1 X124.279 Y133.937 E9.25603
G1 X124.021 Y133.502 E9.27538
G1 X123.884 Y133.183 E9.28866
G1 X123.138 Y131.138 E9.37192
G1 X123.003 Y130.65 E9.39128
G1 X122.946 Y130.148 E9.41061
G1 X122.949 Y129.871 E9.4212
G1 X123.131 Y126.436 E9.55277
G1 X123.177 Y120.899 E9.76457
G1 X123.115 Y119.05 E9.83533
G1 X123.065 Y117.63 E9.88968
G1 X123.087 Y117.125 E9.90901
G1 X123.189 Y116.63 E9.92834
G1 X123.367 Y116.157 E9.94767
G1 X123.617 Y115.718 E9.967
G1 X123.934 Y115.323 E9.98637
G0 F3300 X126.636 Y117.549
;TYPE:SUPPORT
G1 F2400 X127.279 Y117.241 E10.01364
G1 X129.673 Y116.133 E10.11454
G1 X130.777 Y118.484 E10.21388
G1 X128.925 Y119.397 E10.29286
G1 X129.465 Y118.312 E10.33922
G1 X127.506 Y117.333 E10.42298
G1 X126.882 Y118.563 E10.47574
G1 X126.873 Y118.558 E10.47613
G1 X126.961 Y118.14 E10.49247
G1 X126.78 Y117.657 E10.5122
G1 X126.636 Y117.549 E10.51908
G1 F1500 E4.01908
G0 F3300 X126.714 Y119.508
G0 X128.504 Y129.391
G1 F1500 E10.51908
G1 F2400 X129.011 Y130.758 E10.57485
G1 X129.464 Y131.108 E10.59675
G1 X128.342 Y130.553 E10.64463
G1 X127.44 Y132.353 E10.72163
G1 X127.039 Y131.967 E10.74292
G1 X126.389 Y130.157 E10.81648
G1 X128.504 Y129.391 E10.90252
G1 F1500 E4.40252
G0 F3300 X130.566 Y131.53
G0 X130.378 Y133.218
G0 X129.8 Y133.273
G0 X127.984 Y132.824
G1 F1500 E10.90252
G1 F2400 X128.023 Y132.844 E10.9042
G1 X128.022 Y132.853 E10.90455
G1 X127.984 Y132.824 E10.90637
G0 F3300 X128.385 Y133.126
G1 F2400 X128.948 Y133.262 E10.92853
G1 X128.809 Y133.445 E10.93732
G1 X128.385 Y133.126 E10.95761
G1 F1500 E4.45761
G0 F3300 X127.694 Y132.4
G0 X128.454 Y130.884
G0 X139.569 Y131.535
G1 F1500 E10.95761
G1 F2400 X140.85 Y131.054 E11.00995
G1 X140.535 Y131.688 E11.03703
G1 X142.239 Y132.538 E11.10986
G1 X141.894 Y132.894 E11.12883
G1 X140.273 Y133.474 E11.19468
G1 X139.569 Y131.535 E11.27358
G1 F1500 E4.77358
G0 F3300 X141.549 Y129.296
G0 X143.238 Y129.493
G0 X143.271 Y130.117
G0 X143.182 Y131.385
G1 F1500 E11.27358
G1 F2400 X143.266 Y131.036 E11.28731
G1 X143.304 Y130.93 E11.29162
G1 X143.344 Y131.169 E11.30088
G1 X143.182 Y131.385 E11.31121
G1 F1500 E4.81121
G0 F3300 X142.388 Y132.336
G0 X140.866 Y131.577
G0 X142.503 Y119.956
G1 F1500 E11.31121
G1 F2400 X141.602 Y120.019 E11.34576
G1 X140.423 Y118.851 E11.40924
G1 X140.547 Y118.896 E11.41428
G1 X141.658 Y119.447 E11.46172
G1 X142.603 Y117.561 E11.5424
G1 X142.77 Y117.738 E11.55171
G1 X142.998 Y118.038 E11.56612
G1 X143.563 Y118.713 E11.59979
G1 X142.697 Y119.414 E11.64241
G1 X142.498 Y119.869 E11.6614
G1 X142.503 Y119.956 E11.66474
G0 F3300 X142.454 Y117.398
G1 F2400 X141.98 Y117.157 E11.68508
G1 X142.002 Y117.057 E11.68899
G1 X142.454 Y117.398 E11.71065
G0 F3300 X141.828 Y116.926
G1 F2400 X141.04 Y116.735 E11.74166
G1 X140.832 Y116.661 E11.75011
G1 X141.017 Y116.576 E11.75789
G1 X141.144 Y116.409 E11.76592
G1 X141.828 Y116.926 E11.79871
G1 F1500 E5.29871
G0 F3300 X140.265 Y116.72
G0 X139.622 Y116.782
G0 X139.172 Y118.586
G1 F1500 E11.79871
G1 F2400 X139.153 Y118.584 E11.79944
G1 X139.276 Y116.699 E11.8717
G1 X139.381 Y116.706 E11.87572
G1 X139.172 Y118.586 E11.94807
G1 F1500 E5.44807
G0 F3300 X140.335 Y118.587
G0 X140.481 Y117.733
;TYPE:WALL-OUTER
G1 F1500 E11.94807
G1 F2400 X140.376 Y117.721 E11.95212
G1 X140.486 Y117.733 E11.9522
G1 X140.71 Y117.787 E11.96102
G1 X140.481 Y117.733
G0 F3300 X140.376 Y117.721
G0 X140.471 Y117.731
G0 X140.97 Y117.88
G1 F2400 X140.758 Y117.802 E11.96966
G1 X140.971 Y117.878 E11.96968
G1 X141.164 Y117.976 E11.97418
G1 X140.97 Y117.88
G0 F3300 X140.782 Y117.811
G1 F1500 E5.47418
G0 F3300 X140.638 Y118.679
G0 X141.412 Y130.338
G0 X142.267 Y130.481
G1 F1500 E11.97418
G1 F2400 X142.295 Y130.242 E11.98338
G1 X142.267 Y130.486 E11.98347
G1 X142.209 Y130.726 E11.99291
G1 X142.267 Y130.481
G0 F3300 X142.29 Y130.282
G0 X142.12 Y130.97
G1 F2400 X142.198 Y130.758 E12.00155
G1 X142.122 Y130.97
G1 X142.009 Y131.194 E12.01115
G1 X142.12 Y130.97
G0 F3300 X142.189 Y130.782
G1 F1500 E5.51115
G0 F3300 X141.324 Y130.631
G0 X130.489 Y132.325
G0 X129.519 Y132.267
G1 F1500 E12.01115
G1 F2400 X129.624 Y132.279 E12.01519
G1 X129.514 Y132.267 E12.01527
G1 X129.286 Y132.212 E12.02424
G1 X129.519 Y132.267
G0 F3300 X129.624 Y132.279
G0 X129.529 Y132.269
G0 X129.03 Y132.12
G1 F2400 X129.242 Y132.198 E12.03288
G1 X129.029 Y132.122 E12.03291
G1 X128.836 Y132.024 E12.0374
G1 X129.03 Y132.12
G0 F3300 X129.218 Y132.189
G1 F1500 E5.5374
G0 F3300 X129.362 Y131.321
G0 X128.677 Y119.367
G0 X127.88 Y119.03
G1 F1500 E12.0374
G1 F2400 X127.812 Y119.214 E12.04491
G1 X127.878 Y119.029 E12.04492
G1 X127.991 Y118.806 E12.05069
G1 X127.88 Y119.03
G0 F3300 X127.812 Y119.214
G0 X127.813 Y119.211
G1 F1500 E5.55069
G0 F3300 X127.072 Y118.717
G0 X126.636 Y117.549
;TIME_ELAPSED:22.790020
;LAYER:1
M140 S60
M106 S255
G0 F4950 X126.636 Y117.549 Z0.4
;TYPE:SUPPORT
G1 F1500 E12.05069
G1 F3600 X127.279 Y117.241 E12.07797
G1 X129.673 Y116.133 E12.17887
G1 X130.777 Y118.484 E12.27821
G1 X128.925 Y119.397 E12.35719
G1 X129.405 Y118.433 E12.39838
G1 X129.484 Y118.34 E12.40305
G1 X129.461 Y118.32 E12.40421
G1 X129.465 Y118.312 E12.40455
G1 X129.437 Y118.298 E12.40575
G1 X128.22 Y117.213 E12.46811
G1 X127.913 Y117.537 E12.48519
G1 X127.506 Y117.333 E12.5026
G1 X126.882 Y118.563 E12.55535
G1 X126.873 Y118.558 E12.55575
G1 X126.961 Y118.14 E12.57209
G1 X126.78 Y117.657 E12.59181
G1 X126.636 Y117.549 E12.5987
G1 F1500 E6.0987
G0 F4950 X128.222 Y117.239
G0 X129.456 Y118.342
G0 X128.504 Y129.392
G1 F1500 E12.5987
G1 F3600 X129.011 Y130.759 E12.65447
G1 X129.464 Y131.107 E12.67632
G1 X128.35 Y130.554 E12.72389
G1 X128.344 Y130.566 E12.7244
G1 X128.338 Y130.563 E12.72466
G1 X127.44 Y132.352 E12.80122
G1 X127.039 Y131.966 E12.82251
G1 X126.389 Y130.158 E12.896
G1 X128.504 Y129.392 E12.98204
G1 F1500 E6.48204
G0 F4950 X130.667 Y131.546
G0 X130.475 Y133.234
G0 X129.895 Y133.279
G0 X128.385 Y133.126
G1 F1500 E12.98204
G1 F3600 X128.946 Y133.261 E13.00411
G1 X128.809 Y133.445 E13.01288
G1 X128.385 Y133.126 E13.03318
G1 F1500 E6.53318
G0 F4950 X127.702 Y132.407
G0 X128.461 Y130.885
G0 X139.569 Y131.534
G1 F1500 E13.03318
G1 F3600 X140.849 Y131.055 E13.08545
G1 X140.536 Y131.688 E13.11246
G1 X142.238 Y132.538 E13.18523
G1 X141.893 Y132.894 E13.20419
G1 X140.273 Y133.474 E13.27001
G1 X139.569 Y131.534 E13.34894
G1 F1500 E6.84894
G0 F4950 X141.546 Y129.333
G0 X143.234 Y129.525
G0 X143.288 Y130.078
G0 X143.183 Y131.383
G1 F1500 E13.34894
G1 F3600 X143.268 Y131.031 E13.36279
G1 X143.304 Y130.932 E13.36682
G1 X143.343 Y131.171 E13.37609
G1 X143.183 Y131.383 E13.38625
G1 F1500 E6.88625
G0 F4950 X142.42 Y132.265
G0 X140.902 Y131.5
G0 X142.503 Y119.956
G1 F1500 E13.38625
G1 F3600 X141.602 Y120.019 E13.42079
G1 X140.423 Y118.851 E13.48427
G1 X140.442 Y118.858 E13.48504
G1 X140.524 Y118.888 E13.48838
G1 X141.658 Y119.447 E13.53674
G1 X142.603 Y117.561 E13.61743
G1 X142.75 Y117.717 E13.62563
G1 X142.991 Y118.03 E13.64074
G1 X143.562 Y118.714 E13.67482
G1 X142.697 Y119.414 E13.71738
G1 X142.498 Y119.869 E13.73637
G1 X142.503 Y119.956 E13.73971
G0 F4950 X142.453 Y117.397
G1 F3600 X142.012 Y117.173 E13.75863
G1 X142.035 Y117.082 E13.76222
G1 X142.453 Y117.397 E13.78224
G0 F4950 X141.829 Y116.926
G1 F3600 X141.052 Y116.738 E13.81281
G1 X140.834 Y116.661 E13.82166
G1 X141.017 Y116.577 E13.82936
G1 X141.144 Y116.409 E13.83741
G1 X141.829 Y116.926 E13.87024
G1 F1500 E7.37024
G0 F4950 X140.234 Y116.71
G0 X139.66 Y116.755
G0 X139.265 Y116.86
G1 F1500 E13.87024
G1 F3600 X139.276 Y116.699 E13.87641
G1 X139.284 Y116.7 E13.87672
G1 X139.265 Y116.86 E13.88288
G1 F1500 E7.38288
G0 F4950 X139.475 Y116.785
G0 X140.182 Y116.836
G0 X140.478 Y117.733
;TYPE:WALL-OUTER
G1 F1500 E13.88288
G1 F2400 X140.276 Y117.709 E13.89066
G1 X140.482 Y117.732 E13.89076
G1 X140.726 Y117.791 E13.90036
G1 X140.478 Y117.733
G0 F4950 X140.279 Y117.71
G0 X140.968 Y117.879
G1 F2400 X140.733 Y117.793 E13.90993
G1 X140.968 Y117.877
G1 X141.084 Y117.936 E13.91491
G1 X140.968 Y117.879
G0 F4950 X140.78 Y117.811
G1 F1500 E7.41491
G0 F4950 X140.625 Y118.673
G0 X141.415 Y130.322
G0 X142.267 Y130.478
G1 F1500 E13.91491
G1 F2400 X142.291 Y130.276 E13.92269
G1 X142.268 Y130.482 E13.92279
G1 X142.209 Y130.726 E13.93239
G1 X142.267 Y130.478
G0 F4950 X142.29 Y130.279
G0 X142.121 Y130.968
G1 F2400 X142.206 Y130.736 E13.94184
G1 X142.123 Y130.968
G1 X142.045 Y131.121 E13.94841
G1 X142.121 Y130.968
G0 F4950 X142.189 Y130.781
G1 F1500 E7.44841
G0 F4950 X141.326 Y130.626
G0 X129.676 Y131.415
G0 X129.522 Y132.267
G1 F1500 E13.94841
G1 F2400 X129.724 Y132.291 E13.95619
G1 X129.518 Y132.268 E13.95629
G1 X129.274 Y132.209 E13.96589
G1 X129.522 Y132.267
G0 F4950 X129.721 Y132.29
G0 X129.032 Y132.121
G1 F2400 X129.241 Y132.198 E13.97441
G1 X129.032 Y132.123
G1 X128.844 Y132.028 E13.98246
G1 X129.032 Y132.121
G0 F4950 X129.22 Y132.19
G1 F1500 E7.48246
G0 F4950 X129.369 Y131.324
G0 X128.587 Y119.665
G0 X127.733 Y119.522
G1 F1500 E13.98246
G1 F2400 X127.709 Y119.724 E13.99025
G1 X127.732 Y119.518 E13.99034
G1 X127.791 Y119.272 E14.00002
G1 X127.733 Y119.522
G0 F4950 X127.71 Y119.721
G0 X127.879 Y119.032
G1 F2400 X127.815 Y119.207 E14.00714
G1 X127.877 Y119.032
G1 X127.987 Y118.814 E14.01648
G1 X127.879 Y119.032
G0 F4950 X127.815 Y119.207
G0 X127.819 Y119.194
G1 F1500 E7.51648
G0 F4950 X127.913 Y119.228
G0 X128.25 Y118.518
G0 X128.218 Y118.488
G1 F1500 E14.01648
G1 F2400 X128.134 Y118.588 E14.02148
G1 X128.213 Y118.486
G1 X128.27 Y118.426 E14.0246
G1 X128.218 Y118.488
G0 F4950 X128.134 Y118.588
G0 X128.176 Y118.533
G1 F1500 E7.5246
G0 F4950 X127.374 Y118.111
G0 X126.636 Y117.549
;TIME_ELAPSED:30.309815
;LAYER:2
G0 F6600 X126.636 Y117.549 Z0.6
;TYPE:SUPPORT
G1 F1500 E14.0246
G1 F2131.6 X127.279 Y117.241 E14.05187
G1 X129.673 Y116.133 E14.15277
G1 X130.777 Y118.484 E14.25212
G1 X128.925 Y119.397 E14.3311
G1 X129.405 Y118.433 E14.37229
G1 X129.484 Y118.34 E14.37695
G1 X129.462 Y118.32 E14.37809
G1 X129.465 Y118.313 E14.37838
G1 X129.439 Y118.3 E14.37949
G1 X128.22 Y117.213 E14.44196
G1 X127.913 Y117.537 E14.45904
G1 X127.498 Y117.329 E14.47679
G1 X126.882 Y118.563 E14.52955
G1 X126.872 Y118.558 E14.52997
