;FLAVOR:RepRap
;TIME:404
;Filament used: 0.669311m
;Layer height: 0.3
;Generated with Cura_SteamEngine 2.5.0
M190 S55
M104 S180
M109 S180
G21 ;metric values
G90 ;absolute positioning
M82 ;set extruder to absolute mode
M107 ;start with the fan off
G28 X0 Y0 ;move X/Y to min endstops
G28 Z0 ;move Z to min endstops
G1 Z15.0 F9000 ;move the platform down 15mm
G92 E0 ;zero the extruded length
G1 F200 E3 ;extrude 3mm of feed stock
G92 E0 ;zero the extruded length again
G1 F9000
;Put printing message on LCD screen
M117 Printing...
;LAYER_COUNT:50
;LAYER:0
M107
G0 F3600 X87.904 Y87.823 Z0.3
;TYPE:SKIRT
G1 F1800 X88.396 Y87.378 E0.0331
G1 X88.824 Y87.023 E0.06084
G1 X89.457 Y86.551 E0.10023
G1 X90.316 Y86.05 E0.14984
G1 X91.058 Y85.679 E0.19123
G1 X91.781 Y85.363 E0.2306
G1 X92.533 Y85.12 E0.27003
G1 X93.125 Y84.987 E0.3003
G1 X93.94 Y84.836 E0.34165
G1 X94.723 Y84.731 E0.38106
G1 X95.398 Y84.705 E0.41476
G1 X105.087 Y84.751 E0.89816
G1 X105.876 Y84.795 E0.93758
G1 X106.656 Y84.918 E0.97698
G1 X107.514 Y85.15 E1.02132
G1 X108.298 Y85.411 E1.06254
G1 X109.033 Y85.698 E1.10191
G1 X109.94 Y86.18 E1.15315
G1 X110.41 Y86.471 E1.18073
G1 X111.06 Y86.92 E1.22014
G1 X111.554 Y87.334 E1.2523
G1 X111.965 Y87.708 E1.28002
G1 X112.521 Y88.268 E1.31939
G1 X112.94 Y88.777 E1.35229
G1 X113.273 Y89.218 E1.37985
G1 X113.716 Y89.871 E1.41922
G1 X114.03 Y90.441 E1.45169
G1 X114.277 Y90.937 E1.47933
G1 X114.593 Y91.661 E1.51874
G1 X114.885 Y92.618 E1.56866
G1 X115.076 Y93.425 E1.61004
G1 X115.219 Y94.201 E1.6494
G1 X115.286 Y95.212 E1.69995
G1 X115.297 Y104.625 E2.16957
G1 X115.258 Y105.414 E2.20898
G1 X115.167 Y106.053 E2.24118
G1 X115.016 Y106.869 E2.28258
G1 X114.833 Y107.638 E2.32202
G1 X114.573 Y108.383 E2.36139
G1 X114.33 Y108.923 E2.39093
G1 X113.961 Y109.665 E2.43227
G1 X113.574 Y110.354 E2.4717
G1 X112.983 Y111.169 E2.52192
G1 X112.63 Y111.595 E2.54953
G1 X112.096 Y112.177 E2.58893
G1 X111.604 Y112.622 E2.62203
G1 X111.176 Y112.977 E2.64977
G1 X110.543 Y113.449 E2.68917
G1 X109.986 Y113.79 E2.72175
G1 X109.504 Y114.058 E2.74926
G1 X108.796 Y114.406 E2.78862
G1 X108.219 Y114.628 E2.81946
G1 X107.694 Y114.806 E2.84712
G1 X106.934 Y115.021 E2.88653
G1 X106.156 Y115.159 E2.92595
G1 X105.255 Y115.219 E2.971
G1 X95.657 Y115.3 E3.44986
G1 X94.619 Y115.239 E3.50174
G1 X93.711 Y115.125 E3.54739
G1 X92.934 Y114.987 E3.58676
G1 X91.89 Y114.669 E3.64121
G1 X91.371 Y114.47 E3.66894
G1 X90.649 Y114.15 E3.70834
G1 X90.056 Y113.817 E3.74227
G1 X89.588 Y113.527 E3.76974
G1 X88.938 Y113.078 E3.80915
G1 X88.446 Y112.665 E3.8412
G1 X88.034 Y112.29 E3.869
G1 X87.477 Y111.73 E3.9084
G1 X87.059 Y111.222 E3.94122
G1 X86.726 Y110.781 E3.96879
G1 X86.283 Y110.128 E4.00816
G1 X85.966 Y109.552 E4.04096
G1 X85.719 Y109.055 E4.06865
G1 X85.404 Y108.331 E4.10804
G1 X85.112 Y107.372 E4.15805
G1 X84.922 Y106.565 E4.19942
G1 X84.78 Y105.788 E4.23882
G1 X84.714 Y104.786 E4.28892
G1 X84.703 Y95.375 E4.75844
G1 X84.742 Y94.586 E4.79785
G1 X84.833 Y93.947 E4.83005
G1 X84.984 Y93.131 E4.87145
G1 X85.167 Y92.362 E4.91089
G1 X85.427 Y91.617 E4.95026
G1 X85.67 Y91.077 E4.9798
G1 X86.039 Y90.335 E5.02114
G1 X86.426 Y89.646 E5.06057
G1 X87.017 Y88.831 E5.11079
G1 X87.37 Y88.405 E5.1384
G1 X87.904 Y87.823 E5.1778
G0 F3600 X88.652 Y87.686
G1 F1800 X89.08 Y87.331 E5.20554
G1 X89.696 Y86.872 E5.24387
G1 X90.495 Y86.408 E5.28997
G1 X91.237 Y86.037 E5.33136
G1 X91.942 Y85.729 E5.36974
G1 X92.675 Y85.497 E5.4081
G1 X93.198 Y85.38 E5.43483
G1 X94.013 Y85.229 E5.47619
G1 X94.775 Y85.128 E5.51453
G1 X95.396 Y85.105 E5.54554
G1 X105.085 Y85.151 E6.02893
G1 X105.853 Y85.195 E6.06731
G1 X106.612 Y85.318 E6.10567
G1 X107.387 Y85.53 E6.14575
G1 X108.171 Y85.791 E6.18698
G1 X108.888 Y86.071 E6.22538
G1 X109.729 Y86.52 E6.27294
G1 X110.199 Y86.811 E6.30052
G1 X110.832 Y87.25 E6.33895
G1 X111.284 Y87.63 E6.36841
G1 X111.695 Y88.004 E6.39614
G1 X112.237 Y88.55 E6.43452
G1 X112.621 Y89.018 E6.46472
G1 X112.954 Y89.459 E6.49229
G1 X113.384 Y90.096 E6.53064
G1 X113.672 Y90.619 E6.56042
G1 X113.919 Y91.115 E6.58807
G1 X114.226 Y91.821 E6.62648
G1 X114.496 Y92.71 E6.67283
G1 X114.687 Y93.517 E6.7142
G1 X114.825 Y94.273 E6.75254
G1 X114.886 Y95.212 E6.79949
G1 X114.897 Y104.625 E7.2691
G1 X114.858 Y105.394 E7.30752
G1 X114.773 Y105.981 E7.33711
G1 X114.622 Y106.797 E7.37851
G1 X114.443 Y107.545 E7.41688
G1 X114.188 Y108.27 E7.45523
G1 X113.972 Y108.745 E7.48126
G1 X113.603 Y109.487 E7.5226
G1 X113.225 Y110.157 E7.56098
G1 X112.675 Y110.914 E7.60766
G1 X112.322 Y111.34 E7.63527
G1 X111.801 Y111.906 E7.67365
G1 X111.348 Y112.314 E7.70406
G1 X110.92 Y112.669 E7.7318
G1 X110.304 Y113.128 E7.77013
G1 X109.792 Y113.44 E7.80004
G1 X109.31 Y113.708 E7.82756
G1 X108.619 Y114.047 E7.86596
G1 X108.09 Y114.249 E7.89421
G1 X107.565 Y114.427 E7.92186
G1 X106.825 Y114.636 E7.96023
G1 X106.067 Y114.767 E7.9986
G1 X105.251 Y114.819 E8.0394
G1 X95.653 Y114.9 E8.51826
G1 X94.669 Y114.842 E8.56744
G1 X93.761 Y114.728 E8.61309
G1 X93.004 Y114.593 E8.65146
G1 X92.034 Y114.295 E8.70208
G1 X91.515 Y114.096 E8.72981
G1 X90.812 Y113.784 E8.76818
G1 X90.266 Y113.477 E8.79944
G1 X89.798 Y113.187 E8.8269
G1 X89.166 Y112.749 E8.86527
G1 X88.715 Y112.37 E8.89466
G1 X88.303 Y111.995 E8.92245
G1 X87.762 Y111.448 E8.96083
G1 X87.378 Y110.981 E8.991
G1 X87.045 Y110.54 E9.01857
G1 X86.615 Y109.903 E9.05691
G1 X86.324 Y109.374 E9.08703
G1 X86.077 Y108.877 E9.11472
G1 X85.771 Y108.172 E9.15306
G1 X85.501 Y107.28 E9.19956
G1 X85.311 Y106.473 E9.24092
G1 X85.174 Y105.716 E9.2793
G1 X85.114 Y104.786 E9.3258
G1 X85.103 Y95.375 E9.79531
G1 X85.142 Y94.606 E9.83373
G1 X85.227 Y94.019 E9.86332
G1 X85.378 Y93.203 E9.90472
G1 X85.557 Y92.455 E9.94309
G1 X85.812 Y91.73 E9.98143
G1 X86.028 Y91.255 E10.00747
G1 X86.397 Y90.513 E10.04881
G1 X86.775 Y89.843 E10.08719
G1 X87.325 Y89.086 E10.13387
G1 X87.678 Y88.66 E10.16147
G1 X88.199 Y88.094 E10.19985
G1 X88.652 Y87.686 E10.23027
G0 F3600 X88.907 Y87.994
G1 F1800 X89.335 Y87.639 E10.25801
G1 X89.936 Y87.193 E10.29535
G1 X90.674 Y86.766 E10.33789
G1 X91.416 Y86.395 E10.37928
G1 X92.102 Y86.097 E10.41659
G1 X92.815 Y85.873 E10.45388
G1 X93.271 Y85.773 E10.47717
G1 X94.086 Y85.622 E10.51852
G1 X94.828 Y85.525 E10.55585
G1 X95.394 Y85.505 E10.58411
G1 X105.083 Y85.551 E11.0675
G1 X105.83 Y85.595 E11.10483
G1 X106.568 Y85.718 E11.14216
G1 X107.261 Y85.909 E11.17802
G1 X108.045 Y86.17 E11.21925
G1 X108.741 Y86.444 E11.25656
G1 X109.519 Y86.86 E11.30058
G1 X109.989 Y87.151 E11.32816
G1 X110.603 Y87.579 E11.3655
G1 X111.015 Y87.926 E11.39237
G1 X111.426 Y88.3 E11.4201
G1 X111.952 Y88.832 E11.45742
G1 X112.301 Y89.259 E11.48493
G1 X112.634 Y89.7 E11.5125
G1 X113.053 Y90.32 E11.54984
G1 X113.314 Y90.798 E11.57701
G1 X113.561 Y91.294 E11.60465
G1 X113.858 Y91.98 E11.64195
G1 X114.107 Y92.802 E11.6848
G1 X114.298 Y93.609 E11.72617
G1 X114.431 Y94.345 E11.76348
G1 X114.486 Y95.213 E11.80687
G1 X114.497 Y104.626 E12.27649
G1 X114.458 Y105.373 E12.31381
G1 X114.38 Y105.908 E12.34078
G1 X114.229 Y106.724 E12.38219
G1 X114.054 Y107.451 E12.41949
G1 X113.802 Y108.155 E12.4568
G1 X113.614 Y108.567 E12.47939
G1 X113.245 Y109.309 E12.52073
G1 X112.876 Y109.96 E12.55807
G1 X112.367 Y110.658 E12.60117
G1 X112.014 Y111.084 E12.62877
G1 X111.507 Y111.634 E12.66609
G1 X111.093 Y112.006 E12.69385
G1 X110.665 Y112.361 E12.7216
G1 X110.064 Y112.807 E12.75894
G1 X109.598 Y113.091 E12.78616
G1 X109.116 Y113.359 E12.81368
G1 X108.443 Y113.687 E12.85103
G1 X107.962 Y113.87 E12.8767
G1 X107.437 Y114.048 E12.90436
G1 X106.716 Y114.25 E12.94172
G1 X105.979 Y114.374 E12.979
G1 X105.248 Y114.419 E13.01554
G1 X95.65 Y114.5 E13.4944
G1 X94.719 Y114.445 E13.54093
G1 X93.811 Y114.331 E13.58659
G1 X93.075 Y114.199 E13.62389
G1 X92.177 Y113.922 E13.67078
G1 X91.658 Y113.723 E13.69851
G1 X90.975 Y113.418 E13.73583
G1 X90.477 Y113.137 E13.76435
G1 X90.009 Y112.847 E13.79182
G1 X89.395 Y112.42 E13.82913
G1 X88.984 Y112.074 E13.85594
G1 X88.572 Y111.699 E13.88373
G1 X88.047 Y111.166 E13.92106
G1 X87.698 Y110.74 E13.94853
G1 X87.365 Y110.299 E13.9761
G1 X86.946 Y109.679 E14.01343
G1 X86.682 Y109.196 E14.0409
G1 X86.435 Y108.699 E14.06858
G1 X86.139 Y108.013 E14.10586
G1 X85.89 Y107.188 E14.14885
G1 X85.7 Y106.381 E14.19021
G1 X85.568 Y105.645 E14.22752
G1 X85.514 Y104.785 E14.27051
G1 X85.503 Y95.374 E14.74003
G1 X85.542 Y94.627 E14.77735
G1 X85.62 Y94.092 E14.80432
G1 X85.771 Y93.276 E14.84572
G1 X85.946 Y92.549 E14.88303
G1 X86.198 Y91.845 E14.92033
G1 X86.386 Y91.433 E14.94293
G1 X86.755 Y90.691 E14.98427
G1 X87.124 Y90.04 E15.0216
G1 X87.633 Y89.342 E15.0647
G1 X87.986 Y88.916 E15.0923
G1 X88.493 Y88.366 E15.12962
G1 X88.907 Y87.994 E15.15739
G0 F3600 X89.162 Y88.302
G1 F1800 X89.59 Y87.947 E15.18513
G1 X90.174 Y87.515 E15.22137
G1 X90.852 Y87.124 E15.26042
G1 X91.594 Y86.753 E15.30181
G1 X92.261 Y86.464 E15.33807
G1 X92.955 Y86.251 E15.37429
G1 X93.344 Y86.166 E15.39416
G1 X94.159 Y86.015 E15.43551
G1 X94.879 Y85.923 E15.47172
G1 X95.392 Y85.905 E15.49733
G1 X105.081 Y85.951 E15.98072
G1 X105.806 Y85.994 E16.01696
G1 X106.522 Y86.117 E16.0532
G1 X107.135 Y86.289 E16.08497
G1 X107.919 Y86.55 E16.12619
G1 X108.594 Y86.817 E16.16241
G1 X109.308 Y87.201 E16.20285
G1 X109.778 Y87.492 E16.23043
G1 X110.374 Y87.907 E16.26666
G1 X110.746 Y88.222 E16.29098
G1 X111.157 Y88.596 E16.31871
G1 X111.667 Y89.113 E16.35494
G1 X111.982 Y89.5 E16.37983
G1 X112.315 Y89.941 E16.4074
G1 X112.72 Y90.544 E16.44364
G1 X112.956 Y90.976 E16.4682
G1 X113.203 Y91.472 E16.49584
G1 X113.49 Y92.139 E16.53207
G1 X113.718 Y92.894 E16.57142
G1 X113.909 Y93.701 E16.61279
G1 X114.037 Y94.416 E16.64903
G1 X114.086 Y95.213 E16.68887
G1 X114.097 Y104.626 E17.15849
G1 X114.058 Y105.352 E17.19476
G1 X113.987 Y105.835 E17.21911
G1 X113.836 Y106.651 E17.26052
G1 X113.665 Y107.357 E17.29676
G1 X113.417 Y108.04 E17.33301
G1 X113.256 Y108.389 E17.35218
G1 X112.887 Y109.131 E17.39353
G1 X112.528 Y109.762 E17.42975
G1 X112.059 Y110.403 E17.46937
G1 X111.706 Y110.829 E17.49697
G1 X111.212 Y111.362 E17.53323
G1 X110.838 Y111.698 E17.55831
G1 X110.41 Y112.053 E17.58605
G1 X109.826 Y112.485 E17.6223
G1 X109.403 Y112.741 E17.64696
G1 X108.921 Y113.009 E17.67448
G1 X108.268 Y113.327 E17.71071
G1 X107.833 Y113.492 E17.73392
G1 X107.308 Y113.67 E17.76158
G1 X106.609 Y113.865 E17.79779
G1 X105.892 Y113.981 E17.83402
G1 X105.245 Y114.019 E17.86636
G1 X95.647 Y114.1 E18.34522
G1 X94.769 Y114.049 E18.3891
G1 X93.861 Y113.935 E18.43475
G1 X93.146 Y113.805 E18.47101
G1 X92.32 Y113.549 E18.51415
G1 X91.801 Y113.35 E18.54188
G1 X91.138 Y113.053 E18.57813
G1 X90.688 Y112.797 E18.60396
G1 X90.22 Y112.507 E18.63143
G1 X89.624 Y112.091 E18.66769
G1 X89.253 Y111.778 E18.6919
G1 X88.841 Y111.403 E18.7197
G1 X88.332 Y110.885 E18.75593
G1 X88.017 Y110.499 E18.78079
G1 X87.684 Y110.058 E18.80835
G1 X87.279 Y109.455 E18.84459
G1 X87.041 Y109.018 E18.86942
G1 X86.794 Y108.521 E18.89711
G1 X86.507 Y107.854 E18.93334
G1 X86.28 Y107.097 E18.97276
G1 X86.09 Y106.29 E19.01413
G1 X85.962 Y105.574 E19.05041
G1 X85.914 Y104.785 E19.08985
G1 X85.903 Y95.374 E19.55937
G1 X85.942 Y94.648 E19.59564
G1 X86.013 Y94.165 E19.62
G1 X86.164 Y93.349 E19.6614
G1 X86.335 Y92.643 E19.69764
G1 X86.583 Y91.96 E19.73389
G1 X86.744 Y91.611 E19.75306
G1 X87.113 Y90.869 E19.79441
G1 X87.472 Y90.238 E19.83063
G1 X87.941 Y89.597 E19.87025
G1 X88.294 Y89.171 E19.89785
G1 X88.788 Y88.638 E19.93411
G1 X89.162 Y88.302 E19.95919
G0 F3600 X89.418 Y88.61
G1 F1800 X89.846 Y88.255 E19.98694
G1 X90.412 Y87.837 E20.02204
G1 X91.031 Y87.482 E20.05764
G1 X91.773 Y87.111 E20.09903
G1 X92.42 Y86.832 E20.13418
G1 X93.417 Y86.56 E20.18574
G1 X94.232 Y86.409 E20.22709
G1 X94.93 Y86.32 E20.2622
G1 X95.39 Y86.305 E20.28516
G1 X105.079 Y86.351 E20.76855
G1 X105.782 Y86.394 E20.80369
G1 X106.475 Y86.517 E20.8388
G1 X107.008 Y86.668 E20.86644
G1 X107.792 Y86.929 E20.90766
G1 X108.447 Y87.189 E20.94282
G1 X109.098 Y87.541 E20.97975
G1 X109.568 Y87.832 E21.00732
G1 X110.144 Y88.236 E21.04243
G1 X110.477 Y88.517 E21.06416
G1 X110.888 Y88.891 E21.09189
G1 X111.381 Y89.394 E21.12703
G1 X111.663 Y89.741 E21.14933
G1 X111.996 Y90.182 E21.1769
G1 X112.388 Y90.767 E21.21203
G1 X112.598 Y91.154 E21.234
G1 X112.845 Y91.65 E21.26165
G1 X113.122 Y92.297 E21.29676
G1 X113.328 Y92.986 E21.33264
G1 X113.519 Y93.793 E21.37401
G1 X113.642 Y94.486 E21.40912
G1 X113.686 Y95.214 E21.44551
G1 X113.697 Y104.627 E21.91513
G1 X113.658 Y105.33 E21.95025
G1 X113.593 Y105.762 E21.97205
G1 X113.442 Y106.578 E22.01345
G1 X113.275 Y107.262 E22.04858
G1 X112.897 Y108.211 E22.09954
G1 X112.528 Y108.953 E22.14089
G1 X112.18 Y109.564 E22.17597
G1 X111.751 Y110.148 E22.21212
G1 X111.398 Y110.574 E22.23972
G1 X110.919 Y111.09 E22.27485
G1 X110.582 Y111.39 E22.29736
G1 X110.154 Y111.745 E22.3251
G1 X109.588 Y112.163 E22.3602
G1 X109.209 Y112.392 E22.38229
G1 X108.727 Y112.66 E22.40981
G1 X108.093 Y112.966 E22.44493
G1 X107.705 Y113.113 E22.46563
G1 X107.18 Y113.291 E22.49329
G1 X106.501 Y113.479 E22.52844
G1 X105.806 Y113.588 E22.56353
G1 X105.241 Y113.619 E22.59176
G1 X95.643 Y113.7 E23.07063
G1 X94.819 Y113.652 E23.11181
G1 X93.911 Y113.538 E23.15746
G1 X93.218 Y113.41 E23.19262
G1 X92.463 Y113.175 E23.23207
G1 X91.944 Y112.976 E23.2598
G1 X91.302 Y112.687 E23.29493
G1 X90.898 Y112.457 E23.31812
G1 X90.43 Y112.167 E23.34559
G1 X89.854 Y111.763 E23.38069
G1 X89.523 Y111.482 E23.40235
G1 X89.111 Y111.107 E23.43014
G1 X88.618 Y110.604 E23.46528
G1 X88.336 Y110.258 E23.48755
G1 X88.003 Y109.817 E23.51512
G1 X87.611 Y109.232 E23.55025
G1 X87.399 Y108.84 E23.57249
G1 X87.152 Y108.343 E23.60018
G1 X86.875 Y107.696 E23.63529
G1 X86.669 Y107.005 E23.67126
G1 X86.479 Y106.198 E23.71263
G1 X86.357 Y105.505 E23.74773
G1 X86.314 Y104.784 E23.78377
G1 X86.303 Y95.373 E24.25328
G1 X86.342 Y94.67 E24.28841
G1 X86.407 Y94.238 E24.3102
G1 X86.558 Y93.422 E24.35161
G1 X86.725 Y92.738 E24.38673
G1 X87.103 Y91.789 E24.4377
G1 X87.472 Y91.047 E24.47904
G1 X87.82 Y90.436 E24.51412
G1 X88.249 Y89.852 E24.55027
G1 X88.602 Y89.426 E24.57787
G1 X89.081 Y88.91 E24.613
G1 X89.418 Y88.61 E24.63551
G0 F3600 X89.673 Y88.918
G1 F1800 X90.101 Y88.563 E24.66325
G1 X90.65 Y88.16 E24.69723
G1 X91.21 Y87.839 E24.72943
G1 X91.952 Y87.468 E24.77082
G1 X92.578 Y87.2 E24.80479
G1 X93.489 Y86.953 E24.85188
G1 X94.304 Y86.802 E24.89324
G1 X94.98 Y86.718 E24.92722
G1 X95.389 Y86.705 E24.94764
G1 X105.078 Y86.751 E25.43103
G1 X105.757 Y86.794 E25.46497
G1 X106.427 Y86.917 E25.49896
G1 X106.882 Y87.048 E25.52258
G1 X107.666 Y87.309 E25.5638
G1 X108.298 Y87.562 E25.59777
G1 X108.887 Y87.881 E25.63119
G1 X109.357 Y88.172 E25.65876
G1 X109.914 Y88.563 E25.69272
G1 X110.208 Y88.813 E25.71197
G1 X110.619 Y89.187 E25.73969
G1 X111.094 Y89.674 E25.77363
G1 X111.344 Y89.982 E25.79342
G1 X111.677 Y90.423 E25.82099
G1 X112.054 Y90.989 E25.85492
G1 X112.24 Y91.333 E25.87443
G1 X112.487 Y91.829 E25.90208
G1 X112.754 Y92.455 E25.93603
G1 X112.939 Y93.078 E25.96845
G1 X113.13 Y93.885 E26.00983
G1 X113.248 Y94.556 E26.04382
G1 X113.286 Y95.214 E26.0767
G1 X113.297 Y104.627 E26.54632
G1 X113.258 Y105.307 E26.5803
G1 X113.2 Y105.689 E26.59957
G1 X113.049 Y106.505 E26.64098
G1 X112.886 Y107.166 E26.67494
G1 X112.539 Y108.033 E26.72153
G1 X112.17 Y108.775 E26.76287
G1 X111.832 Y109.365 E26.7968
G1 X111.443 Y109.893 E26.82952
G1 X111.09 Y110.319 E26.85712
G1 X110.626 Y110.817 E26.89108
G1 X110.327 Y111.082 E26.91101
G1 X109.899 Y111.437 E26.93875
G1 X109.35 Y111.84 E26.97273
G1 X109.015 Y112.042 E26.99225
G1 X108.533 Y112.31 E27.01976
G1 X107.919 Y112.605 E27.05374
G1 X107.576 Y112.734 E27.07203
G1 X107.051 Y112.912 E27.09968
G1 X106.395 Y113.092 E27.13362
G1 X105.722 Y113.194 E27.16758
G1 X105.238 Y113.219 E27.19176
G1 X95.64 Y113.3 E27.67062
G1 X94.868 Y113.255 E27.7092
G1 X93.96 Y113.141 E27.75486
G1 X93.291 Y113.016 E27.78881
G1 X92.607 Y112.802 E27.82457
G1 X92.088 Y112.603 E27.8523
G1 X91.467 Y112.322 E27.88631
G1 X91.109 Y112.117 E27.90689
G1 X90.641 Y111.827 E27.93436
G1 X90.084 Y111.435 E27.96834
G1 X89.792 Y111.186 E27.98748
G1 X89.38 Y110.811 E28.01528
G1 X88.904 Y110.324 E28.04925
G1 X88.655 Y110.017 E28.06897
