;FLAVOR:Marlin
;TIME:2430
;Filament used: 2.83421m
;Layer height: 0.2
;Generated with Cura_SteamEngine 3.5.1
M140 S65
M105
M190 S65
M104 S200
M105
M109 S200
M82 ;absolute extrusion mode
G28 ;Home
G1 Z5.0 F600 ;Move the platform down 15mm
;Prime the extruder
G1 Y0 F5000
G92 E0
G1 F200 E3
G92 E0
G92 E0
G1 F1500 E-6.5
;LAYER_COUNT:61
;LAYER:0
M107
G0 F3300 X98.992 Y100.577 Z0.2
;TYPE:SKIRT
G1 F1500 E0
G1 F2400 X110.816 Y88.8 E0.63832
G1 X111.224 Y88.451 E0.65886
G1 X111.702 Y88.154 E0.68038
G1 X112.631 Y87.673 E0.72039
G1 X113.204 Y87.436 E0.74411
G1 X117.986 Y85.93 E0.93588
G1 X123.071 Y84.016 E1.14369
G1 X128.396 Y81.649 E1.36659
G1 X131.74 Y79.987 E1.50942
G1 X132.236 Y79.785 E1.5299
G1 X132.757 Y79.659 E1.5504
G1 X133.341 Y79.611 E1.57282
G1 X136.418 Y79.61 E1.69051
G1 X136.953 Y79.65 E1.71103
G1 X137.655 Y79.829 E1.73874
G1 X139.493 Y80.501 E1.81359
G1 X139.828 Y80.643 E1.82751
G1 X143.539 Y82.444 E1.98529
G1 X148.576 Y84.601 E2.19487
G1 X151.108 Y85.562 E2.29846
G1 X156.686 Y87.397 E2.52306
G1 X157.121 Y87.572 E2.54099
G1 X158.161 Y88.072 E2.58513
G1 X158.626 Y88.34 E2.60566
G1 X159.138 Y88.763 E2.63106
G1 X170.87 Y100.419 E3.26362
G1 X171.328 Y100.975 E3.29118
G1 X172.034 Y102.033 E3.33983
G1 X172.297 Y102.5 E3.36033
G1 X172.471 Y102.945 E3.3786
G1 X173.653 Y106.68 E3.52845
G1 X175.507 Y111.808 E3.73701
G1 X178.274 Y118.131 E4.00101
G1 X179.944 Y121.567 E4.14713
G1 X180.142 Y122.066 E4.16766
G1 X180.263 Y122.588 E4.18816
G1 X180.306 Y123.138 E4.20926
G1 X180.309 Y127.217 E4.36528
G1 X180.269 Y127.752 E4.3858
G1 X180.151 Y128.275 E4.40631
G1 X179.928 Y128.831 E4.42922
G1 X178.022 Y132.64 E4.59213
G1 X175.788 Y137.669 E4.80261
G1 X174.804 Y140.167 E4.90531
G1 X172.537 Y146.885 E5.1765
G1 X172.383 Y147.267 E5.19225
G1 X172.061 Y147.951 E5.22117
G1 X171.797 Y148.418 E5.24169
G1 X171.619 Y148.662 E5.25324
G1 X171.105 Y149.307 E5.28479
G1 X170.836 Y149.608 E5.30023
G1 X159.557 Y160.894 E5.91053
G1 X159.265 Y161.156 E5.92553
G1 X158.762 Y161.56 E5.95021
G1 X158.142 Y161.961 E5.97845
G1 X157.549 Y162.263 E6.0039
G1 X157 Y162.488 E6.0266
G1 X154.203 Y163.372 E6.1388
G1 X149.034 Y165.21 E6.34863
G1 X144.016 Y167.322 E6.55688
G1 X138.727 Y169.915 E6.78218
G1 X138.229 Y170.115 E6.80271
G1 X137.707 Y170.238 E6.82322
G1 X137.178 Y170.283 E6.84353
G1 X133.866 Y170.316 E6.97021
G1 X133.331 Y170.281 E6.99072
G1 X132.569 Y170.088 E7.02079
G1 X129.663 Y169.001 E7.13946
G1 X129.444 Y168.911 E7.14852
G1 X122.857 Y165.939 E7.42492
G1 X117.769 Y164.024 E7.63286
G1 X112.775 Y162.4 E7.83372
G1 X112.085 Y162.092 E7.86263
G1 X111.634 Y161.831 E7.88256
G1 X111.005 Y161.369 E7.91241
G1 X109.968 Y160.419 E7.9662
G1 X109.852 Y160.308 E7.97234
G1 X99.059 Y149.495 E8.5567
G1 X98.653 Y149.009 E8.58092
G1 X98.091 Y148.202 E8.61854
G1 X97.818 Y147.741 E8.63903
G1 X97.631 Y147.287 E8.65781
G1 X95.081 Y139.664 E8.96527
G1 X94.109 Y137.163 E9.0679
G1 X93.054 Y134.653 E9.17204
G1 X89.988 Y128.266 E9.44303
G1 X89.792 Y127.766 E9.46357
G1 X89.673 Y127.244 E9.48405
G1 X89.633 Y126.706 E9.50468
G1 X89.635 Y122.969 E9.64762
G1 X89.675 Y122.434 E9.66814
G1 X89.794 Y121.911 E9.68865
G1 X90.008 Y121.376 E9.71069
G1 X92.543 Y116.247 E9.92953
G1 X94.67 Y111.25 E10.13725
G1 X96.534 Y106.073 E10.34771
G1 X97.662 Y102.643 E10.48582
G1 X97.867 Y102.148 E10.50631
G1 X98.139 Y101.694 E10.52656
G1 X98.59 Y101.054 E10.5565
G1 X98.992 Y100.577 E10.58036
G0 F3300 X99.275 Y100.861
G1 F2400 X111.099 Y89.084 E11.21868
G1 X111.484 Y88.756 E11.23803
G1 X111.886 Y88.509 E11.25607
G1 X112.815 Y88.028 E11.29609
G1 X113.325 Y87.818 E11.31718
G1 X118.1 Y86.314 E11.50867
G1 X123.231 Y84.383 E11.71836
G1 X128.557 Y82.016 E11.94129
G1 X131.918 Y80.345 E12.08486
G1 X132.387 Y80.157 E12.10419
G1 X132.88 Y80.045 E12.12352
G1 X133.341 Y80.011 E12.1412
G1 X136.418 Y80.01 E12.2589
G1 X136.922 Y80.05 E12.27823
G1 X137.518 Y80.205 E12.30179
G1 X139.356 Y80.877 E12.37664
G1 X139.654 Y81.003 E12.38902
G1 X143.378 Y82.81 E12.54734
G1 X148.425 Y84.972 E12.75735
G1 X150.974 Y85.939 E12.86163
G1 X156.561 Y87.777 E13.08659
G1 X156.948 Y87.933 E13.10255
G1 X157.988 Y88.433 E13.14669
G1 X158.424 Y88.687 E13.16599
G1 X158.856 Y89.047 E13.1875
G1 X170.588 Y100.703 E13.82006
G1 X170.995 Y101.197 E13.84454
G1 X171.701 Y102.255 E13.89319
G1 X171.947 Y102.696 E13.91251
G1 X172.09 Y103.066 E13.92768
G1 X173.275 Y106.81 E14.07789
G1 X175.133 Y111.95 E14.28694
G1 X177.919 Y118.318 E14.5528
G1 X179.584 Y121.742 E14.69843
G1 X179.768 Y122.213 E14.71777
G1 X179.876 Y122.707 E14.73711
G1 X179.906 Y123.139 E14.75367
G1 X179.909 Y127.218 E14.90969
G1 X179.869 Y127.722 E14.92903
G1 X179.751 Y128.213 E14.94834
G1 X179.571 Y128.652 E14.96649
G1 X177.652 Y132.487 E15.13052
G1 X175.422 Y137.508 E15.34066
G1 X174.427 Y140.031 E15.44439
G1 X172.158 Y146.757 E15.7159
G1 X172.021 Y147.097 E15.72992
G1 X171.699 Y147.781 E15.75884
G1 X171.307 Y148.412 E15.78725
G1 X170.793 Y149.057 E15.8188
G1 X170.553 Y149.325 E15.83256
G1 X159.274 Y160.611 E16.44285
G1 X159.015 Y160.844 E16.45618
G1 X158.512 Y161.248 E16.48086
G1 X157.96 Y161.605 E16.506
G1 X157.367 Y161.907 E16.53145
G1 X156.879 Y162.106 E16.55161
G1 X154.092 Y162.987 E16.66341
G1 X148.887 Y164.837 E16.8747
G1 X143.857 Y166.954 E17.08344
G1 X138.551 Y169.556 E17.30948
G1 X138.081 Y169.742 E17.32881
G1 X137.587 Y169.852 E17.34817
G1 X137.174 Y169.883 E17.36401
G1 X133.862 Y169.916 E17.4907
G1 X133.358 Y169.881 E17.51002
G1 X132.709 Y169.713 E17.53567
G1 X129.803 Y168.626 E17.65434
G1 X129.608 Y168.546 E17.6624
G1 X123.017 Y165.572 E17.93898
G1 X117.887 Y163.641 E18.14863
G1 X112.898 Y162.019 E18.34929
G1 X112.285 Y161.746 E18.37496
G1 X111.834 Y161.485 E18.39489
G1 X111.275 Y161.075 E18.42141
G1 X110.238 Y160.125 E18.4752
G1 X110.135 Y160.026 E18.48066
G1 X99.342 Y149.213 E19.06502
G1 X98.981 Y148.781 E19.08656
G1 X98.419 Y147.974 E19.12417
G1 X98.164 Y147.537 E19.14352
G1 X98.01 Y147.16 E19.1591
G1 X95.453 Y139.518 E19.46733
G1 X94.48 Y137.012 E19.57015
G1 X93.425 Y134.504 E19.67422
G1 X90.348 Y128.093 E19.94622
G1 X90.166 Y127.621 E19.96557
G1 X90.061 Y127.127 E19.98489
G1 X90.033 Y126.706 E20.00102
G1 X90.035 Y122.969 E20.14396
G1 X90.075 Y122.465 E20.1633
G1 X90.194 Y121.974 E20.18262
G1 X90.366 Y121.553 E20.20002
G1 X92.912 Y116.402 E20.41979
G1 X95.039 Y111.406 E20.62748
G1 X96.918 Y106.185 E20.83972
G1 X98.042 Y102.768 E20.97731
G1 X98.238 Y102.302 E20.99664
G1 X98.466 Y101.925 E21.0135
G1 X98.917 Y101.285 E21.04344
G1 X99.275 Y100.861 E21.06467
G0 F3300 X99.784 Y114.727
;TYPE:SUPPORT
G1 F2400 X99.782 Y135.191 E21.8474
G1 X97.398 Y131.94 E22.0016
G1 X96.956 Y131.809 E22.01923
G1 X96.896 Y131.641 E22.02606
G1 X96.452 Y131.344 E22.04649
G1 X96.256 Y131.356 E22.054
G1 X94.749 Y128.9 E22.16421
G1 X94.489 Y128.653 E22.17793
G1 X94.475 Y128.572 E22.18107
G1 X94.238 Y128.183 E22.1985
G1 X94.231 Y128.099 E22.20172
G1 X93.607 Y126.936 E22.2522
G1 X93.414 Y126.633 E22.26594
G1 X93.381 Y125.119 E22.32387
G1 X93.423 Y123.048 E22.4031
G1 X94.088 Y122.391 E22.43885
G1 X94.116 Y121.826 E22.46049
G1 X98.312 Y116.085 E22.73248
G1 X99.073 Y116.109 E22.7616
G1 X99.505 Y115.786 E22.78223
G1 X99.784 Y114.727 E22.82412
G0 F3300 X99.623 Y117.326
G1 F2400 X97.603 Y117.326 E22.90138
G0 F3300 X95.994 Y119.527
G1 F2400 X95.994 Y130.624 E23.32583
G0 F3300 X94.354 Y127.992
G1 F2400 X99.621 Y127.992 E23.52729
G0 F3300 X99.622 Y122.659
G1 F2400 X94.044 Y122.659 E23.74065
G0 F3300 X98.61 Y133.325
G1 F2400 X99.621 Y133.325 E23.77932
G1 F1500 E17.27932
G0 F3300 X100.059 Y104.769
G0 X100.265 Y103.95
G0 X100.706 Y103.093
G0 X101.186 Y102.507
G0 X112.562 Y91.134
G0 X113.149 Y90.665
G0 X113.904 Y90.287
G0 X114.525 Y90.106
G0 X114.882 Y90.081
G0 X124.424 Y89.782
G1 F1500 E23.77932
G1 F2400 X128.089 Y87.089 E23.95327
G1 X128.24 Y86.926 E23.96177
G1 X128.371 Y86.9 E23.96688
G1 X129.588 Y85.643 E24.0338
G1 X129.588 Y85.554 E24.03721
G1 X131.183 Y84.519 E24.10993
G1 X131.481 Y84.455 E24.12159
G1 X131.785 Y84.286 E24.13489
G1 X131.851 Y84.282 E24.13742
G1 X133.122 Y83.57 E24.19315
G1 X133.412 Y83.392 E24.20616
G1 X134.186 Y83.368 E24.23578
G1 X135.059 Y83.367 E24.26917
G1 X136.208 Y83.393 E24.31313
G1 X136.205 Y83.629 E24.32216
G1 X136.597 Y84.034 E24.34372
G1 X138.175 Y84.07 E24.40409
G1 X138.75 Y84.654 E24.43544
G1 X139.004 Y84.702 E24.44532
G1 X139.262 Y84.931 E24.45852
G1 X142.739 Y87.376 E24.6211
G1 X143.902 Y88.865 E24.69337
G1 X144.026 Y88.906 E24.69836
G1 X143.964 Y89.422 E24.71824
G1 X144.224 Y89.783 E24.73526
G1 X124.424 Y89.782 E25.49259
G0 F3300 X127.992 Y89.622
G1 F2400 X127.992 Y87.359 E25.57915
G0 F3300 X130.229 Y85.328
G1 F2400 X139.551 Y85.328 E25.93571
G0 F3300 X138.658 Y84.788
G1 F2400 X138.658 Y89.622 E26.1206
G0 F3300 X133.325 Y89.622
G1 F2400 X133.325 Y83.632 E26.34972
G1 F1500 E19.84972
G0 F3300 X156.301 Y90.369
G0 X157.199 Y90.929
G0 X168.82 Y102.505
G0 X169.202 Y102.952
G0 X169.542 Y103.494
G0 X169.782 Y104.072
G0 X169.925 Y104.693
G0 X170.216 Y114.839
G1 F1500 E26.34972
G1 F2400 X170.682 Y115.226 E26.37289
G1 X170.78 Y116.521 E26.42256
G1 X171.219 Y116.884 E26.44435
G1 X171.861 Y116.807 E26.46908
G1 X172.115 Y117.514 E26.49781
G1 X172.556 Y117.81 E26.51813
G1 X172.681 Y117.804 E26.52292
G1 X172.757 Y118.124 E26.5355
G1 X174.07 Y118.957 E26.59497
G1 X174.499 Y120.547 E26.65796
G1 X174.961 Y120.848 E26.67905
G1 X175.317 Y120.794 E26.69283
G1 X175.54 Y121.42 E26.71824
G1 X176.528 Y123.214 E26.79658
G1 X176.54 Y124.433 E26.84321
G1 X176.518 Y127.179 E26.94824
G1 X175.106 Y129.175 E27.04176
G1 X175.069 Y129.388 E27.05003
G1 X173.757 Y130.914 E27.12701
G1 X173.311 Y131.484 E27.15469
G1 X173.043 Y131.841 E27.17176
G1 X172.996 Y131.959 E27.17662
G1 X172.567 Y132.15 E27.19458
G1 X171.178 Y134.249 E27.29085
G1 X171.135 Y134.249 E27.2925
G1 X170.214 Y135.167 E27.34224
G1 X170.216 Y114.839 E28.11977
G0 F3300 X170.656 Y116.626
G1 F2400 X170.656 Y134.5 E28.80343
G0 F3300 X170.375 Y133.325
G1 F2400 X171.598 Y133.325 E28.85021
G0 F3300 X170.375 Y127.992
G1 F2400 X175.746 Y127.992 E29.05565
G0 F3300 X175.989 Y127.65
G1 F2400 X175.989 Y122.568 E29.25003
G0 F3300 X176.04 Y122.659
G1 F2400 X170.376 Y122.659 E29.46667
G0 F3300 X170.376 Y117.326
G1 F2400 X171.879 Y117.326 E29.52416
G1 F1500 E23.02416
G0 F3300 X169.923 Y145.285
G0 X169.614 Y146.336
G0 X169.071 Y147.2
G0 X157.214 Y159.07
G0 X156.353 Y159.608
G0 X155.485 Y159.896
G0 X155.017 Y159.941
G0 X145.573 Y160.214
G1 F1500 E29.52416
G1 F2400 X141.343 Y163.394 E29.72658
G1 X140.754 Y164.177 E29.76405
G1 X138.396 Y165.701 E29.87144
G1 X138.311 Y165.711 E29.87471
G1 X137.063 Y166.505 E29.93129
G1 X136.341 Y166.529 E29.95892
G1 X135.704 Y166.536 E29.98329
G1 X135.498 Y166.529 E29.99117
G1 X135.202 Y166.539 E30.0025
G1 X134.008 Y166.527 E30.04817
G1 X134.008 Y166.356 E30.05471
G1 X133.617 Y165.953 E30.07619
G1 X132.319 Y165.91 E30.12587
G1 X131.982 Y165.723 E30.14061
G1 X131.776 Y165.714 E30.14849
G1 X131.456 Y165.527 E30.16267
G1 X131 Y165.446 E30.18038
G1 X129.589 Y164.072 E30.25572
G1 X129.067 Y163.688 E30.2805
G1 X128.394 Y163.517 E30.30706
G1 X127.586 Y162.329 E30.36202
G1 X127.366 Y162.285 E30.3706
G1 X127.159 Y161.995 E30.38422
G1 X125.888 Y161.098 E30.44373
G1 X125.538 Y160.709 E30.46374
G1 X125.32 Y160.629 E30.47262
G1 X125.322 Y160.604 E30.47358
G1 X125.051 Y160.213 E30.49178
G1 X145.573 Y160.214 E31.27673
G0 F3300 X143.991 Y160.374
G1 F2400 X143.991 Y161.204 E31.30848
G0 F3300 X138.658 Y160.374
G1 F2400 X138.658 Y165.342 E31.4985
G0 F3300 X138.686 Y165.323
G1 F2400 X131.225 Y165.323 E31.78387
G0 F3300 X133.325 Y165.783
G1 F2400 X133.325 Y160.374 E31.99076
G0 F3300 X127.992 Y160.374
G1 F2400 X127.992 Y162.642 E32.07751
G1 F1500 E25.57751
G0 F3300 X127.993 Y159.979
G0 X127.993 Y158.694
G0 X117.593 Y154.039
;TYPE:WALL-INNER
G1 F1500 E32.07751
G1 F2400 X117.136 Y153.618 E32.10128
G1 X116.766 Y153.373 E32.11825
G1 X116.322 Y153.169 E32.13694
G1 X115.809 Y153.042 E32.15716
G1 X115.449 Y153.005 E32.171
G1 X115.113 Y153.008 E32.18385
G1 X114.778 Y153.05 E32.19677
G1 X114.473 Y153.126 E32.20879
G1 X114.055 Y153.277 E32.22579
G1 X113.693 Y153.477 E32.24161
G1 X113.38 Y153.708 E32.25649
G1 X113.094 Y153.98 E32.27158
G1 X112.853 Y154.288 E32.28654
G1 X112.657 Y154.612 E32.30102
G1 X112.49 Y154.981 E32.31652
G1 X112.402 Y155.315 E32.32973
G1 X112.35 Y155.513 E32.33756
G1 X112.333 Y155.728 E32.34581
G1 X112.235 Y155.63 E32.34618
G1 X112.091 Y155.486 E32.35196
G1 X104.501 Y147.897 E32.7625
G1 X104.407 Y147.803 E32.76758
G1 X104.27 Y147.666 E32.77499
G1 X104.579 Y147.631 E32.78078
G1 X104.708 Y147.596 E32.78503
G1 X105.016 Y147.51 E32.79726
G1 X105.321 Y147.374 E32.81003
G1 X105.611 Y147.217 E32.82265
G1 X105.992 Y146.933 E32.84082
G1 X106.316 Y146.593 E32.85879
G1 X106.589 Y146.203 E32.87699
G1 X106.747 Y145.885 E32.89058
G1 X106.865 Y145.572 E32.90337
G1 X106.963 Y145.147 E32.92005
G1 X107 Y144.685 E32.93778
G1 X106.97 Y144.275 E32.9535
G1 X106.864 Y143.786 E32.97264
G1 X106.726 Y143.443 E32.98678
G1 X106.58 Y143.164 E32.99883
G1 X106.365 Y142.841 E33.01367
G1 X106.065 Y142.513 E33.03067
G1 X105.844 Y142.323 E33.04182
G1 X105.624 Y142.168 E33.05211
G1 X105.371 Y142.019 E33.06334
G1 X105.008 Y141.864 E33.07844
G1 X104.634 Y141.755 E33.09334
G1 X104.333 Y141.706 E33.10501
G1 X104.059 Y141.691 E33.1155
G1 X103.788 Y141.694 E33.12587
G1 X103.476 Y141.733 E33.13789
G1 X102.985 Y141.861 E33.1573
G1 X102.496 Y142.086 E33.17789
G1 X102.409 Y142.146 E33.18193
G1 X102.149 Y142.327 E33.19405
G1 X102.081 Y142.387 E33.19752
G1 X102.081 Y142.327
G1 X102.081 Y142.01 E33.20519
G1 X102.084 Y107.906 E34.50964
G1 X102.084 Y107.903 E34.50976
G1 X102.085 Y107.62 E34.52058
G1 X102.479 Y107.903 E34.53246
G1 X102.481 Y107.904 E34.53255
G1 X102.968 Y108.135 E34.55316
G1 X103.477 Y108.27 E34.57331
G1 X103.897 Y108.309 E34.58944
G1 X104.16 Y108.307 E34.5995
G1 X104.602 Y108.252 E34.61654
G1 X105.057 Y108.122 E34.63464
G1 X105.411 Y107.959 E34.64954
G1 X105.647 Y107.815 E34.66012
G1 X105.907 Y107.632 E34.67228
G1 X106.249 Y107.295 E34.69064
G1 X106.388 Y107.124 E34.69907
G1 X106.597 Y106.819 E34.71321
G1 X106.82 Y106.346 E34.73322
G1 X106.955 Y105.849 E34.75292
G1 X106.984 Y105.54 E34.76479
G1 X106.997 Y105.197 E34.77791
G1 X106.956 Y104.796 E34.79333
G1 X106.868 Y104.441 E34.80732
G1 X106.751 Y104.119 E34.82043
G1 X106.586 Y103.796 E34.8343
G1 X106.38 Y103.49 E34.84841
G1 X106.228 Y103.306 E34.85754
G1 X105.949 Y103.034 E34.87244
G1 X105.687 Y102.838 E34.88496
G1 X105.455 Y102.692 E34.89544
G1 X105.031 Y102.497 E34.91329
G1 X104.71 Y102.404 E34.92607
G1 X104.587 Y102.369 E34.93097
G1 X104.272 Y102.332 E34.9431
G1 X104.41 Y102.194 E34.94443
G1 X104.5 Y102.104 E34.9485
G1 X112.095 Y94.507 E35.35939
G1 X112.213 Y94.389 E35.36577
G1 X112.329 Y94.273 E35.37205
G1 X112.36 Y94.535 E35.37664
G1 X112.403 Y94.696 E35.38168
G1 X112.486 Y95.008 E35.39403
G1 X112.693 Y95.46 E35.41304
G1 X113.001 Y95.919 E35.43418
G1 X113.309 Y96.229 E35.4509
G1 X113.479 Y96.371 E35.45937
G1 X113.854 Y96.623 E35.47665
G1 X114.299 Y96.826 E35.49536
G1 X114.791 Y96.956 E35.51482
G1 X115.289 Y97.001 E35.53395
G1 X115.827 Y96.96 E35.55459
G1 X116.328 Y96.827 E35.57441
G1 X116.696 Y96.657 E35.58992
G1 X116.926 Y96.527 E35.60002
G1 X117.204 Y96.332 E35.61301
G1 X117.563 Y95.989 E35.632
G1 X117.903 Y95.525 E35.65401
G1 X118.133 Y95.038 E35.67461
G1 X118.273 Y94.506 E35.69565
G1 X118.318 Y93.957 E35.71672
G1 X118.26 Y93.422 E35.7373
G1 X118.112 Y92.912 E35.75761
G1 X117.899 Y92.473 E35.77628
G1 X117.891 Y92.455 E35.77703
G1 X117.613 Y92.081 E35.79485
G1 X117.891 Y92.081 E35.79866
G1 X117.911 Y92.081 E35.79941
G1 X152.088 Y92.083 E37.10665
G1 X152.136 Y92.083 E37.10849
G1 X152.385 Y92.084 E37.11801
G1 X152.136 Y92.424 E37.12752
G1 X152.114 Y92.466 E37.12922
G1 X151.962 Y92.758 E37.14181
G1 X151.862 Y92.988 E37.1514
G1 X151.729 Y93.478 E37.17082
G1 X151.684 Y94.001 E37.1909
G1 X151.729 Y94.522 E37.2109
G1 X151.862 Y95.022 E37.23069
G1 X152.035 Y95.399 E37.24655
G1 X152.213 Y95.695 E37.25977
G1 X152.428 Y95.975 E37.27327
G1 X152.721 Y96.262 E37.28896
G1 X153.061 Y96.521 E37.3053
G1 X153.404 Y96.71 E37.32028
G1 X153.623 Y96.799 E37.32933
G1 X154.109 Y96.949 E37.34878
G1 X154.671 Y97.006 E37.37039
