;FLAVOR:Marlin
;TIME:1437
;Filament used: 1.90758m
;Layer height: 0.2
;Generated with Cura_SteamEngine 3.3.1
M190 S60
M104 S220
M109 S220
M82 ;absolute extrusion mode
G28 ;Home
G1 Z5.0 F600 ;Move the platform down 15mm
;Prime the extruder
G1 Y0 F5000
G92 E0
G1 F200 E3
G92 E0
G92 E0
G1 F1500 E-6.5
;LAYER_COUNT:104
;LAYER:0
M107
G0 F3300 X98.053 Y112.905 Z0.2
;TYPE:SKIRT
G1 F1500 E0
G1 F2400 X98.362 Y112.685 E0.01451
G1 X98.709 Y112.533 E0.029
G1 X99.25 Y112.45 E0.04993
G1 X170.75 Y112.45 E2.78475
G1 X171.127 Y112.49 E2.79925
G1 X171.487 Y112.608 E2.81374
G1 X171.814 Y112.798 E2.8282
G1 X172.095 Y113.053 E2.84272
G1 X172.315 Y113.362 E2.85723
G1 X172.467 Y113.709 E2.87172
G1 X172.55 Y114.25 E2.89265
G1 X172.55 Y135.75 E3.71501
G1 X172.51 Y136.127 E3.72951
G1 X172.392 Y136.487 E3.744
G1 X172.202 Y136.814 E3.75847
G1 X171.947 Y137.095 E3.77298
G1 X171.638 Y137.315 E3.78749
G1 X171.291 Y137.467 E3.80198
G1 X170.75 Y137.55 E3.82291
G1 X99.25 Y137.55 E6.55773
G1 X98.873 Y137.51 E6.57223
G1 X98.513 Y137.392 E6.58672
G1 X98.186 Y137.202 E6.60118
G1 X97.905 Y136.947 E6.6157
G1 X97.685 Y136.638 E6.63021
G1 X97.533 Y136.291 E6.6447
G1 X97.45 Y135.75 E6.66563
G1 X97.45 Y114.25 E7.48799
G1 X97.49 Y113.873 E7.50249
G1 X97.608 Y113.513 E7.51698
G1 X97.798 Y113.186 E7.53145
G1 X98.053 Y112.905 E7.54596
G0 F3300 X98.443 Y113.106
G1 F2400 X98.737 Y112.947 E7.55874
G1 X99.061 Y112.863 E7.57155
G1 X99.25 Y112.85 E7.57879
G1 X170.75 Y112.85 E10.31361
G1 X171.082 Y112.89 E10.3264
G1 X171.394 Y113.007 E10.33914
G1 X171.671 Y113.195 E10.35195
G1 X171.894 Y113.443 E10.3647
G1 X172.053 Y113.737 E10.37749
G1 X172.137 Y114.061 E10.39029
G1 X172.15 Y114.25 E10.39754
G1 X172.15 Y135.75 E11.21989
G1 X172.11 Y136.082 E11.23268
G1 X171.993 Y136.394 E11.24543
G1 X171.805 Y136.671 E11.25823
G1 X171.557 Y136.894 E11.27099
G1 X171.263 Y137.053 E11.28378
G1 X170.939 Y137.137 E11.29658
G1 X170.75 Y137.15 E11.30382
G1 X99.25 Y137.15 E14.03864
G1 X98.918 Y137.11 E14.05143
G1 X98.606 Y136.993 E14.06418
G1 X98.329 Y136.805 E14.07698
G1 X98.106 Y136.557 E14.08974
G1 X97.947 Y136.263 E14.10252
G1 X97.863 Y135.939 E14.11532
G1 X97.85 Y135.75 E14.12257
G1 X97.85 Y114.25 E14.94493
G1 X97.89 Y113.918 E14.95772
G1 X98.007 Y113.606 E14.97046
G1 X98.195 Y113.329 E14.98327
G1 X98.443 Y113.106 E14.99602
G0 F3300 X98.589 Y113.499
G1 F2400 X98.825 Y113.345 E15.0068
G1 X99.095 Y113.262 E15.01761
G1 X99.25 Y113.25 E15.02355
G1 X170.75 Y113.25 E17.75837
G1 X171.029 Y113.29 E17.76915
G1 X171.286 Y113.406 E17.77993
G1 X171.501 Y113.589 E17.79073
G1 X171.655 Y113.825 E17.80151
G1 X171.738 Y114.095 E17.81232
G1 X171.75 Y114.25 E17.81826
G1 X171.75 Y135.75 E18.64062
G1 X171.71 Y136.029 E18.6514
G1 X171.594 Y136.286 E18.66218
G1 X171.411 Y136.501 E18.67298
G1 X171.175 Y136.655 E18.68376
G1 X170.905 Y136.738 E18.69457
G1 X170.75 Y136.75 E18.70051
G1 X99.25 Y136.75 E21.43533
G1 X98.971 Y136.71 E21.44611
G1 X98.714 Y136.594 E21.45689
G1 X98.499 Y136.411 E21.46769
G1 X98.345 Y136.175 E21.47847
G1 X98.262 Y135.905 E21.48927
G1 X98.25 Y135.75 E21.49522
G1 X98.25 Y114.25 E22.31758
G1 X98.29 Y113.971 E22.32836
G1 X98.406 Y113.714 E22.33914
G1 X98.589 Y113.499 E22.34994
G0 F3300 X98.803 Y113.849
G1 F2400 X98.976 Y113.716 E22.35829
G1 X99.25 Y113.65 E22.36907
G1 X170.75 Y113.65 E25.10388
G1 X170.965 Y113.69 E25.11225
G1 X171.151 Y113.803 E25.12057
G1 X171.284 Y113.976 E25.12892
G1 X171.35 Y114.25 E25.1397
G1 X171.35 Y135.75 E25.96206
G1 X171.31 Y135.965 E25.97042
G1 X171.197 Y136.151 E25.97875
G1 X171.024 Y136.284 E25.98709
G1 X170.75 Y136.35 E25.99787
G1 X99.25 Y136.35 E28.73269
G1 X99.035 Y136.31 E28.74105
G1 X98.849 Y136.197 E28.74938
G1 X98.716 Y136.024 E28.75772
G1 X98.65 Y135.75 E28.7685
G1 X98.65 Y114.25 E29.59086
G1 X98.69 Y114.035 E29.59922
G1 X98.803 Y113.849 E29.60755
G0 F3300 X99.089 Y114.131
G1 F2400 X99.25 Y114.05 E29.61444
G1 X170.75 Y114.05 E32.34926
G1 X170.869 Y114.089 E32.35405
G1 X170.95 Y114.25 E32.36094
G1 X170.95 Y135.75 E33.1833
G1 X170.911 Y135.869 E33.18809
G1 X170.75 Y135.95 E33.19498
G1 X99.25 Y135.95 E35.92979
G1 X99.131 Y135.911 E35.93458
G1 X99.05 Y135.75 E35.94148
G1 X99.05 Y114.25 E36.76383
G1 X99.089 Y114.131 E36.76862
G1 F1500 E30.26862
G0 F3300 X99.864 Y114.864
G0 X116.012 Y118.818
G0 X116.247 Y119.259
;TYPE:WALL-OUTER
G1 F1500 E36.76862
G1 F2400 X115.173 Y119.834 E36.81522
G1 X114.232 Y120.607 E36.8618
G1 X113.459 Y121.548 E36.90838
G1 X112.884 Y122.622 E36.95498
G1 X112.531 Y123.788 E37.00157
G1 X112.411 Y125 E37.04816
G1 X112.531 Y126.212 E37.09474
G1 X112.884 Y127.378 E37.14134
G1 X113.459 Y128.452 E37.18794
G1 X114.232 Y129.393 E37.23452
G1 X115.173 Y130.166 E37.2811
G1 X116.247 Y130.741 E37.32769
G1 X117.413 Y131.094 E37.37429
G1 X118.625 Y131.213 E37.42087
G1 X119.837 Y131.094 E37.46745
G1 X121.003 Y130.741 E37.51405
G1 X122.077 Y130.166 E37.56065
G1 X123.019 Y129.393 E37.60725
G1 X123.791 Y128.452 E37.65381
G1 X124.366 Y127.378 E37.70041
G1 X124.719 Y126.212 E37.747
G1 X124.838 Y125 E37.79358
G1 X124.719 Y123.788 E37.84017
G1 X124.366 Y122.622 E37.88676
G1 X123.791 Y121.548 E37.93336
G1 X123.019 Y120.607 E37.97992
G1 X122.077 Y119.834 E38.02652
G1 X121.003 Y119.259 E38.07312
G1 X119.837 Y118.906 E38.11972
G1 X118.625 Y118.787 E38.1663
G1 X117.413 Y118.906 E38.21288
G1 X116.247 Y119.259 E38.25948
G0 F3300 X116.071 Y119.353
G0 X115.837 Y118.912
G0 X117.328 Y118.473
G0 X118.378 Y118.37
G0 X132.387 Y118.818
G0 X132.622 Y119.259
G1 F2400 X131.548 Y119.834 E38.30607
G1 X130.607 Y120.607 E38.35265
G1 X129.834 Y121.548 E38.39923
G1 X129.259 Y122.622 E38.44583
G1 X128.906 Y123.788 E38.49243
G1 X128.787 Y125 E38.53901
G1 X128.906 Y126.212 E38.58559
G1 X129.259 Y127.378 E38.63219
G1 X129.834 Y128.452 E38.67878
G1 X130.607 Y129.393 E38.72536
G1 X131.548 Y130.166 E38.77194
G1 X132.622 Y130.741 E38.81854
G1 X133.788 Y131.094 E38.86514
G1 X135 Y131.213 E38.91172
G1 X136.212 Y131.094 E38.9583
G1 X137.378 Y130.741 E39.00489
G1 X138.452 Y130.166 E39.05149
G1 X139.393 Y129.393 E39.09807
G1 X140.166 Y128.452 E39.14465
G1 X140.741 Y127.378 E39.19125
G1 X141.094 Y126.212 E39.23784
G1 X141.213 Y125 E39.28443
G1 X141.094 Y123.788 E39.33101
G1 X140.741 Y122.622 E39.3776
G1 X140.166 Y121.548 E39.4242
G1 X139.393 Y120.607 E39.47078
G1 X138.452 Y119.834 E39.51736
G1 X137.378 Y119.259 E39.56396
G1 X136.212 Y118.906 E39.61055
G1 X135 Y118.787 E39.65713
G1 X133.788 Y118.906 E39.70371
G1 X132.622 Y119.259 E39.75031
G0 F3300 X132.446 Y119.353
G0 X132.212 Y118.912
G0 X133.703 Y118.473
G0 X134.753 Y118.37
G0 X148.762 Y118.818
G0 X148.997 Y119.259
G1 F2400 X147.923 Y119.834 E39.79691
G1 X146.981 Y120.607 E39.84352
G1 X146.209 Y121.548 E39.89007
G1 X145.634 Y122.622 E39.93667
G1 X145.281 Y123.788 E39.98327
G1 X145.162 Y125 E40.02985
G1 X145.281 Y126.212 E40.07643
G1 X145.634 Y127.378 E40.12303
G1 X146.209 Y128.452 E40.16962
G1 X146.981 Y129.393 E40.21618
G1 X147.923 Y130.166 E40.26279
G1 X148.997 Y130.741 E40.30938
G1 X150.163 Y131.094 E40.35598
G1 X151.375 Y131.213 E40.40256
G1 X152.587 Y131.094 E40.44914
G1 X153.753 Y130.741 E40.49574
G1 X154.827 Y130.166 E40.54234
G1 X155.768 Y129.393 E40.58892
G1 X156.541 Y128.452 E40.6355
G1 X157.116 Y127.378 E40.68209
G1 X157.469 Y126.212 E40.72869
G1 X157.589 Y125 E40.77527
G1 X157.469 Y123.788 E40.82186
G1 X157.116 Y122.622 E40.86846
G1 X156.541 Y121.548 E40.91505
G1 X155.768 Y120.607 E40.96163
G1 X154.827 Y119.834 E41.00821
G1 X153.753 Y119.259 E41.05481
G1 X152.587 Y118.906 E41.10141
G1 X151.375 Y118.787 E41.14799
G1 X150.163 Y118.906 E41.19457
G1 X148.997 Y119.259 E41.24117
G0 F3300 X148.821 Y119.353
G0 X148.587 Y118.912
G0 X150.078 Y118.473
G0 X151.375 Y118.345
G0 X152.672 Y118.473
G0 X153.922 Y118.852
G0 X155.072 Y119.467
G0 X155.888 Y120.137
G0 X170.08 Y135.08
G0 X170.55 Y135.55
G1 F2400 X99.45 Y135.55 E43.96068
G1 X99.45 Y114.45 E44.76774
G1 X170.55 Y114.45 E47.48725
G1 X170.55 Y135.55 E48.29431
G0 F3300 X170.35 Y135.55
G0 X170.15 Y135.15
;TYPE:WALL-INNER
G1 F2400 X99.85 Y135.15 E50.98323
G1 X99.85 Y114.85 E51.75968
G1 X170.15 Y114.85 E54.4486
G1 X170.15 Y135.15 E55.22506
G0 F3300 X170.08 Y135.08
G0 X158.091 Y125
G0 X157.991 Y125
G1 F2400 X157.863 Y123.71 E55.27464
G1 X157.487 Y122.468 E55.32427
G1 X156.875 Y121.325 E55.37387
G1 X156.052 Y120.323 E55.42346
G1 X155.05 Y119.5 E55.47306
G1 X153.907 Y118.888 E55.52265
G1 X152.665 Y118.512 E55.57228
G1 X151.375 Y118.385 E55.62186
G1 X150.085 Y118.512 E55.67144
G1 X148.843 Y118.888 E55.72108
G1 X147.7 Y119.5 E55.77067
G1 X146.697 Y120.323 E55.8203
G1 X145.875 Y121.325 E55.86987
G1 X145.263 Y122.468 E55.91946
G1 X144.887 Y123.71 E55.96909
G1 X144.76 Y125 E56.01867
G1 X144.887 Y126.29 E56.06825
G1 X145.263 Y127.532 E56.11789
G1 X145.875 Y128.675 E56.16748
G1 X146.697 Y129.677 E56.21705
G1 X147.7 Y130.5 E56.26668
G1 X148.843 Y131.112 E56.31627
G1 X150.085 Y131.488 E56.3659
G1 X151.375 Y131.615 E56.41548
G1 X152.665 Y131.488 E56.46506
G1 X153.907 Y131.112 E56.5147
G1 X155.05 Y130.5 E56.56429
G1 X156.052 Y129.677 E56.61389
G1 X156.875 Y128.675 E56.66348
G1 X157.487 Y127.532 E56.71307
G1 X157.863 Y126.29 E56.76271
G1 X157.991 Y125 E56.81229
G0 F3300 X158.091 Y125
G0 X157.902 Y123.703
G0 X157.523 Y122.453
G0 X156.908 Y121.303
G0 X156.08 Y120.295
G0 X155.072 Y119.467
G0 X153.922 Y118.852
G0 X152.672 Y118.473
G0 X151.375 Y118.345
G0 X135 Y118.345
G0 X133.95 Y118.448
G0 X132.43 Y118.796
G0 X132.468 Y118.888
G1 F2400 X131.325 Y119.5 E56.86188
G1 X130.323 Y120.323 E56.91148
G1 X129.5 Y121.325 E56.96107
G1 X128.888 Y122.468 E57.01067
G1 X128.512 Y123.71 E57.0603
G1 X128.385 Y125 E57.10988
G1 X128.512 Y126.29 E57.15946
G1 X128.888 Y127.532 E57.2091
G1 X129.5 Y128.675 E57.25869
G1 X130.323 Y129.677 E57.30828
G1 X131.325 Y130.5 E57.35788
G1 X132.468 Y131.112 E57.40747
G1 X133.71 Y131.488 E57.4571
G1 X135 Y131.615 E57.50668
G1 X136.29 Y131.488 E57.55626
G1 X137.532 Y131.112 E57.6059
G1 X138.675 Y130.5 E57.65549
G1 X139.677 Y129.677 E57.70509
G1 X140.5 Y128.675 E57.75468
G1 X141.112 Y127.532 E57.80427
G1 X141.488 Y126.29 E57.85391
G1 X141.615 Y125 E57.90349
G1 X141.488 Y123.71 E57.95307
G1 X141.112 Y122.468 E58.0027
G1 X140.5 Y121.325 E58.05229
G1 X139.677 Y120.323 E58.10189
G1 X138.675 Y119.5 E58.15149
G1 X137.532 Y118.888 E58.20108
G1 X136.29 Y118.512 E58.25071
G1 X135 Y118.385 E58.30029
G1 X133.71 Y118.512 E58.34987
G1 X132.468 Y118.888 E58.39951
G0 F3300 X132.43 Y118.796
G0 X118.625 Y118.345
G0 X117.328 Y118.473
G0 X116.078 Y118.852
G0 X114.928 Y119.467
G0 X113.92 Y120.295
G0 X113.092 Y121.303
G0 X112.477 Y122.453
G0 X112.171 Y123.465
G0 X111.909 Y125
G0 X112.009 Y125
G1 F2400 X112.137 Y126.29 E58.44909
G1 X112.513 Y127.532 E58.49873
G1 X113.125 Y128.675 E58.54832
G1 X113.948 Y129.677 E58.59791
G1 X114.95 Y130.5 E58.64751
G1 X116.093 Y131.112 E58.6971
G1 X117.335 Y131.488 E58.74674
G1 X118.625 Y131.615 E58.79632
G1 X119.915 Y131.488 E58.8459
G1 X121.157 Y131.112 E58.89553
G1 X122.3 Y130.5 E58.94512
G1 X123.303 Y129.677 E58.99475
G1 X124.125 Y128.675 E59.04432
G1 X124.737 Y127.532 E59.09391
G1 X125.113 Y126.29 E59.14355
G1 X125.24 Y125 E59.19313
G1 X125.113 Y123.71 E59.24271
G1 X124.737 Y122.468 E59.29234
G1 X124.125 Y121.325 E59.34193
G1 X123.303 Y120.323 E59.3915
G1 X122.3 Y119.5 E59.44113
G1 X121.157 Y118.888 E59.49072
G1 X119.915 Y118.512 E59.54035
G1 X118.625 Y118.385 E59.58993
G1 X117.335 Y118.512 E59.63951
G1 X116.093 Y118.888 E59.68915
G1 X114.95 Y119.5 E59.73874
G1 X113.948 Y120.323 E59.78834
G1 X113.125 Y121.325 E59.83793
G1 X112.513 Y122.468 E59.88752
G1 X112.137 Y123.71 E59.93716
G1 X112.009 Y125 E59.98674
G0 F3300 X111.607 Y125
G1 F2400 X111.743 Y126.368 E60.03933
G1 X112.142 Y127.686 E60.092
G1 X112.791 Y128.898 E60.14458
G1 X113.664 Y129.961 E60.1972
G1 X114.727 Y130.834 E60.24981
G1 X115.939 Y131.483 E60.3024
G1 X117.257 Y131.882 E60.35507
G1 X118.625 Y132.017 E60.40765
G1 X119.993 Y131.882 E60.46022
G1 X121.311 Y131.483 E60.5129
G1 X122.523 Y130.834 E60.56548
G1 X123.587 Y129.961 E60.61813
G1 X124.459 Y128.898 E60.67071
G1 X125.108 Y127.686 E60.7233
G1 X125.507 Y126.368 E60.77597
G1 X125.642 Y125 E60.82855
G1 X125.507 Y123.632 E60.88113
G1 X125.108 Y122.314 E60.9338
G1 X124.459 Y121.102 E60.98639
G1 X123.587 Y120.039 E61.03898
G1 X122.523 Y119.166 E61.09162
G1 X121.311 Y118.517 E61.1442
G1 X119.993 Y118.118 E61.19688
G1 X118.625 Y117.983 E61.24946
G1 X117.257 Y118.118 E61.30203
G1 X115.939 Y118.517 E61.35471
G1 X114.727 Y119.166 E61.40729
G1 X113.664 Y120.039 E61.45991
G1 X112.791 Y121.102 E61.51252
G1 X112.142 Y122.314 E61.5651
G1 X111.743 Y123.632 E61.61778
G1 X111.607 Y125 E61.67036
G0 F3300 X112.477 Y122.453
G0 X113.092 Y121.303
G0 X113.92 Y120.295
G0 X114.928 Y119.467
G0 X116.078 Y118.852
G0 X117.328 Y118.473
G0 X118.378 Y118.37
G0 X132.314 Y118.517
G1 F2400 X131.102 Y119.166 E61.72294
G1 X130.039 Y120.039 E61.77556
G1 X129.166 Y121.102 E61.82817
G1 X128.517 Y122.314 E61.88076
G1 X128.118 Y123.632 E61.93343
G1 X127.983 Y125 E61.98601
G1 X128.118 Y126.368 E62.03859
G1 X128.517 Y127.686 E62.09126
G1 X129.166 Y128.898 E62.14384
G1 X130.039 Y129.961 E62.19646
G1 X131.102 Y130.834 E62.24907
G1 X132.314 Y131.483 E62.30166
G1 X133.632 Y131.882 E62.35433
G1 X135 Y132.017 E62.40691
G1 X136.368 Y131.882 E62.45949
G1 X137.686 Y131.483 E62.51216
G1 X138.898 Y130.834 E62.56474
G1 X139.961 Y129.961 E62.61736
G1 X140.834 Y128.898 E62.66997
G1 X141.483 Y127.686 E62.72256
G1 X141.882 Y126.368 E62.77523
G1 X142.017 Y125 E62.82781
G1 X141.882 Y123.632 E62.88039
G1 X141.483 Y122.314 E62.93306
G1 X140.834 Y121.102 E62.98564
G1 X139.961 Y120.039 E63.03826
G1 X138.898 Y119.166 E63.09087
G1 X137.686 Y118.517 E63.14346
G1 X136.368 Y118.118 E63.19613
G1 X135 Y117.983 E63.24871
G1 X133.632 Y118.118 E63.30129
G1 X132.314 Y118.517 E63.35396
G0 F3300 X135 Y118.345
G0 X151.375 Y118.345
G0 X152.672 Y118.473
G0 X153.922 Y118.852
G0 X155.072 Y119.467
G0 X156.08 Y120.295
G0 X156.908 Y121.303
G0 X157.405 Y122.234
G0 X158.393 Y125
G1 F2400 X158.257 Y123.632 E63.40654
G1 X157.858 Y122.314 E63.45921
G1 X157.209 Y121.102 E63.5118
G1 X156.336 Y120.039 E63.56441
G1 X155.273 Y119.166 E63.61702
G1 X154.061 Y118.517 E63.66961
G1 X152.743 Y118.118 E63.72228
G1 X151.375 Y117.983 E63.77486
G1 X150.007 Y118.118 E63.82744
G1 X148.689 Y118.517 E63.88011
G1 X147.477 Y119.166 E63.9327
G1 X146.413 Y120.039 E63.98534
G1 X145.541 Y121.102 E64.03793
G1 X144.892 Y122.314 E64.09051
G1 X144.493 Y123.632 E64.14319
G1 X144.358 Y125 E64.19577
G1 X144.493 Y126.368 E64.24834
G1 X144.892 Y127.686 E64.30102
G1 X145.541 Y128.898 E64.3536
G1 X146.413 Y129.961 E64.40619
G1 X147.477 Y130.834 E64.45883
G1 X148.689 Y131.483 E64.51142
G1 X150.007 Y131.882 E64.56409
G1 X151.375 Y132.017 E64.61667
G1 X152.743 Y131.882 E64.66925
G1 X154.061 Y131.483 E64.72192
G1 X155.273 Y130.834 E64.77451
G1 X156.336 Y129.961 E64.82712
G1 X157.209 Y128.898 E64.87973
G1 X157.858 Y127.686 E64.93232
G1 X158.257 Y126.368 E64.98499
G1 X158.393 Y125 E65.03757
G0 F3300 X169.75 Y134.75
G1 F2400 X100.25 Y134.75 E67.69589
G1 X100.25 Y115.25 E68.44175
G1 X169.75 Y115.25 E71.10007
G1 X169.75 Y134.75 E71.84592
G0 F3300 X169.35 Y134.35
G1 F2400 X100.65 Y134.35 E74.47364
G1 X100.65 Y115.65 E75.1889
G1 X169.35 Y115.65 E77.81662
G1 X169.35 Y134.35 E78.53188
G0 F3300 X158.795 Y125
G1 F2400 X158.651 Y123.554 E78.58746
G1 X158.229 Y122.16 E78.64317
G1 X157.543 Y120.879 E78.69875
G1 X156.62 Y119.755 E78.75438
G1 X155.496 Y118.832 E78.81001
G1 X154.215 Y118.146 E78.86559
G1 X152.821 Y117.724 E78.9213
G1 X151.375 Y117.581 E78.97687
G1 X149.929 Y117.724 E79.03245
G1 X148.535 Y118.146 E79.08816
G1 X147.254 Y118.832 E79.14374
G1 X146.129 Y119.755 E79.1994
G1 X145.207 Y120.879 E79.25501
G1 X144.521 Y122.16 E79.31059
G1 X144.099 Y123.554 E79.3663
G1 X143.956 Y125 E79.42188
G1 X144.099 Y126.446 E79.47745
G1 X144.521 Y127.84 E79.53316
G1 X145.207 Y129.121 E79.58874
G1 X146.129 Y130.245 E79.64435
G1 X147.254 Y131.168 E79.70001
G1 X148.535 Y131.854 E79.75559
G1 X149.929 Y132.276 E79.8113
G1 X151.375 Y132.419 E79.86688
G1 X152.821 Y132.276 E79.92245
G1 X154.215 Y131.854 E79.97816
G1 X155.496 Y131.168 E80.03374
G1 X156.62 Y130.245 E80.08937
G1 X157.543 Y129.121 E80.145
