;FLAVOR:Marlin
;TIME:4654
;Filament used: 6.46945m
;Layer height: 0.2
;Generated with Cura_SteamEngine 3.5.1
M140 S65
M105
M190 S65
M104 S200
M105
M109 S200
M82 ;absolute extrusion mode
G28 ;Home
G1 Z5.0 F600 ;Move the platform down 15mm
;Prime the extruder
G1 Y0 F5000
G92 E0
G1 F200 E3
G92 E0
G92 E0
G1 F1500 E-6.5
;LAYER_COUNT:68
;LAYER:0
M107
G0 F3300 X89.637 Y107.488 Z0.2
;TYPE:SKIRT
G1 F1500 E0
G1 F2400 X89.936 Y107.258 E0.01443
G1 X92.839 Y105.257 E0.14929
G1 X97.271 Y101.988 E0.35993
G1 X101.452 Y98.525 E0.56758
G1 X105.481 Y94.783 E0.7779
G1 X107.37 Y92.874 E0.88063
G1 X111.043 Y88.83 E1.08958
G1 X114.465 Y84.606 E1.29751
G1 X118.634 Y78.719 E1.57343
G1 X118.976 Y78.305 E1.59397
G1 X119.203 Y78.089 E1.60596
G1 X125.835 Y72.291 E1.9429
G1 X126.071 Y72.101 E1.95449
G1 X127.228 Y71.25 E2.00942
G1 X127.711 Y70.951 E2.03115
G1 X128.849 Y70.364 E2.08013
G1 X129.267 Y70.18 E2.09759
G1 X130.549 Y69.713 E2.14978
G1 X131.166 Y69.549 E2.1742
G1 X133.573 Y69.132 E2.26764
G1 X134.195 Y69.079 E2.29152
G1 X135.774 Y69.082 E2.35191
G1 X136.249 Y69.114 E2.37012
G1 X137.706 Y69.311 E2.42636
G1 X138.266 Y69.433 E2.44828
G1 X140.365 Y70.068 E2.53216
G1 X140.962 Y70.309 E2.55678
G1 X142.147 Y70.915 E2.60769
G1 X142.643 Y71.221 E2.62998
G1 X143.83 Y72.095 E2.68636
G1 X144.053 Y72.274 E2.6973
G1 X150.606 Y77.954 E3.029
G1 X150.984 Y78.334 E3.0495
G1 X151.214 Y78.634 E3.06396
G1 X153.303 Y81.671 E3.20495
G1 X156.604 Y86.068 E3.41525
G1 X160.118 Y90.235 E3.62374
G1 X163.885 Y94.219 E3.83346
G1 X165.798 Y96.079 E3.93552
G1 X169.892 Y99.732 E4.14538
G1 X174.169 Y103.137 E4.35449
G1 X176.323 Y104.707 E4.45644
G1 X180.019 Y107.199 E4.62694
G1 X180.44 Y107.532 E4.64747
G1 X180.72 Y107.819 E4.6628
G1 X187.695 Y115.826 E5.06897
G1 X187.874 Y116.049 E5.07991
G1 X188.727 Y117.201 E5.13474
G1 X189.052 Y117.728 E5.15842
G1 X189.746 Y119.111 E5.2176
G1 X189.984 Y119.717 E5.24251
G1 X190.578 Y121.752 E5.32359
G1 X190.686 Y122.256 E5.34331
G1 X190.886 Y123.668 E5.39785
G1 X190.922 Y124.18 E5.41749
G1 X190.919 Y125.743 E5.47727
G1 X190.882 Y126.251 E5.49675
G1 X190.632 Y127.98 E5.56357
G1 X190.525 Y128.474 E5.5829
G1 X190.147 Y129.768 E5.63447
G1 X189.955 Y130.279 E5.65535
G1 X189.128 Y132.055 E5.73028
G1 X188.713 Y132.736 E5.76078
G1 X187.373 Y134.47 E5.84461
G1 X187.249 Y134.622 E5.85211
G1 X184.904 Y137.338 E5.98936
G1 X184.9 Y137.342 E5.98957
G1 X180.94 Y141.914 E6.22092
G1 X180.56 Y142.292 E6.24143
G1 X180.262 Y142.521 E6.2558
G1 X175.927 Y145.509 E6.45718
G1 X171.57 Y148.817 E6.66642
G1 X167.411 Y152.361 E6.87542
G1 X163.489 Y156.106 E7.08284
G1 X159.731 Y160.126 E7.29333
G1 X157.958 Y162.191 E7.39743
G1 X156.284 Y164.259 E7.4992
G1 X152.991 Y168.694 E7.71048
G1 X151.091 Y171.498 E7.84003
G1 X150.758 Y171.918 E7.86054
G1 X150.528 Y172.146 E7.87292
G1 X149.408 Y173.161 E7.93074
G1 X149.353 Y173.21 E7.93355
G1 X144.905 Y177.077 E8.15899
G1 X144.775 Y177.185 E8.16546
G1 X143.047 Y178.55 E8.24968
G1 X142.447 Y178.934 E8.27693
G1 X140.733 Y179.806 E8.35049
G1 X140.076 Y180.062 E8.37746
G1 X138.21 Y180.587 E8.4516
G1 X137.744 Y180.686 E8.46982
G1 X136.35 Y180.885 E8.52368
G1 X135.836 Y180.921 E8.54339
G1 X134.271 Y180.919 E8.60325
G1 X133.69 Y180.871 E8.62555
G1 X131.409 Y180.495 E8.71397
G1 X130.799 Y180.338 E8.73807
G1 X129.479 Y179.873 E8.7916
G1 X129.035 Y179.683 E8.81007
G1 X127.833 Y179.068 E8.86171
G1 X127.261 Y178.703 E8.88767
G1 X125.378 Y177.236 E8.97897
G1 X125.225 Y177.111 E8.98652
G1 X119.27 Y171.924 E9.28859
G1 X118.893 Y171.542 E9.30912
G1 X118.646 Y171.216 E9.32476
G1 X117.272 Y169.17 E9.41903
G1 X114.029 Y164.743 E9.62893
G1 X110.573 Y160.549 E9.83679
G1 X106.864 Y156.532 E10.04592
G1 X104.918 Y154.597 E10.15089
G1 X102.973 Y152.769 E10.25298
G1 X98.813 Y149.181 E10.4631
G1 X94.494 Y145.86 E10.67149
G1 X89.99 Y142.775 E10.8803
G1 X89.571 Y142.44 E10.90082
G1 X89.325 Y142.187 E10.91432
G1 X84.685 Y136.928 E11.18257
G1 X84.659 Y136.898 E11.18409
G1 X82.133 Y133.971 E11.33197
G1 X81.892 Y133.66 E11.34702
G1 X81.036 Y132.416 E11.40478
G1 X80.793 Y132.007 E11.42298
G1 X80.354 Y131.144 E11.46001
G1 X80.182 Y130.747 E11.47656
G1 X79.832 Y129.789 E11.51557
G1 X79.725 Y129.446 E11.52932
G1 X79.392 Y128.144 E11.58072
G1 X79.316 Y127.758 E11.59577
G1 X79.116 Y126.35 E11.65016
G1 X79.08 Y125.846 E11.66949
G1 X79.079 Y124.285 E11.7292
G1 X79.115 Y123.779 E11.7486
G1 X79.358 Y122.062 E11.81493
G1 X79.483 Y121.502 E11.83687
G1 X79.998 Y119.838 E11.9035
G1 X80.198 Y119.331 E11.92435
G1 X80.897 Y117.89 E11.9856
G1 X81.304 Y117.239 E12.01497
G1 X82.798 Y115.335 E12.10754
G1 X82.908 Y115.201 E12.11417
G1 X89.257 Y107.866 E12.48523
G1 X89.637 Y107.488 E12.50573
G0 F3300 X89.92 Y107.773
G1 F2400 X90.163 Y107.587 E12.51744
G1 X93.089 Y105.57 E12.65337
G1 X97.51 Y102.31 E12.86347
G1 X101.715 Y98.827 E13.07232
G1 X105.767 Y95.064 E13.28383
G1 X107.645 Y93.165 E13.38598
G1 X111.35 Y89.085 E13.59678
G1 X114.783 Y84.849 E13.80533
G1 X118.96 Y78.95 E14.0818
G1 X119.466 Y78.39 E14.11067
G1 X126.098 Y72.592 E14.44761
G1 X126.308 Y72.423 E14.45792
G1 X127.465 Y71.572 E14.51286
G1 X127.894 Y71.306 E14.53217
G1 X129.032 Y70.719 E14.58114
G1 X129.404 Y70.556 E14.59668
G1 X130.686 Y70.089 E14.64886
G1 X131.235 Y69.943 E14.67059
G1 X133.642 Y69.526 E14.76403
G1 X134.194 Y69.479 E14.78522
G1 X135.773 Y69.482 E14.84562
G1 X136.196 Y69.511 E14.86183
G1 X137.653 Y69.708 E14.91807
G1 X138.151 Y69.816 E14.93756
G1 X140.25 Y70.451 E15.02144
G1 X140.78 Y70.665 E15.0433
G1 X141.965 Y71.271 E15.09421
G1 X142.405 Y71.543 E15.11399
G1 X143.592 Y72.417 E15.17038
G1 X143.791 Y72.576 E15.18012
G1 X150.344 Y78.256 E15.51182
G1 X150.699 Y78.616 E15.53116
G1 X150.885 Y78.861 E15.54292
G1 X152.99 Y81.922 E15.68501
G1 X156.287 Y86.313 E15.89504
G1 X159.813 Y90.493 E16.10421
G1 X163.598 Y94.498 E16.31498
G1 X165.536 Y96.381 E16.41834
G1 X169.622 Y100.027 E16.6278
G1 X173.932 Y103.458 E16.83851
G1 X176.118 Y105.051 E16.94197
G1 X179.795 Y107.531 E17.11161
G1 X180.191 Y107.846 E17.13096
G1 X180.419 Y108.082 E17.14351
G1 X187.394 Y116.089 E17.54968
G1 X187.553 Y116.287 E17.55939
G1 X188.406 Y117.439 E17.61422
G1 X188.694 Y117.908 E17.63527
G1 X189.388 Y119.291 E17.69446
G1 X189.6 Y119.829 E17.71657
G1 X190.194 Y121.864 E17.79766
G1 X190.29 Y122.312 E17.81518
G1 X190.49 Y123.724 E17.86973
G1 X190.522 Y124.179 E17.88718
G1 X190.519 Y125.742 E17.94696
G1 X190.486 Y126.194 E17.9643
G1 X190.236 Y127.923 E18.03112
G1 X190.141 Y128.362 E18.0483
G1 X189.763 Y129.656 E18.09986
G1 X189.592 Y130.11 E18.11841
G1 X188.765 Y131.886 E18.19335
G1 X188.396 Y132.492 E18.22049
G1 X187.056 Y134.226 E18.30431
G1 X186.946 Y134.36 E18.31094
G1 X184.601 Y137.076 E18.44819
G1 X184.598 Y137.08 E18.44838
G1 X180.638 Y141.652 E18.67973
G1 X180.278 Y142.007 E18.69907
G1 X180.035 Y142.192 E18.71075
G1 X175.694 Y145.184 E18.91241
G1 X171.312 Y148.511 E19.12285
G1 X167.15 Y152.058 E19.33201
G1 X163.195 Y155.835 E19.54119
G1 X159.429 Y159.863 E19.75211
G1 X157.659 Y161.924 E19.85602
G1 X155.957 Y164.027 E19.9595
G1 X152.675 Y168.448 E20.1701
G1 X150.76 Y171.273 E20.30064
G1 X150.444 Y171.668 E20.31999
G1 X150.26 Y171.849 E20.32986
G1 X149.14 Y172.864 E20.38768
G1 X149.091 Y172.908 E20.3902
G1 X144.643 Y176.775 E20.61563
G1 X144.527 Y176.871 E20.62139
G1 X142.799 Y178.236 E20.70562
G1 X142.266 Y178.577 E20.72982
G1 X140.552 Y179.449 E20.80338
G1 X139.968 Y179.677 E20.82736
G1 X138.102 Y180.202 E20.9015
G1 X137.687 Y180.29 E20.91773
G1 X136.293 Y180.489 E20.97159
G1 X135.837 Y180.521 E20.98907
G1 X134.272 Y180.519 E21.04893
G1 X133.756 Y180.476 E21.06874
G1 X131.475 Y180.1 E21.15716
G1 X130.932 Y179.961 E21.1786
G1 X129.612 Y179.496 E21.23213
G1 X129.217 Y179.327 E21.24856
G1 X128.015 Y178.712 E21.30021
G1 X127.506 Y178.387 E21.32331
G1 X125.623 Y176.92 E21.41461
G1 X125.488 Y176.809 E21.42129
G1 X119.533 Y171.622 E21.72336
G1 X119.179 Y171.261 E21.7427
G1 X118.978 Y170.993 E21.75551
G1 X117.59 Y168.926 E21.85074
G1 X114.359 Y164.517 E22.05982
G1 X110.866 Y160.278 E22.26991
G1 X107.146 Y156.248 E22.47968
G1 X105.191 Y154.304 E22.58514
G1 X103.238 Y152.469 E22.68764
G1 X99.082 Y148.883 E22.8976
G1 X94.721 Y145.53 E23.10801
G1 X90.216 Y142.445 E23.31685
G1 X89.823 Y142.127 E23.33619
G1 X89.624 Y141.922 E23.34711
G1 X84.984 Y136.663 E23.61537
G1 X84.961 Y136.637 E23.61669
G1 X82.435 Y133.71 E23.76458
G1 X82.222 Y133.433 E23.77794
G1 X81.366 Y132.189 E23.8357
G1 X81.15 Y131.826 E23.85186
G1 X80.711 Y130.963 E23.88889
G1 X80.557 Y130.61 E23.90362
G1 X80.207 Y129.652 E23.94263
G1 X80.113 Y129.347 E23.95484
G1 X79.78 Y128.045 E24.00624
G1 X79.712 Y127.702 E24.01962
G1 X79.512 Y126.294 E24.07401
G1 X79.48 Y125.846 E24.09119
G1 X79.479 Y124.285 E24.1509
G1 X79.511 Y123.835 E24.16816
G1 X79.754 Y122.118 E24.23448
G1 X79.865 Y121.62 E24.254
G1 X80.38 Y119.956 E24.32063
G1 X80.558 Y119.505 E24.33917
G1 X81.257 Y118.064 E24.40043
G1 X81.618 Y117.486 E24.4265
G1 X83.112 Y115.582 E24.51907
G1 X83.21 Y115.463 E24.52496
G1 X89.559 Y108.128 E24.89602
G1 X89.92 Y107.773 E24.91539
G0 F3300 X92.119 Y110.358
;TYPE:SUPPORT
G1 F2400 X92.264 Y110.273 E24.92182
G1 X92.334 Y110.168 E24.92664
G1 X92.469 Y110.11 E24.93226
G1 X92.469 Y139.786 E26.06735
G1 X92.138 Y139.644 E26.08112
G1 X92.049 Y139.508 E26.08734
G1 X91.924 Y139.438 E26.09282
G1 X91.824 Y139.26 E26.10063
G1 X91.728 Y139.203 E26.1049
G1 X91.626 Y139.029 E26.11261
G1 X91.52 Y138.97 E26.11725
G1 X91.422 Y138.8 E26.12476
G1 X91.311 Y138.737 E26.12964
G1 X91.221 Y138.583 E26.13646
G1 X91.136 Y138.534 E26.14021
G1 X91.028 Y138.337 E26.14881
G1 X90.919 Y138.277 E26.15357
G1 X90.821 Y138.109 E26.16101
G1 X90.719 Y138.051 E26.16549
G1 X90.623 Y137.884 E26.17286
G1 X90.519 Y137.825 E26.17744
G1 X90.426 Y137.663 E26.18458
G1 X90.325 Y137.603 E26.18907
G1 X90.223 Y137.428 E26.19682
G1 X90.12 Y137.369 E26.20136
G1 X90.019 Y137.195 E26.20906
G1 X89.929 Y137.143 E26.21303
G1 X89.833 Y136.975 E26.22043
G1 X89.727 Y136.914 E26.22511
G1 X89.624 Y136.733 E26.23308
G1 X89.53 Y136.679 E26.23722
G1 X89.43 Y136.497 E26.24517
G1 X89.31 Y136.43 E26.25042
G1 X89.223 Y136.277 E26.25716
G1 X89.12 Y136.219 E26.26168
G1 X89.016 Y136.041 E26.26956
G1 X88.93 Y135.994 E26.27331
G1 X88.823 Y135.801 E26.28175
G1 X88.701 Y135.736 E26.28704
G1 X88.634 Y135.616 E26.2923
G1 X88.526 Y135.547 E26.2972
G1 X88.422 Y135.376 E26.30485
G1 X88.333 Y135.321 E26.30885
G1 X88.223 Y135.138 E26.31702
G1 X88.127 Y135.085 E26.32122
G1 X88.023 Y134.9 E26.32933
G1 X87.913 Y134.837 E26.33418
G1 X87.812 Y134.67 E26.34165
G1 X87.731 Y134.621 E26.34527
G1 X87.622 Y134.428 E26.35375
G1 X87.524 Y134.373 E26.35804
G1 X87.423 Y134.2 E26.36571
G1 X87.319 Y134.143 E26.37024
G1 X87.234 Y133.993 E26.37684
G1 X87.134 Y133.932 E26.38132
G1 X87.028 Y133.751 E26.38934
G1 X86.935 Y133.699 E26.39342
G1 X86.833 Y133.514 E26.4015
G1 X86.704 Y133.441 E26.40717
G1 X86.63 Y133.315 E26.41275
G1 X86.546 Y133.262 E26.41655
G1 X86.414 Y133.032 E26.4267
G1 X86.301 Y132.969 E26.43165
G1 X86.208 Y132.818 E26.43843
G1 X86.119 Y132.769 E26.44231
G1 X86.028 Y132.608 E26.44939
G1 X85.922 Y132.547 E26.45407
G1 X85.819 Y132.374 E26.46177
G1 X85.74 Y132.328 E26.46526
G1 X85.625 Y132.127 E26.47412
G1 X85.507 Y132.063 E26.47926
G1 X85.427 Y131.92 E26.48552
G1 X85.328 Y131.861 E26.48993
G1 X85.228 Y131.693 E26.49741
G1 X85.112 Y131.626 E26.50253
G1 X85.001 Y131.436 E26.51095
G1 X84.929 Y131.387 E26.51428
G1 X84.797 Y131.133 E26.52523
G1 X84.709 Y131.075 E26.52926
G1 X84.604 Y130.883 E26.53763
G1 X84.524 Y130.83 E26.5413
G1 X84.407 Y130.606 E26.55097
G1 X84.304 Y130.512 E26.5563
G1 X84.172 Y130.196 E26.5694
G1 X84.091 Y130.124 E26.57355
G1 X83.964 Y129.83 E26.5858
G1 X83.9 Y129.772 E26.5891
G1 X83.728 Y129.378 E26.60554
G1 X83.695 Y129.334 E26.60765
G1 X83.533 Y128.853 E26.62706
G1 X83.501 Y128.807 E26.6292
G1 X83.326 Y128.254 E26.65139
G1 X83.269 Y128.135 E26.65644
G1 X83.269 Y127.666 E26.67437
G1 X83.077 Y127.261 E26.69152
G1 X83.068 Y127.219 E26.69316
G1 X83.068 Y126.667 E26.71427
G1 X82.868 Y125.807 E26.74805
G1 X82.868 Y124.311 E26.80527
G1 X83.068 Y123.413 E26.84046
G1 X83.068 Y122.799 E26.86394
G1 X83.082 Y122.737 E26.86637
G1 X83.268 Y122.333 E26.88338
G1 X83.272 Y121.942 E26.89834
G1 X83.317 Y121.852 E26.90219
G1 X83.48 Y121.349 E26.92241
G1 X83.525 Y121.292 E26.92519
G1 X83.701 Y120.746 E26.94713
G1 X83.745 Y120.686 E26.94998
G1 X83.898 Y120.338 E26.96452
G1 X83.967 Y120.274 E26.96812
G1 X84.115 Y119.924 E26.98265
G1 X84.163 Y119.877 E26.98522
G1 X84.29 Y119.579 E26.99761
G1 X84.416 Y119.462 E27.00419
G1 X84.501 Y119.299 E27.01122
G1 X84.6 Y119.235 E27.01573
G1 X84.707 Y119.019 E27.02495
G1 X84.792 Y118.963 E27.02884
G1 X84.914 Y118.722 E27.03918
G1 X85.02 Y118.653 E27.04401
G1 X85.149 Y118.424 E27.05407
G1 X85.218 Y118.379 E27.05722
G1 X85.289 Y118.259 E27.06255
G1 X85.406 Y118.197 E27.06762
G1 X85.515 Y118.008 E27.07596
G1 X85.62 Y117.948 E27.08059
G1 X85.704 Y117.802 E27.08703
G1 X85.811 Y117.744 E27.09168
G1 X85.925 Y117.541 E27.10059
G1 X86.036 Y117.476 E27.10551
G1 X86.121 Y117.323 E27.1122
G1 X86.231 Y117.263 E27.117
G1 X86.336 Y117.067 E27.1255
G1 X86.43 Y117.015 E27.12961
G1 X86.549 Y116.802 E27.13894
G1 X86.621 Y116.758 E27.14217
G1 X86.699 Y116.624 E27.1481
G1 X86.826 Y116.553 E27.15367
G1 X86.91 Y116.404 E27.16021
G1 X87.021 Y116.345 E27.16502
G1 X87.131 Y116.139 E27.17395
G1 X87.236 Y116.079 E27.17857
G1 X87.341 Y115.897 E27.18661
G1 X87.42 Y115.846 E27.19021
G1 X87.502 Y115.704 E27.19648
G1 X87.614 Y115.642 E27.20138
G1 X87.711 Y115.477 E27.2087
G1 X87.824 Y115.413 E27.21366
G1 X87.962 Y115.161 E27.22465
G1 X88.022 Y115.122 E27.22739
G1 X88.099 Y114.996 E27.23304
G1 X88.226 Y114.921 E27.23868
G1 X88.322 Y114.751 E27.24615
G1 X88.412 Y114.7 E27.25011
G1 X88.518 Y114.519 E27.25813
G1 X88.605 Y114.468 E27.26199
G1 X88.692 Y114.325 E27.26839
G1 X88.829 Y114.251 E27.27434
G1 X88.942 Y114.038 E27.28357
G1 X89.019 Y113.995 E27.28694
G1 X89.126 Y113.814 E27.29498
G1 X89.222 Y113.753 E27.29933
G1 X89.3 Y113.62 E27.30523
G1 X89.427 Y113.549 E27.31079
G1 X89.535 Y113.353 E27.31935
G1 X89.632 Y113.296 E27.32366
G1 X89.715 Y113.148 E27.33015
G1 X89.826 Y113.087 E27.33499
G1 X89.939 Y112.879 E27.34405
G1 X90.02 Y112.833 E27.34761
G1 X90.106 Y112.687 E27.35409
G1 X90.219 Y112.622 E27.35908
G1 X90.309 Y112.463 E27.36607
G1 X90.426 Y112.399 E27.37117
G1 X90.528 Y112.21 E27.37938
G1 X90.625 Y112.156 E27.38363
G1 X90.721 Y111.985 E27.39113
G1 X90.822 Y111.927 E27.39558
G1 X90.925 Y111.746 E27.40355
G1 X91.028 Y111.687 E27.40809
G1 X91.122 Y111.514 E27.41562
G1 X91.227 Y111.456 E27.42021
G1 X91.321 Y111.288 E27.42757
G1 X91.42 Y111.233 E27.4319
G1 X91.52 Y111.053 E27.43978
G1 X91.624 Y110.995 E27.44433
G1 X91.724 Y110.817 E27.45214
G1 X91.818 Y110.765 E27.45625
G1 X91.924 Y110.581 E27.46437
G1 X92.024 Y110.521 E27.46883
G1 X92.119 Y110.358 E27.47605
G0 F3300 X92.309 Y111.993
G1 F2400 X90.969 Y111.993 E27.5273
G0 F3300 X90.661 Y112.318
G1 F2400 X90.661 Y137.721 E28.49895
G0 F3300 X91.494 Y138.658
G1 F2400 X92.308 Y138.658 E28.53008
G0 F3300 X92.308 Y133.325
G1 F2400 X86.823 Y133.325 E28.73988
G0 F3300 X85.328 Y131.566
G1 F2400 X85.328 Y118.498 E29.23972
G0 F3300 X86.38 Y117.326
G1 F2400 X92.309 Y117.326 E29.4665
G0 F3300 X92.308 Y122.659
G1 F2400 X83.294 Y122.659 E29.81128
G0 F3300 X83.428 Y127.992
G1 F2400 X92.308 Y127.992 E30.15093
G1 F1500 E23.65093
G0 F3300 X93.638 Y128.213
G0 X93.682 Y128.219
G0 X120.544 Y132.678
G0 X120.588 Y132.684
G0 X120.86 Y132.731
G1 F1500 E30.15093
G1 F2400 X120.86 Y117.167 E30.74624
G1 X121.065 Y117.24 E30.75456
G1 X121.914 Y117.463 E30.78814
G1 X122.562 Y117.577 E30.8133
G1 X122.982 Y117.601 E30.82939
G1 X123.961 Y117.565 E30.86687
G1 X124.436 Y117.496 E30.88522
G1 X124.932 Y117.348 E30.90502
G1 X125.472 Y117.131 E30.92728
G1 X125.744 Y116.983 E30.93913
G1 X126.504 Y116.502 E30.97353
G1 X127.068 Y115.598 E31.01428
G1 X127.208 Y115.296 E31.02702
G1 X127.356 Y114.936 E31.0419
G1 X127.502 Y114.415 E31.0626
G1 X127.599 Y113.842 E31.08483
G1 X127.628 Y113.318 E31.1049
G1 X127.628 Y113.123 E31.11236
G1 X127.581 Y112.467 E31.13751
G1 X127.471 Y111.876 E31.16051
G1 X127.242 Y111.006 E31.19492
G1 X127.185 Y110.85 E31.20127
